LUTs/greychecker.cube
TITLE "Generated by lutgen"
LUT_3D_SIZE 5
0 1 0
0.98 0.98 0.98
0.98 0.98 0.98
0.98 0.98 0.98
0.98 0.98 0.98
0.98 0.98 0.98
0.98 0.98 0.98
0.98 0.98 0.98
0.98 0.98 0.98
0.98 0.98 0.98
0.98 0.98 0.98
0.98 0.98 0.98
0.98 0.98 0.98
0.98 0.98 0.98
0.98 0.98 0.98
0.98 0.98 0.98
0.98 0.98 0.98
0.98 0.98 0.98
0.98 0.98 0.98
0.98 0.98 0.98
0.98 0.98 0.98
0.98 0.98 0.98
0.98 0.98 0.98
0.98 0.98 0.98
0.98 0.98 0.98
0.98 0.98 0.98
0.98 0.98 0.98
0.98 0.98 0.98
0.98 0.98 0.98
0.98 0.98 0.98
0.98 0.98 0.98
0 1 0
0.5 0.5 0.5
0.66 0.66 0.66
0.74 0.74 0.74
0.98 0.98 0.98
0.5 0.5 0.5
0.5 0.5 0.5
0.66 0.66 0.66
0.74 0.74 0.74
0.98 0.98 0.98
0.66 0.66 0.66
0.66 0.66 0.66
0.66 0.66 0.66
0.74 0.74 0.74
0.98 0.98 0.98
0.74 0.74 0.74
0.74 0.74 0.74
0.74 0.74 0.74
0.74 0.74 0.74
0.98 0.98 0.98
0.98 0.98 0.98
0.98 0.98 0.98
0.98 0.98 0.98
0.98 0.98 0.98
0.98 0.98 0.98
0.5 0.5 0.5
0.5 0.5 0.5
0.66 0.66 0.66
0.74 0.74 0.74
0.98 0.98 0.98
0.5 0.5 0.5
0 1 0
0.32 0.32 0.32
0.5 0.5 0.5
0.98 0.98 0.98
0.66 0.66 0.66
0.32 0.32 0.32
0.32 0.32 0.32
0.5 0.5 0.5
0.98 0.98 0.98
0.74 0.74 0.74
0.5 0.5 0.5
0.5 0.5 0.5
0.5 0.5 0.5
0.98 0.98 0.98
0.98 0.98 0.98
0.98 0.98 0.98
0.98 0.98 0.98
0.98 0.98 0.98
0.98 0.98 0.98
0.66 0.66 0.66
0.66 0.66 0.66
0.66 0.66 0.66
0.74 0.74 0.74
0.98 0.98 0.98
0.66 0.66 0.66
0.32 0.32 0.32
0.32 0.32 0.32
0.5 0.5 0.5
0.98 0.98 0.98
0.66 0.66 0.66
0.32 0.32 0.32
0 1 0
0.24 0.24 0.24
0.98 0.98 0.98
0.74 0.74 0.74
0.5 0.5 0.5
0.24 0.24 0.24
0.24 0.24 0.24
0.98 0.98 0.98
0.98 0.98 0.98
0.98 0.98 0.98
0.98 0.98 0.98
0.98 0.98 0.98
0.98 0.98 0.98
0.74 0.74 0.74
0.74 0.74 0.74
0.74 0.74 0.74
0.74 0.74 0.74
0.98 0.98 0.98
0.74 0.74 0.74
0.5 0.5 0.5
0.5 0.5 0.5
0.5 0.5 0.5
0.98 0.98 0.98
0.74 0.74 0.74
0.5 0.5 0.5
0.24 0.24 0.24
0.24 0.24 0.24
0.98 0.98 0.98
0.74 0.74 0.74
0.5 0.5 0.5
0.24 0.24 0.24
0 1 0
