LUTs/greychecker.cube
TITLE "Generated by lutgen"
LUT_3D_SIZE 33
0 1 0
0.98 0.98 0.98
0.98 0.98 0.98
0.98 0.98 0.98
0.98 0.98 0.98
0.98 0.98 0.98
0.98 0.98 0.98
0.98 0.98 0.98
0.98 0.98 0.98
0.98 0.98 0.98
0.98 0.98 0.98
0.98 0.98 0.98
0.98 0.98 0.98
0.98 0.98 0.98
0.98 0.98 0.98
0.98 0.98 0.98
0.98 0.98 0.98
0.98 0.98 0.98
0.98 0.98 0.98
0.98 0.98 0.98
0.98 0.98 0.98
0.98 0.98 0.98
0.98 0.98 0.98
0.98 0.98 0.98
0.98 0.98 0.98
0.98 0.98 0.98
0.98 0.98 0.98
0.98 0.98 0.98
0.98 0.98 0.98
0.98 0.98 0.98
0.98 0.98 0.98
0.98 0.98 0.98
0.98 0.98 0.98
0.98 0.98 0.98
0.98 0.98 0.98
0.98 0.98 0.98
0.98 0.98 0.98
0.98 0.98 0.98
0.98 0.98 0.98
0.98 0.98 0.98
0.98 0.98 0.98
0.98 0.98 0.98
0.98 0.98 0.98
0.98 0.98 0.98
0.98 0.98 0.98
0.98 0.98 0.98
0.98 0.98 0.98
0.98 0.98 0.98
0.98 0.98 0.98
0.98 0.98 0.98
0.98 0.98 0.98
0.98 0.98 0.98
0.98 0.98 0.98
0.98 0.98 0.98
0.98 0.98 0.98
0.98 0.98 0.98
0.98 0.98 0.98
0.98 0.98 0.98
0.98 0.98 0.98
0.98 0.98 0.98
0.98 0.98 0.98
0.98 0.98 0.98
0.98 0.98 0.98
0.98 0.98 0.98
0.98 0.98 0.98
0.98 0.98 0.98
0.98 0.98 0.98
0.98 0.98 0.98
0.98 0.98 0.98
0.98 0.98 0.98
0.98 0.98 0.98
0.98 0.98 0.98
0.98 0.98 0.98
0.98 0.98 0.98
0.98 0.98 0.98
0.98 0.98 0.98
0.98 0.98 0.98
0.98 0.98 0.98
0.98 0.98 0.98
0.98 0.98 0.98
0.98 0.98 0.98
0.98 0.98 0.98
0.98 0.98 0.98
0.98 0.98 0.98
0.98 0.98 0.98
0.98 0.98 0.98
0.98 0.98 0.98
0.98 0.98 0.98
0.98 0.98 0.98
0.98 0.98 0.98
0.98 0.98 0.98
0.98 0.98 0.98
0.98 0.98 0.98
0.98 0.98 0.98
0.98 0.98 0.98
0.98 0.98 0.98
0.98 0.98 0.98
0.98 0.98 0.98
0.98 0.98 0.98
0.98 0.98 0.98
0.98 0.98 0.98
0.98 0.98 0.98
0.98 0.98 0.98
0.98 0.98 0.98
0.98 0.98 0.98
0.98 0.98 0.98
0.98 0.98 0.98
0.98 0.98 0.98
0.98 0.98 0.98
0.98 0.98 0.98
0.98 0.98 0.98
0.98 0.98 0.98
0.98 0.98 0.98
0.98 0.98 0.98
0.98 0.98 0.98
0.98 0.98 0.98
0.98 0.98 0.98
0.98 0.98 0.98
0.98 0.98 0.98
0.98 0.98 0.98
0.98 0.98 0.98
0.98 0.98 0.98
0.98 0.98 0.98
0.98 0.98 0.98
0.98 0.98 0.98
0.98 0.98 0.98
0.98 0.98 0.98
0.98 0.98 0.98
0.98 0.98 0.98
0.98 0.98 0.98
0.98 0.98 0.98
0.98 0.98 0.98
0.98 0.98 0.98
0.98 0.98 0.98
0.98 0.98 0.98
0.98 0.98 0.98
0.98 0.98 0.98
0.98 0.98 0.98
0.98 0.98 0.98
0.98 0.98 0.98
0.98 0.98 0.98
0.98 0.98 0.98
0.98 0.98 0.98
0.98 0.98 0.98
0.98 0.98 0.98
0.98 0.98 0.98
0.98 0.98 0.98
0.98 0.98 0.98
0.98 0.98 0.98
0.98 0.98 0.98
0.98 0.98 0.98
0.98 0.98 0.98
0.98 0.98 0.98
0.98 0.98 0.98
0.98 0.98 0.98
0.98 0.98 0.98
0.98 0.98 0.98
0.98 0.98 0.98
0.98 0.98 0.98
0.98 0.98 0.98
0.98 0.98 0.98
0.98 0.98 0.98
0.98 0.98 0.98
0.98 0.98 0.98
0.98 0.98 0.98
0.98 0.98 0.98
0.98 0.98 0.98
0.98 0.98 0.98
0.98 0.98 0.98
0.98 0.98 0.98
0.98 0.98 0.98
0.98 0.98 0.98
0.98 0.98 0.98
0.98 0.98 0.98
0.98 0.98 0.98
0.98 0.98 0.98
0.98 0.98 0.98
0.98 0.98 0.98
0.98 0.98 0.98
0.98 0.98 0.98
0.98 0.98 0.98
0.98 0.98 0.98
0.98 0.98 0.98
0.98 0.98 0.98
0.98 0.98 0.98
0.98 0.98 0.98
0.98 0.98 0.98
0.98 0.98 0.98
0.98 0.98 0.98
0.98 0.98 0.98
0.98 0.98 0.98
0.98 0.98 0.98
0.98 0.98 0.98
0.98 0.98 0.98
0.98 0.98 0.98
0.98 0.98 0.98
0.98 0.98 0.98
0.98 0.98 0.98
0.98 0.98 0.98
0.98 0.98 0.98
0.98 0.98 0.98
0.98 0.98 0.98
0.98 0.98 0.98
0.98 0.98 0.98
0.98 0.98 0.98
0.98 0.98 0.98
0.98 0.98 0.98
0.98 0.98 0.98
0.98 0.98 0.98
0.98 0.98 0.98
0.98 0.98 0.98
0.98 0.98 0.98
0.98 0.98 0.98
0.98 0.98 0.98
0.98 0.98 0.98
0.98 0.98 0.98
0.98 0.98 0.98
0.98 0.98 0.98
0.98 0.98 0.98
0.98 0.98 0.98
0.98 0.98 0.98
0.98 0.98 0.98
0.98 0.98 0.98
0.98 0.98 0.98
0.98 0.98 0.98
0.98 0.98 0.98
0.98 0.98 0.98
0.98 0.98 0.98
0.98 0.98 0.98
0.98 0.98 0.98
0.98 0.98 0.98
0.98 0.98 0.98
0.98 0.98 0.98
0.98 0.98 0.98
0.98 0.98 0.98
0.98 0.98 0.98
0.98 0.98 0.98
0.98 0.98 0.98
0.98 0.98 0.98
0.98 0.98 0.98
0.98 0.98 0.98
0.98 0.98 0.98
0.98 0.98 0.98
0.98 0.98 0.98
0.98 0.98 0.98
0.98 0.98 0.98
0.98 0.98 0.98
0.98 0.98 0.98
0.98 0.98 0.98
0.98 0.98 0.98
0.98 0.98 0.98
0.98 0.98 0.98
0.98 0.98 0.98
0.98 0.98 0.98
0.98 0.98 0.98
0.98 0.98 0.98
0.98 0.98 0.98
0.98 0.98 0.98
0.98 0.98 0.98
0.98 0.98 0.98
0.98 0.98 0.98
0.98 0.98 0.98
0.98 0.98 0.98
0.98 0.98 0.98
0.98 0.98 0.98
0.98 0.98 0.98
0.98 0.98 0.98
0.98 0.98 0.98
0.98 0.98 0.98
0.98 0.98 0.98
0.98 0.98 0.98
0.98 0.98 0.98
0.98 0.98 0.98
0.98 0.98 0.98
0.98 0.98 0.98
0.98 0.98 0.98
0.98 0.98 0.98
0.98 0.98 0.98
0.98 0.98 0.98
0.98 0.98 0.98
0.98 0.98 0.98
0.98 0.98 0.98
0.98 0.98 0.98
0.98 0.98 0.98
0.98 0.98 0.98
0.98 0.98 0.98
0.98 0.98 0.98
0.98 0.98 0.98
0.98 0.98 0.98
0.98 0.98 0.98
0.98 0.98 0.98
0.98 0.98 0.98
0.98 0.98 0.98
0.98 0.98 0.98
0.98 0.98 0.98
0.98 0.98 0.98
0.98 0.98 0.98
0.98 0.98 0.98
0.98 0.98 0.98
0.98 0.98 0.98
0.98 0.98 0.98
0.98 0.98 0.98
0.98 0.98 0.98
0.98 0.98 0.98
0.98 0.98 0.98
0.98 0.98 0.98
0.98 0.98 0.98
0.98 0.98 0.98
0.98 0.98 0.98
0.98 0.98 0.98
0.98 0.98 0.98
0.98 0.98 0.98
0.98 0.98 0.98
0.98 0.98 0.98
0.98 0.98 0.98
0.98 0.98 0.98
0.98 0.98 0.98
0.98 0.98 0.98
0.98 0.98 0.98
0.98 0.98 0.98
0.98 0.98 0.98
0.98 0.98 0.98
0.98 0.98 0.98
0.98 0.98 0.98
0.98 0.98 0.98
0.98 0.98 0.98
0.98 0.98 0.98
0.98 0.98 0.98
0.98 0.98 0.98
0.98 0.98 0.98
0.98 0.98 0.98
0.98 0.98 0.98
0.98 0.98 0.98
0.98 0.98 0.98
0.98 0.98 0.98
0.98 0.98 0.98
0.98 0.98 0.98
0.98 0.98 0.98
0.98 0.98 0.98
0.98 0.98 0.98
0.98 0.98 0.98
0.98 0.98 0.98
0.98 0.98 0.98
0.98 0.98 0.98
0.98 0.98 0.98
0.98 0.98 0.98
0.98 0.98 0.98
0.98 0.98 0.98
0.98 0.98 0.98
0.98 0.98 0.98
0.98 0.98 0.98
0.98 0.98 0.98
0.98 0.98 0.98
0.98 0.98 0.98
0.98 0.98 0.98
0.98 0.98 0.98
0.98 0.98 0.98
0.98 0.98 0.98
0.98 0.98 0.98
0.98 0.98 0.98
0.98 0.98 0.98
0.98 0.98 0.98
0.98 0.98 0.98
0.98 0.98 0.98
0.98 0.98 0.98
0.98 0.98 0.98
0.98 0.98 0.98
0.98 0.98 0.98
0.98 0.98 0.98
0.98 0.98 0.98
0.98 0.98 0.98
0.98 0.98 0.98
0.98 0.98 0.98
0.98 0.98 0.98
0.98 0.98 0.98
0.98 0.98 0.98
0.98 0.98 0.98
0.98 0.98 0.98
0.98 0.98 0.98
0.98 0.98 0.98
0.98 0.98 0.98
0.98 0.98 0.98
0.98 0.98 0.98
0.98 0.98 0.98
0.98 0.98 0.98
0.98 0.98 0.98
0.98 0.98 0.98
0.98 0.98 0.98
0.98 0.98 0.98
0.98 0.98 0.98
0.98 0.98 0.98
0.98 0.98 0.98
0.98 0.98 0.98
0.98 0.98 0.98
0.98 0.98 0.98
0.98 0.98 0.98
0.98 0.98 0.98
0.98 0.98 0.98
0.98 0.98 0.98
0.98 0.98 0.98
0.98 0.98 0.98
0.98 0.98 0.98
0.98 0.98 0.98
0.98 0.98 0.98
0.98 0.98 0.98
0.98 0.98 0.98
0.98 0.98 0.98
0.98 0.98 0.98
0.98 0.98 0.98
0.98 0.98 0.98
0.98 0.98 0.98
0.98 0.98 0.98
0.98 0.98 0.98
0.98 0.98 0.98
0.98 0.98 0.98
0.98 0.98 0.98
0.98 0.98 0.98
0.98 0.98 0.98
0.98 0.98 0.98
0.98 0.98 0.98
0.98 0.98 0.98
0.98 0.98 0.98
0.98 0.98 0.98
0.98 0.98 0.98
0.98 0.98 0.98
0.98 0.98 0.98
0.98 0.98 0.98
0.98 0.98 0.98
0.98 0.98 0.98
0.98 0.98 0.98
0.98 0.98 0.98
0.98 0.98 0.98
0.98 0.98 0.98
0.98 0.98 0.98
0.98 0.98 0.98
0.98 0.98 0.98
0.98 0.98 0.98
0.98 0.98 0.98
0.98 0.98 0.98
0.98 0.98 0.98
0.98 0.98 0.98
0.98 0.98 0.98
0.98 0.98 0.98
0.98 0.98 0.98
0.98 0.98 0.98
0.98 0.98 0.98
0.98 0.98 0.98
0.98 0.98 0.98
0.98 0.98 0.98
0.98 0.98 0.98
0.98 0.98 0.98
0.98 0.98 0.98
0.98 0.98 0.98
0.98 0.98 0.98
0.98 0.98 0.98
0.98 0.98 0.98
0.98 0.98 0.98
0.98 0.98 0.98
0.98 0.98 0.98
0.98 0.98 0.98
0.98 0.98 0.98
0.98 0.98 0.98
0.98 0.98 0.98
0.98 0.98 0.98
0.98 0.98 0.98
0.98 0.98 0.98
0.98 0.98 0.98
0.98 0.98 0.98
0.98 0.98 0.98
0.98 0.98 0.98
0.98 0.98 0.98
0.98 0.98 0.98
0.98 0.98 0.98
0.98 0.98 0.98
0.98 0.98 0.98
0.98 0.98 0.98
0.98 0.98 0.98
0.98 0.98 0.98
0.98 0.98 0.98
0.98 0.98 0.98
0.98 0.98 0.98
0.98 0.98 0.98
0.98 0.98 0.98
0.98 0.98 0.98
0.98 0.98 0.98
0.98 0.98 0.98
0.98 0.98 0.98
0.98 0.98 0.98
0.98 0.98 0.98
0.98 0.98 0.98
0.98 0.98 0.98
0.98 0.98 0.98
0.98 0.98 0.98
0.98 0.98 0.98
0.98 0.98 0.98
0.98 0.98 0.98
0.98 0.98 0.98
0.98 0.98 0.98
0.98 0.98 0.98
0.98 0.98 0.98
0.98 0.98 0.98
0.98 0.98 0.98
0.98 0.98 0.98
0.98 0.98 0.98
0.98 0.98 0.98
0.98 0.98 0.98
0.98 0.98 0.98
0.98 0.98 0.98
0.98 0.98 0.98
0.98 0.98 0.98
0.98 0.98 0.98
0.98 0.98 0.98
0.98 0.98 0.98
0.98 0.98 0.98
0.98 0.98 0.98
0.98 0.98 0.98
0.98 0.98 0.98
0.98 0.98 0.98
0.98 0.98 0.98
0.98 0.98 0.98
0.98 0.98 0.98
0.98 0.98 0.98
0.98 0.98 0.98
0.98 0.98 0.98
0.98 0.98 0.98
0.98 0.98 0.98
0.98 0.98 0.98
0.98 0.98 0.98
0.98 0.98 0.98
0.98 0.98 0.98
0.98 0.98 0.98
0.98 0.98 0.98
0.98 0.98 0.98
0.98 0.98 0.98
0.98 0.98 0.98
0.98 0.98 0.98
0.98 0.98 0.98
0.98 0.98 0.98
0.98 0.98 0.98
0.98 0.98 0.98
0.98 0.98 0.98
0.98 0.98 0.98
0.98 0.98 0.98
0.98 0.98 0.98
0.98 0.98 0.98
0.98 0.98 0.98
0.98 0.98 0.98
0.98 0.98 0.98
0.98 0.98 0.98
0.98 0.98 0.98
0.98 0.98 0.98
0.98 0.98 0.98
0.98 0.98 0.98
0.98 0.98 0.98
0.98 0.98 0.98
0.98 0.98 0.98
0.98 0.98 0.98
0.98 0.98 0.98
0.98 0.98 0.98
0.98 0.98 0.98
0.98 0.98 0.98
0.98 0.98 0.98
0.98 0.98 0.98
0.98 0.98 0.98
0.98 0.98 0.98
0.98 0.98 0.98
0.98 0.98 0.98
0.98 0.98 0.98
0.98 0.98 0.98
0.98 0.98 0.98
0.98 0.98 0.98
0.98 0.98 0.98
0.98 0.98 0.98
0.98 0.98 0.98
0.98 0.98 0.98
0.98 0.98 0.98
0.98 0.98 0.98
0.98 0.98 0.98
0.98 0.98 0.98
0.98 0.98 0.98
0.98 0.98 0.98
0.98 0.98 0.98
0.98 0.98 0.98
0.98 0.98 0.98
0.98 0.98 0.98
0.98 0.98 0.98
0.98 0.98 0.98
0.98 0.98 0.98
0.98 0.98 0.98
0.98 0.98 0.98
0.98 0.98 0.98
0.98 0.98 0.98
0.98 0.98 0.98
0.98 0.98 0.98
0.98 0.98 0.98
0.98 0.98 0.98
0.98 0.98 0.98
0.98 0.98 0.98
0.98 0.98 0.98
0.98 0.98 0.98
0.98 0.98 0.98
0.98 0.98 0.98
0.98 0.98 0.98
0.98 0.98 0.98
0.98 0.98 0.98
0.98 0.98 0.98
0.98 0.98 0.98
0.98 0.98 0.98
0.98 0.98 0.98
0.98 0.98 0.98
0.98 0.98 0.98
0.98 0.98 0.98
0.98 0.98 0.98
0.98 0.98 0.98
0.98 0.98 0.98
0.98 0.98 0.98
0.98 0.98 0.98
0.98 0.98 0.98
0.98 0.98 0.98
0.98 0.98 0.98
0.98 0.98 0.98
0.98 0.98 0.98
0.98 0.98 0.98
0.98 0.98 0.98
0.98 0.98 0.98
0.98 0.98 0.98
0.98 0.98 0.98
0.98 0.98 0.98
0.98 0.98 0.98
0.98 0.98 0.98
0.98 0.98 0.98
0.98 0.98 0.98
0.98 0.98 0.98
0.98 0.98 0.98
0.98 0.98 0.98
0.98 0.98 0.98
0.98 0.98 0.98
0.98 0.98 0.98
0.98 0.98 0.98
0.98 0.98 0.98
0.98 0.98 0.98
0.98 0.98 0.98
0.98 0.98 0.98
0.98 0.98 0.98
0.98 0.98 0.98
0.98 0.98 0.98
0.98 0.98 0.98
0.98 0.98 0.98
0.98 0.98 0.98
0.98 0.98 0.98
0.98 0.98 0.98
0.98 0.98 0.98
0.98 0.98 0.98
0.98 0.98 0.98
0.98 0.98 0.98
0.98 0.98 0.98
0.98 0.98 0.98
0.98 0.98 0.98
0.98 0.98 0.98
0.98 0.98 0.98
0.98 0.98 0.98
0.98 0.98 0.98
0.98 0.98 0.98
0.98 0.98 0.98
0.98 0.98 0.98
0.98 0.98 0.98
0.98 0.98 0.98
0.98 0.98 0.98
0.98 0.98 0.98
0.98 0.98 0.98
0.98 0.98 0.98
0.98 0.98 0.98
0.98 0.98 0.98
0.98 0.98 0.98
0.98 0.98 0.98
0.98 0.98 0.98
0.98 0.98 0.98
0.98 0.98 0.98
0.98 0.98 0.98
0.98 0.98 0.98
0.98 0.98 0.98
0.98 0.98 0.98
0.98 0.98 0.98
0.98 0.98 0.98
0.98 0.98 0.98
0.98 0.98 0.98
0.98 0.98 0.98
0.98 0.98 0.98
0.98 0.98 0.98
0.98 0.98 0.98
0.98 0.98 0.98
0.98 0.98 0.98
0.98 0.98 0.98
0.98 0.98 0.98
0.98 0.98 0.98
0.98 0.98 0.98
0.98 0.98 0.98
0.98 0.98 0.98
0.98 0.98 0.98
0.98 0.98 0.98
0.98 0.98 0.98
0.98 0.98 0.98
0.98 0.98 0.98
0.98 0.98 0.98
0.98 0.98 0.98
0.98 0.98 0.98
0.98 0.98 0.98
0.98 0.98 0.98
0.98 0.98 0.98
0.98 0.98 0.98
0.98 0.98 0.98
0.98 0.98 0.98
0.98 0.98 0.98
0.98 0.98 0.98
0.98 0.98 0.98
0.98 0.98 0.98
0.98 0.98 0.98
0.98 0.98 0.98
0.98 0.98 0.98
0.98 0.98 0.98
0.98 0.98 0.98
0.98 0.98 0.98
0.98 0.98 0.98
0.98 0.98 0.98
0.98 0.98 0.98
0.98 0.98 0.98
0.98 0.98 0.98
0.98 0.98 0.98
0.98 0.98 0.98
0.98 0.98 0.98
0.98 0.98 0.98
0.98 0.98 0.98
0.98 0.98 0.98
0.98 0.98 0.98
0.98 0.98 0.98
0.98 0.98 0.98
0.98 0.98 0.98
0.98 0.98 0.98
0.98 0.98 0.98
0.98 0.98 0.98
0.98 0.98 0.98
0.98 0.98 0.98
0.98 0.98 0.98
0.98 0.98 0.98
0.98 0.98 0.98
0.98 0.98 0.98
0.98 0.98 0.98
0.98 0.98 0.98
0.98 0.98 0.98
0.98 0.98 0.98
0.98 0.98 0.98
0.98 0.98 0.98
0.98 0.98 0.98
0.98 0.98 0.98
0.98 0.98 0.98
0.98 0.98 0.98
0.98 0.98 0.98
0.98 0.98 0.98
0.98 0.98 0.98
0.98 0.98 0.98
0.98 0.98 0.98
0.98 0.98 0.98
0.98 0.98 0.98
0.98 0.98 0.98
0.98 0.98 0.98
0.98 0.98 0.98
0.98 0.98 0.98
0.98 0.98 0.98
0.98 0.98 0.98
0.98 0.98 0.98
0.98 0.98 0.98
0.98 0.98 0.98
0.98 0.98 0.98
0.98 0.98 0.98
0.98 0.98 0.98
0.98 0.98 0.98
0.98 0.98 0.98
0.98 0.98 0.98
0.98 0.98 0.98
0.98 0.98 0.98
0.98 0.98 0.98
0.98 0.98 0.98
0.98 0.98 0.98
0.98 0.98 0.98
0.98 0.98 0.98
0.98 0.98 0.98
0.98 0.98 0.98
0.98 0.98 0.98
0.98 0.98 0.98
0.98 0.98 0.98
0.98 0.98 0.98
0.98 0.98 0.98
0.98 0.98 0.98
0.98 0.98 0.98
0.98 0.98 0.98
0.98 0.98 0.98
0.98 0.98 0.98
0.98 0.98 0.98
0.98 0.98 0.98
0.98 0.98 0.98
0.98 0.98 0.98
0.98 0.98 0.98
0.98 0.98 0.98
0.98 0.98 0.98
0.98 0.98 0.98
0.98 0.98 0.98
0.98 0.98 0.98
0.98 0.98 0.98
0.98 0.98 0.98
0.98 0.98 0.98
0.98 0.98 0.98
0.98 0.98 0.98
0.98 0.98 0.98
0.98 0.98 0.98
0.98 0.98 0.98
0.98 0.98 0.98
0.98 0.98 0.98
0.98 0.98 0.98
0.98 0.98 0.98
0.98 0.98 0.98
0.98 0.98 0.98
0.98 0.98 0.98
0.98 0.98 0.98
0.98 0.98 0.98
0.98 0.98 0.98
0.98 0.98 0.98
0.98 0.98 0.98
0.98 0.98 0.98
0.98 0.98 0.98
0.98 0.98 0.98
0.98 0.98 0.98
0.98 0.98 0.98
0.98 0.98 0.98
0.98 0.98 0.98
0.98 0.98 0.98
0.98 0.98 0.98
0.98 0.98 0.98
0.98 0.98 0.98
0.98 0.98 0.98
0.98 0.98 0.98
0.98 0.98 0.98
0.98 0.98 0.98
0.98 0.98 0.98
0.98 0.98 0.98
0.98 0.98 0.98
0.98 0.98 0.98
0.98 0.98 0.98
0.98 0.98 0.98
0.98 0.98 0.98
0.98 0.98 0.98
0.98 0.98 0.98
0.98 0.98 0.98
0.98 0.98 0.98
0.98 0.98 0.98
0.98 0.98 0.98
0.98 0.98 0.98
0.98 0.98 0.98
0.98 0.98 0.98
0.98 0.98 0.98
0.98 0.98 0.98
0.98 0.98 0.98
0.98 0.98 0.98
0.98 0.98 0.98
0.98 0.98 0.98
0.98 0.98 0.98
0.98 0.98 0.98
0.98 0.98 0.98
0.98 0.98 0.98
0.98 0.98 0.98
0.98 0.98 0.98
0.98 0.98 0.98
0.98 0.98 0.98
0.98 0.98 0.98
0.98 0.98 0.98
0.98 0.98 0.98
0.98 0.98 0.98
0.98 0.98 0.98
0.98 0.98 0.98
0.98 0.98 0.98
0.98 0.98 0.98
0.98 0.98 0.98
0.98 0.98 0.98
0.98 0.98 0.98
0.98 0.98 0.98
0.98 0.98 0.98
0.98 0.98 0.98
0.98 0.98 0.98
0.98 0.98 0.98
0.98 0.98 0.98
0.98 0.98 0.98
0.98 0.98 0.98
0.98 0.98 0.98
0.98 0.98 0.98
0.98 0.98 0.98
0.98 0.98 0.98
0.98 0.98 0.98
0.98 0.98 0.98
0.98 0.98 0.98
0.98 0.98 0.98
0.98 0.98 0.98
