LUTs/greychecker.cube
TITLE "Generated by lutgen"
LUT_3D_SIZE 9
0 1 0
0.98 0.98 0.98
0.98 0.98 0.98
0.98 0.98 0.98
0.98 0.98 0.98
0.98 0.98 0.98
0.98 0.98 0.98
0.98 0.98 0.98
0.98 0.98 0.98
0.98 0.98 0.98
0.98 0.98 0.98
0.98 0.98 0.98
0.98 0.98 0.98
0.98 0.98 0.98
0.98 0.98 0.98
0.98 0.98 0.98
0.98 0.98 0.98
0.98 0.98 0.98
0.98 0.98 0.98
0.98 0.98 0.98
0.98 0.98 0.98
0.98 0.98 0.98
0.98 0.98 0.98
0.98 0.98 0.98
0.98 0.98 0.98
0.98 0.98 0.98
0.98 0.98 0.98
0.98 0.98 0.98
0.98 0.98 0.98
0.98 0.98 0.98
0.98 0.98 0.98
0.98 0.98 0.98
0.98 0.98 0.98
0.98 0.98 0.98
0.98 0.98 0.98
0.98 0.98 0.98
0.98 0.98 0.98
0.98 0.98 0.98
0.98 0.98 0.98
0.98 0.98 0.98
0.98 0.98 0.98
0.98 0.98 0.98
0.98 0.98 0.98
0.98 0.98 0.98
0.98 0.98 0.98
0.98 0.98 0.98
0.98 0.98 0.98
0.98 0.98 0.98
0.98 0.98 0.98
0.98 0.98 0.98
0.98 0.98 0.98
0.98 0.98 0.98
0.98 0.98 0.98
0.98 0.98 0.98
0.98 0.98 0.98
0.98 0.98 0.98
0.98 0.98 0.98
0.98 0.98 0.98
0.98 0.98 0.98
0.98 0.98 0.98
0.98 0.98 0.98
0.98 0.98 0.98
0.98 0.98 0.98
0.98 0.98 0.98
0.98 0.98 0.98
0.98 0.98 0.98
0.98 0.98 0.98
0.98 0.98 0.98
0.98 0.98 0.98
0.98 0.98 0.98
0.98 0.98 0.98
0.98 0.98 0.98
0.98 0.98 0.98
0.98 0.98 0.98
0.98 0.98 0.98
0.98 0.98 0.98
0.98 0.98 0.98
0.98 0.98 0.98
0.98 0.98 0.98
0.98 0.98 0.98
0.98 0.98 0.98
0.98 0.98 0.98
0.98 0.98 0.98
0.98 0.98 0.98
0.98 0.98 0.98
0.98 0.98 0.98
0.98 0.98 0.98
0.98 0.98 0.98
0.98 0.98 0.98
0.98 0.98 0.98
0.98 0.98 0.98
0 1 0
0.5 0.5 0.5
0.66 0.66 0.66
0.74 0.74 0.74
0.8 0.8 0.8
0.82 0.82 0.82
0.84 0.84 0.84
0.86 0.86 0.86
0.98 0.98 0.98
0.5 0.5 0.5
0.5 0.5 0.5
0.66 0.66 0.66
0.74 0.74 0.74
0.8 0.8 0.8
0.82 0.82 0.82
0.84 0.84 0.84
0.86 0.86 0.86
0.98 0.98 0.98
0.66 0.66 0.66
0.66 0.66 0.66
0.66 0.66 0.66
0.74 0.74 0.74
0.8 0.8 0.8
0.82 0.82 0.82
0.84 0.84 0.84
0.86 0.86 0.86
0.98 0.98 0.98
0.74 0.74 0.74
0.74 0.74 0.74
0.74 0.74 0.74
0.74 0.74 0.74
0.8 0.8 0.8
0.82 0.82 0.82
0.84 0.84 0.84
0.86 0.86 0.86
0.98 0.98 0.98
0.8 0.8 0.8
0.8 0.8 0.8
0.8 0.8 0.8
0.8 0.8 0.8
0.8 0.8 0.8
0.82 0.82 0.82
0.84 0.84 0.84
0.86 0.86 0.86
0.98 0.98 0.98
0.82 0.82 0.82
0.82 0.82 0.82
0.82 0.82 0.82
0.82 0.82 0.82
0.82 0.82 0.82
0.82 0.82 0.82
0.84 0.84 0.84
0.86 0.86 0.86
0.98 0.98 0.98
0.84 0.84 0.84
0.84 0.84 0.84
0.84 0.84 0.84
0.84 0.84 0.84
0.84 0.84 0.84
0.84 0.84 0.84
0.84 0.84 0.84
0.86 0.86 0.86
0.98 0.98 0.98
0.86 0.86 0.86
0.86 0.86 0.86
0.86 0.86 0.86
0.86 0.86 0.86
0.86 0.86 0.86
0.86 0.86 0.86
0.86 0.86 0.86
0.86 0.86 0.86
0.98 0.98 0.98
0.98 0.98 0.98
0.98 0.98 0.98
0.98 0.98 0.98
0.98 0.98 0.98
0.98 0.98 0.98
0.98 0.98 0.98
0.98 0.98 0.98
0.98 0.98 0.98
0.98 0.98 0.98
0.5 0.5 0.5
0.5 0.5 0.5
0.66 0.66 0.66
0.74 0.74 0.74
0.8 0.8 0.8
0.82 0.82 0.82
0.84 0.84 0.84
0.86 0.86 0.86
0.98 0.98 0.98
0.5 0.5 0.5
0 1 0
0.32 0.32 0.32
0.5 0.5 0.5
0.6 0.6 0.6
0.66 0.66 0.66
0.7 0.7 0.7
0.74 0.74 0.74
0.98 0.98 0.98
0.66 0.66 0.66
0.32 0.32 0.32
0.32 0.32 0.32
0.5 0.5 0.5
0.6 0.6 0.6
0.66 0.66 0.66
0.7 0.7 0.7
0.74 0.74 0.74
0.98 0.98 0.98
0.74 0.74 0.74
0.5 0.5 0.5
0.5 0.5 0.5
0.5 0.5 0.5
0.6 0.6 0.6
0.66 0.66 0.66
0.7 0.7 0.7
0.74 0.74 0.74
0.98 0.98 0.98
0.8 0.8 0.8
0.6 0.6 0.6
0.6 0.6 0.6
0.6 0.6 0.6
0.6 0.6 0.6
0.66 0.66 0.66
0.7 0.7 0.7
0.74 0.74 0.74
0.98 0.98 0.98
0.82 0.82 0.82
0.66 0.66 0.66
0.66 0.66 0.66
0.66 0.66 0.66
0.66 0.66 0.66
0.66 0.66 0.66
0.7 0.7 0.7
0.74 0.74 0.74
0.98 0.98 0.98
0.84 0.84 0.84
0.7 0.7 0.7
0.7 0.7 0.7
0.7 0.7 0.7
0.7 0.7 0.7
0.7 0.7 0.7
0.7 0.7 0.7
0.74 0.74 0.74
0.98 0.98 0.98
0.86 0.86 0.86
0.74 0.74 0.74
0.74 0.74 0.74
0.74 0.74 0.74
0.74 0.74 0.74
0.74 0.74 0.74
0.74 0.74 0.74
0.74 0.74 0.74
0.98 0.98 0.98
0.98 0.98 0.98
0.98 0.98 0.98
0.98 0.98 0.98
0.98 0.98 0.98
0.98 0.98 0.98
0.98 0.98 0.98
0.98 0.98 0.98
0.98 0.98 0.98
0.98 0.98 0.98
0.66 0.66 0.66
0.66 0.66 0.66
0.66 0.66 0.66
0.74 0.74 0.74
0.8 0.8 0.8
0.82 0.82 0.82
0.84 0.84 0.84
0.86 0.86 0.86
0.98 0.98 0.98
0.66 0.66 0.66
0.32 0.32 0.32
0.32 0.32 0.32
0.5 0.5 0.5
0.6 0.6 0.6
0.66 0.66 0.66
0.7 0.7 0.7
0.74 0.74 0.74
0.98 0.98 0.98
0.66 0.66 0.66
0.32 0.32 0.32
0 1 0
0.24 0.24 0.24
0.4 0.4 0.4
0.5 0.5 0.5
0.56 0.56 0.56
0.62 0.62 0.62
0.98 0.98 0.98
0.74 0.74 0.74
0.5 0.5 0.5
0.24 0.24 0.24
0.24 0.24 0.24
0.4 0.4 0.4
0.5 0.5 0.5
0.56 0.56 0.56
0.62 0.62 0.62
0.98 0.98 0.98
0.8 0.8 0.8
0.6 0.6 0.6
0.4 0.4 0.4
0.4 0.4 0.4
0.4 0.4 0.4
0.5 0.5 0.5
0.56 0.56 0.56
0.62 0.62 0.62
0.98 0.98 0.98
0.82 0.82 0.82
0.66 0.66 0.66
0.5 0.5 0.5
0.5 0.5 0.5
0.5 0.5 0.5
0.5 0.5 0.5
0.56 0.56 0.56
0.62 0.62 0.62
0.98 0.98 0.98
0.84 0.84 0.84
0.7 0.7 0.7
0.56 0.56 0.56
0.56 0.56 0.56
0.56 0.56 0.56
0.56 0.56 0.56
0.56 0.56 0.56
0.62 0.62 0.62
0.98 0.98 0.98
0.86 0.86 0.86
0.74 0.74 0.74
0.62 0.62 0.62
0.62 0.62 0.62
0.62 0.62 0.62
0.62 0.62 0.62
0.62 0.62 0.62
0.62 0.62 0.62
0.98 0.98 0.98
0.98 0.98 0.98
0.98 0.98 0.98
0.98 0.98 0.98
0.98 0.98 0.98
0.98 0.98 0.98
0.98 0.98 0.98
0.98 0.98 0.98
0.98 0.98 0.98
0.98 0.98 0.98
0.74 0.74 0.74
0.74 0.74 0.74
0.74 0.74 0.74
0.74 0.74 0.74
0.8 0.8 0.8
0.82 0.82 0.82
0.84 0.84 0.84
0.86 0.86 0.86
0.98 0.98 0.98
0.74 0.74 0.74
0.5 0.5 0.5
0.5 0.5 0.5
0.5 0.5 0.5
0.6 0.6 0.6
0.66 0.66 0.66
0.7 0.7 0.7
0.74 0.74 0.74
0.98 0.98 0.98
0.74 0.74 0.74
0.5 0.5 0.5
0.24 0.24 0.24
0.24 0.24 0.24
0.4 0.4 0.4
0.5 0.5 0.5
0.56 0.56 0.56
0.62 0.62 0.62
0.98 0.98 0.98
0.74 0.74 0.74
0.5 0.5 0.5
0.24 0.24 0.24
0 1 0
0.2 0.2 0.2
0.32 0.32 0.32
0.42 0.42 0.42
0.5 0.5 0.5
0.98 0.98 0.98
0.8 0.8 0.8
0.6 0.6 0.6
0.4 0.4 0.4
0.2 0.2 0.2
0.2 0.2 0.2
0.32 0.32 0.32
0.42 0.42 0.42
0.5 0.5 0.5
0.98 0.98 0.98
0.82 0.82 0.82
0.66 0.66 0.66
0.5 0.5 0.5
0.32 0.32 0.32
0.32 0.32 0.32
0.32 0.32 0.32
0.42 0.42 0.42
0.5 0.5 0.5
0.98 0.98 0.98
0.84 0.84 0.84
0.7 0.7 0.7
0.56 0.56 0.56
0.42 0.42 0.42
0.42 0.42 0.42
0.42 0.42 0.42
0.42 0.42 0.42
0.5 0.5 0.5
0.98 0.98 0.98
0.86 0.86 0.86
0.74 0.74 0.74
0.62 0.62 0.62
0.5 0.5 0.5
0.5 0.5 0.5
0.5 0.5 0.5
0.5 0.5 0.5
0.5 0.5 0.5
0.98 0.98 0.98
0.98 0.98 0.98
0.98 0.98 0.98
0.98 0.98 0.98
0.98 0.98 0.98
0.98 0.98 0.98
0.98 0.98 0.98
0.98 0.98 0.98
0.98 0.98 0.98
0.98 0.98 0.98
0.8 0.8 0.8
0.8 0.8 0.8
0.8 0.8 0.8
0.8 0.8 0.8
0.8 0.8 0.8
0.82 0.82 0.82
0.84 0.84 0.84
0.86 0.86 0.86
0.98 0.98 0.98
0.8 0.8 0.8
0.6 0.6 0.6
0.6 0.6 0.6
0.6 0.6 0.6
0.6 0.6 0.6
0.66 0.66 0.66
0.7 0.7 0.7
0.74 0.74 0.74
0.98 0.98 0.98
0.8 0.8 0.8
0.6 0.6 0.6
0.4 0.4 0.4
0.4 0.4 0.4
0.4 0.4 0.4
0.5 0.5 0.5
0.56 0.56 0.56
0.62 0.62 0.62
0.98 0.98 0.98
0.8 0.8 0.8
0.6 0.6 0.6
0.4 0.4 0.4
0.2 0.2 0.2
0.2 0.2 0.2
0.32 0.32 0.32
0.42 0.42 0.42
0.5 0.5 0.5
0.98 0.98 0.98
0.8 0.8 0.8
0.6 0.6 0.6
0.4 0.4 0.4
0.2 0.2 0.2
0 1 0
0.16 0.16 0.16
0.28 0.28 0.28
0.36 0.36 0.36
0.98 0.98 0.98
0.82 0.82 0.82
0.66 0.66 0.66
0.5 0.5 0.5
0.32 0.32 0.32
0.16 0.16 0.16
0.16 0.16 0.16
0.28 0.28 0.28
0.36 0.36 0.36
0.98 0.98 0.98
0.84 0.84 0.84
0.7 0.7 0.7
0.56 0.56 0.56
0.42 0.42 0.42
0.28 0.28 0.28
0.28 0.28 0.28
0.28 0.28 0.28
0.36 0.36 0.36
0.98 0.98 0.98
0.86 0.86 0.86
0.74 0.74 0.74
0.62 0.62 0.62
0.5 0.5 0.5
0.36 0.36 0.36
0.36 0.36 0.36
0.36 0.36 0.36
0.36 0.36 0.36
0.98 0.98 0.98
0.98 0.98 0.98
0.98 0.98 0.98
0.98 0.98 0.98
0.98 0.98 0.98
0.98 0.98 0.98
0.98 0.98 0.98
0.98 0.98 0.98
0.98 0.98 0.98
0.98 0.98 0.98
0.82 0.82 0.82
0.82 0.82 0.82
0.82 0.82 0.82
0.82 0.82 0.82
0.82 0.82 0.82
0.82 0.82 0.82
0.84 0.84 0.84
0.86 0.86 0.86
0.98 0.98 0.98
0.82 0.82 0.82
0.66 0.66 0.66
0.66 0.66 0.66
0.66 0.66 0.66
0.66 0.66 0.66
0.66 0.66 0.66
0.7 0.7 0.7
0.74 0.74 0.74
0.98 0.98 0.98
0.82 0.82 0.82
0.66 0.66 0.66
0.5 0.5 0.5
0.5 0.5 0.5
0.5 0.5 0.5
0.5 0.5 0.5
0.56 0.56 0.56
0.62 0.62 0.62
0.98 0.98 0.98
0.82 0.82 0.82
0.66 0.66 0.66
0.5 0.5 0.5
0.32 0.32 0.32
0.32 0.32 0.32
0.32 0.32 0.32
0.42 0.42 0.42
0.5 0.5 0.5
0.98 0.98 0.98
0.82 0.82 0.82
0.66 0.66 0.66
0.5 0.5 0.5
0.32 0.32 0.32
0.16 0.16 0.16
0.16 0.16 0.16
0.28 0.28 0.28
0.36 0.36 0.36
0.98 0.98 0.98
0.82 0.82 0.82
0.66 0.66 0.66
0.5 0.5 0.5
0.32 0.32 0.32
0.16 0.16 0.16
0 1 0
0.14 0.14 0.14
0.24 0.24 0.24
0.98 0.98 0.98
0.84 0.84 0.84
0.7 0.7 0.7
0.56 0.56 0.56
0.42 0.42 0.42
0.28 0.28 0.28
0.14 0.14 0.14
0.14 0.14 0.14
0.24 0.24 0.24
0.98 0.98 0.98
0.86 0.86 0.86
0.74 0.74 0.74
0.62 0.62 0.62
0.5 0.5 0.5
0.36 0.36 0.36
0.24 0.24 0.24
0.24 0.24 0.24
0.24 0.24 0.24
0.98 0.98 0.98
0.98 0.98 0.98
0.98 0.98 0.98
0.98 0.98 0.98
0.98 0.98 0.98
0.98 0.98 0.98
0.98 0.98 0.98
0.98 0.98 0.98
0.98 0.98 0.98
0.98 0.98 0.98
0.84 0.84 0.84
0.84 0.84 0.84
0.84 0.84 0.84
0.84 0.84 0.84
0.84 0.84 0.84
0.84 0.84 0.84
0.84 0.84 0.84
0.86 0.86 0.86
0.98 0.98 0.98
0.84 0.84 0.84
0.7 0.7 0.7
0.7 0.7 0.7
0.7 0.7 0.7
0.7 0.7 0.7
0.7 0.7 0.7
0.7 0.7 0.7
0.74 0.74 0.74
0.98 0.98 0.98
0.84 0.84 0.84
0.7 0.7 0.7
0.56 0.56 0.56
0.56 0.56 0.56
0.56 0.56 0.56
0.56 0.56 0.56
0.56 0.56 0.56
0.62 0.62 0.62
0.98 0.98 0.98
0.84 0.84 0.84
0.7 0.7 0.7
0.56 0.56 0.56
0.42 0.42 0.42
0.42 0.42 0.42
0.42 0.42 0.42
0.42 0.42 0.42
0.5 0.5 0.5
0.98 0.98 0.98
0.84 0.84 0.84
0.7 0.7 0.7
0.56 0.56 0.56
0.42 0.42 0.42
0.28 0.28 0.28
0.28 0.28 0.28
0.28 0.28 0.28
0.36 0.36 0.36
0.98 0.98 0.98
0.84 0.84 0.84
0.7 0.7 0.7
0.56 0.56 0.56
0.42 0.42 0.42
0.28 0.28 0.28
0.14 0.14 0.14
0.14 0.14 0.14
0.24 0.24 0.24
0.98 0.98 0.98
0.84 0.84 0.84
0.7 0.7 0.7
0.56 0.56 0.56
0.42 0.42 0.42
0.28 0.28 0.28
0.14 0.14 0.14
0 1 0
0.12 0.12 0.12
0.98 0.98 0.98
0.86 0.86 0.86
0.74 0.74 0.74
0.62 0.62 0.62
0.5 0.5 0.5
0.36 0.36 0.36
0.24 0.24 0.24
0.12 0.12 0.12
0.12 0.12 0.12
0.98 0.98 0.98
0.98 0.98 0.98
0.98 0.98 0.98
0.98 0.98 0.98
0.98 0.98 0.98
0.98 0.98 0.98
0.98 0.98 0.98
0.98 0.98 0.98
0.98 0.98 0.98
0.98 0.98 0.98
0.86 0.86 0.86
0.86 0.86 0.86
0.86 0.86 0.86
0.86 0.86 0.86
0.86 0.86 0.86
0.86 0.86 0.86
0.86 0.86 0.86
0.86 0.86 0.86
0.98 0.98 0.98
0.86 0.86 0.86
0.74 0.74 0.74
0.74 0.74 0.74
0.74 0.74 0.74
0.74 0.74 0.74
0.74 0.74 0.74
0.74 0.74 0.74
0.74 0.74 0.74
0.98 0.98 0.98
0.86 0.86 0.86
0.74 0.74 0.74
0.62 0.62 0.62
0.62 0.62 0.62
0.62 0.62 0.62
0.62 0.62 0.62
0.62 0.62 0.62
0.62 0.62 0.62
0.98 0.98 0.98
0.86 0.86 0.86
0.74 0.74 0.74
0.62 0.62 0.62
0.5 0.5 0.5
0.5 0.5 0.5
0.5 0.5 0.5
0.5 0.5 0.5
0.5 0.5 0.5
0.98 0.98 0.98
0.86 0.86 0.86
0.74 0.74 0.74
0.62 0.62 0.62
0.5 0.5 0.5
0.36 0.36 0.36
0.36 0.36 0.36
0.36 0.36 0.36
0.36 0.36 0.36
0.98 0.98 0.98
0.86 0.86 0.86
0.74 0.74 0.74
0.62 0.62 0.62
0.5 0.5 0.5
0.36 0.36 0.36
0.24 0.24 0.24
0.24 0.24 0.24
0.24 0.24 0.24
0.98 0.98 0.98
0.86 0.86 0.86
0.74 0.74 0.74
0.62 0.62 0.62
0.5 0.5 0.5
0.36 0.36 0.36
0.24 0.24 0.24
0.12 0.12 0.12
0.12 0.12 0.12
0.98 0.98 0.98
0.86 0.86 0.86
0.74 0.74 0.74
0.62 0.62 0.62
0.5 0.5 0.5
0.36 0.36 0.36
0.24 0.24 0.24
0.12 0.12 0.12
0 1 0
