LUTs/lumazones.cube
TITLE "Generated by lutgen"
LUT_3D_SIZE 5
0 0 0
0.664375 0 0.664375
0.296436 0 0.590556
0.444654 0 0.885833
0 0 0.759286
0.498614 0 0.993333
0 0 0.828393
0 0 1.01821
0 0.506153 0.890132
0 0.585686 1.03
0 0.535108 0.941053
0 0.855729 0.855729
0 0.966458 0.966458
0 0.891466 0.625774
0 0.983103 0.6901
0 0.924828 0.649193
0 1.01647 0.713519
0 0.945147 0
0 1.02331 0
0.704188 0.960256 0
0.67241 0.916923 0
0.72238 0.985064 0
0.933523 0.933523 0
0.99392 0.99392 0
0.966458 0.485124 0
0 0 0
0.89 0 0.89
0.346771 0 0.690833
0.494989 0 0.986111
0 0 0.82375
0.54895 0 1.09361
0 0 0.892857
0 0.45363 0.797763
0 0.533163 0.937632
0 0.853021 0.853021
0 0.562118 0.988553
0 0.893333 0.893333
0 1.00406 1.00406
0 0.922586 0.647619
0 1.01422 0.711946
0 0.955948 0.671038
0 0.893529 0
0 0.971691 0
0.671188 0.915256 0
0.721158 0.983397 0
0.68938 0.940064 0
0.73935 1.00821 0
0.954034 0.954034 0
1.01443 1.01443 0
0.98526 0.494562 0
0.45125 0 0.45125
1.11562 0 1.11562
0.397107 0 0.791111
0.545325 0 1.08639
0 0 0.888214
0 0 0.7675
0 0 0.957321
0 0.48064 0.845263
0 0.560173 0.985132
0 0.890625 0.890625
0 0.589128 1.03605
0 0.930938 0.930938
0 0.862069 0.605139
0 0.953707 0.669465
0 0.891618 0
0 0.987069 0.692884
0 0.920074 0
0 0.998235 0
0.688158 0.938397 0
0.738128 1.00654 0
0.70635 0.963205 0
0.914148 0.914148 0
0.974545 0.974545 0
0.948698 0.476209 0
1.00406 0.504 0
0.676875 0 0.676875
0.299224 0 0.596111
0.447442 0 0.891389
0 0 0.762857
0 0 0.952679
0 0 0.831964
0 0 1.02179
0 0.50765 0.892763
0 0.587183 1.03263
0 0.928229 0.928229
0 0.857813 0.857813
0 0.968542 0.968542
0 0.89319 0.626984
0 0.984828 0.69131
0 0.918162 0
0 1.01819 0.714729
0 0.946618 0
0 1.02478 0
0.705128 0.961538 0
0.91267 0.91267 0
0.723321 0.986346 0
0.934659 0.934659 0
0.995057 0.995057 0
0.9675 0.485647 0
1.00199 0 0
0.9025 0 0.9025
0.34956 0 0.696389
0.497778 0 0.991667
0 0 0.827321
0 0 1.01714
0 0 0.896429
0 0.455126 0.800395
0 0.534659 0.940263
0 0.855104 0.855104
0 0.965833 0.965833
0 0.895417 0.895417
0 1.00615 1.00615
0 0.92431 0.64883
0 1.01595 0.713156
0 0.944706 0
0 0.895 0
0 0.973162 0
0.672128 0.916538 0
0.722098 0.984679 0
0.933182 0.933182 0
0.740291 1.00949 0
0.95517 0.95517 0
1.01557 1.01557 0
0.986302 0.495085 0
1.02041 0 0
