LUTs/lumazones.cube
TITLE "Generated by lutgen"
LUT_3D_SIZE 9
0 0 0
0.332187 0 0.332187
0.664375 0 0.664375
0.996562 0 0.996562
0.296436 0 0.590556
0.370545 0 0.738194
0.444654 0 0.885833
0.518763 0 1.03347
0 0 0.759286
1.1175 0 1.1175
0.323416 0 0.644306
0.397525 0 0.791944
0.471634 0 0.939583
0.545743 0 1.08722
0 0 0.793839
0 0 0.88875
0 0 0.983661
0 0.451909 0.794737
0.498614 0 0.993333
0 0 0.733482
0 0 0.828393
0 0 0.923304
0 0 1.01821
0 0.466387 0.820197
0 0.506153 0.890132
0 0.54592 0.960066
0 0.585686 1.03
0 0 0.957857
0 0 1.05277
0 0.480864 0.845658
0 0.520631 0.915592
0 0.560397 0.985526
0 0.835573 0.835573
0 0.890937 0.890937
0 0.946302 0.946302
0 1.00167 1.00167
0 0.535108 0.941053
0 0.574875 1.01099
0 0.855729 0.855729
0 0.911094 0.911094
0 0.966458 0.966458
0 1.02182 1.02182
0 0.891466 0.625774
0 0.937284 0.657937
0 0.983103 0.6901
0 0.93125 0.93125
0 0.986615 0.986615
0 0.862328 0.60532
0 0.908147 0.637483
0 0.953966 0.669646
0 0.999784 0.701809
0 0.891838 0
0 0.930919 0
0 0.97 0
0 0.924828 0.649193
0 0.970647 0.681356
0 1.01647 0.713519
0 0.906066 0
0 0.945147 0
0 0.984228 0
0 1.02331 0
0.679203 0.926186 0
0.704188 0.960256 0
0 0.920294 0
0 0.959375 0
0 0.998456 0
0.663314 0.904519 0
0.688299 0.93859 0
0.713284 0.97266 0
0.738269 1.00673 0
0.922528 0.922528 0
0.952727 0.952727 0
0.67241 0.916923 0
0.697395 0.950994 0
0.72238 0.985064 0
0.747365 1.01913 0
0.933523 0.933523 0
0.963722 0.963722 0
0.99392 0.99392 0
0.938776 0.471229 0
0.966458 0.485124 0
0 0 0
0.445 0 0.445
0.777187 0 0.777187
1.10937 0 1.10937
0.321603 0 0.640694
0.395712 0 0.788333
0.469821 0 0.935972
0.54393 0 1.08361
0 0 0.791518
1.23031 0 1.23031
0.348584 0 0.694444
0.422693 0 0.842083
0.496802 0 0.989722
0 0 0.731161
0 0 0.826071
0 0 0.920982
0 0 1.01589
0 0.465414 0.818487
0.523782 0 1.04347
0 0 0.765714
0 0 0.860625
0 0 0.955536
0 0 1.05045
0 0.479892 0.843947
0 0.519658 0.913882
0 0.559425 0.983816
0 0.834219 0.834219
0 0 0.990089
0 0.454603 0.799474
0 0.494369 0.869408
0 0.534136 0.939342
0 0.573902 1.00928
0 0.854375 0.854375
0 0.90974 0.90974
0 0.965104 0.965104
0 1.02047 1.02047
0 0.548613 0.964803
0 0.58838 1.03474
0 0.874531 0.874531
0 0.929896 0.929896
0 0.98526 0.98526
0 1.04062 1.04062
0 0.907026 0.636697
0 0.952845 0.66886
0 0.998664 0.701023
0 0.950052 0.950052
0 1.00542 1.00542
0 0.877888 0.616243
0 0.923707 0.648406
0 0.969526 0.680569
0 1.01534 0.712732
0 0.90511 0
0 0.944191 0
0 0.983272 0
0 0.940388 0.660115
0 0.986207 0.692279
0 1.03203 0.724442
0 0.919338 0
0 0.958419 0
0 0.9975 0
0.662703 0.903686 0
0.687688 0.937756 0
0.712673 0.971827 0
0 0.933566 0
0 0.972647 0
0 1.01173 0
0.671799 0.91609 0
0.696784 0.95016 0
0.721769 0.984231 0
0.746754 1.0183 0
0.932784 0.932784 0
0.962983 0.962983 0
0.680895 0.928494 0
0.70588 0.962564 0
0.730865 0.996635 0
0.91358 0.91358 0
0.943778 0.943778 0
0.973977 0.973977 0
1.00418 1.00418 0
0.948177 0.475948 0
0.975859 0.489843 0
0 0 0
0.557812 0 0.557812
0.89 0 0.89
1.22219 0 1.22219
0.346771 0 0.690833
0.42088 0 0.838472
0.494989 0 0.986111
0 0 0.728839
0 0 0.82375
0.299643 0 0.596944
0.373752 0 0.744583
0.447861 0 0.892222
0.521969 0 1.03986
0 0 0.763393
0 0 0.858304
0 0 0.953214
0 0 1.04812
0 0.478919 0.842237
0.54895 0 1.09361
0 0 0.797946
0 0 0.892857
0 0 0.987768
0 0.45363 0.797763
0 0.493397 0.867697
0 0.533163 0.937632
0 0.57293 1.00757
0 0.853021 0.853021
0 0 1.02232
0 0.468108 0.823224
0 0.507874 0.893158
0 0.547641 0.963092
0 0.587407 1.03303
0 0.873177 0.873177
0 0.928542 0.928542
0 0.983906 0.983906
0 1.03927 1.03927
0 0.562118 0.988553
0 0.837969 0.837969
0 0.893333 0.893333
0 0.948698 0.948698
0 1.00406 1.00406
0 0.876767 0.615456
0 0.922586 0.647619
0 0.968405 0.679782
0 1.01422 0.711946
0 0.968854 0.968854
0 1.02422 1.02422
0 0.893448 0.627166
0 0.939267 0.659329
0 0.985086 0.691492
0 1.03091 0.723655
0 0.918382 0
0 0.957463 0
0 0.996544 0
0 0.955948 0.671038
0 1.00177 0.703201
0 0.893529 0
0 0.93261 0
0 0.971691 0
0 1.01077 0
0.671188 0.915256 0
0.696173 0.949327 0
0.721158 0.983397 0
0 0.946838 0
0 0.985919 0
0 1.025 0
0.680284 0.92766 0
0.705269 0.961731 0
0.730254 0.995801 0
0.912841 0.912841 0
0.94304 0.94304 0
0.973239 0.973239 0
0.68938 0.940064 0
0.714365 0.974135 0
0.73935 1.00821 0
0.923835 0.923835 0
0.954034 0.954034 0
0.984233 0.984233 0
1.01443 1.01443 0
0.957578 0.480667 0
0.98526 0.494562 0
0.338438 0 0.338438
0.670625 0 0.670625
1.00281 0 1.00281
0.29783 0 0.593333
0.371939 0 0.740972
0.446048 0 0.888611
0.520157 0 1.03625
0 0 0.761071
0 0 0.855982
0.32481 0 0.647083
0.398919 0 0.794722
0.473028 0 0.942361
0.547137 0 1.09
0 0 0.795625
0 0 0.890536
0 0 0.985446
0 0.452657 0.796053
0 0.492424 0.865987
0 0 0.735268
0 0 0.830179
0 0 0.925089
0 0 1.02
0 0.467135 0.821513
0 0.506901 0.891447
0 0.546668 0.961382
0 0.586434 1.03132
0 0.871823 0.871823
0 0 1.05455
0 0.481612 0.846974
0 0.521379 0.916908
0 0.561146 0.986842
0 0.836615 0.836615
0 0.891979 0.891979
0 0.947344 0.947344
0 1.00271 1.00271
0 0.875647 0.61467
0 0.575623 1.0123
0 0.856771 0.856771
0 0.912135 0.912135
0 0.9675 0.9675
0 1.02286 1.02286
0 0.892328 0.626379
0 0.938147 0.658542
0 0.983966 0.690705
0 1.02978 0.722868
0 0.987656 0.987656
0 0.86319 0.605925
0 0.909009 0.638088
0 0.954828 0.670252
0 1.00065 0.702415
0 0.892574 0
0 0.931654 0
0 0.970735 0
0 1.00982 0
0 0.971509 0.681961
0 1.01733 0.714124
0 0.906801 0
0 0.945882 0
0 0.984963 0
0 1.02404 0
0.679673 0.926827 0
0.704658 0.960897 0
0.729643 0.994968 0
0 0.96011 0
0 0.999191 0
0.663784 0.90516 0
0.688769 0.939231 0
0.713754 0.973301 0
0.738739 1.00737 0
0.923097 0.923097 0
0.953295 0.953295 0
0.983494 0.983494 0
0.697865 0.951635 0
0.72285 0.985705 0
0.747835 1.01978 0
0.934091 0.934091 0
0.96429 0.96429 0
0.994489 0.994489 0
0.939297 0.47149 0
0.966979 0.485386 0
0.994661 0.499281 0
0.45125 0 0.45125
0.783437 0 0.783437
1.11562 0 1.11562
0.322998 0 0.643472
0.397107 0 0.791111
0.471216 0 0.93875
0.545325 0 1.08639
0 0 0.793304
0 0 0.888214
0.349978 0 0.697222
0.424087 0 0.844861
0.498196 0 0.9925
0 0 0.732946
0 0 0.827857
0 0 0.922768
0 0 1.01768
0 0.466162 0.819803
0 0.505929 0.889737
0 0 0.7675
0 0 0.862411
0 0 0.957321
0 0 1.05223
0 0.48064 0.845263
0 0.520406 0.915197
0 0.560173 0.985132
0 0.83526 0.83526
0 0.890625 0.890625
0 0.455351 0.800789
0 0.495117 0.870724
0 0.534884 0.940658
0 0.57465 1.01059
0 0.855417 0.855417
0 0.910781 0.910781
0 0.966146 0.966146
0 1.02151 1.02151
0 0.891207 0.625592
0 0.589128 1.03605
0 0.875573 0.875573
0 0.930938 0.930938
0 0.986302 0.986302
0 0.862069 0.605139
0 0.907888 0.637302
0 0.953707 0.669465
0 0.999526 0.701628
0 0.891618 0
0 1.00646 1.00646
0 0.87875 0.616848
0 0.924569 0.649011
0 0.970388 0.681174
0 1.01621 0.713337
0 0.905846 0
0 0.944926 0
0 0.984007 0
0 1.02309 0
0 0.987069 0.692884
0 1.03289 0.725047
0 0.920074 0
0 0.959154 0
0 0.998235 0
0.663173 0.904327 0
0.688158 0.938397 0
0.713143 0.972468 0
0.738128 1.00654 0
0 0.973382 0
0 1.01246 0
0.672269 0.916731 0
0.697254 0.950801 0
0.722239 0.984872 0
0.747224 1.01894 0
0.933352 0.933352 0
0.963551 0.963551 0
0.99375 0.99375 0
0.70635 0.963205 0
0.731335 0.997276 0
0.914148 0.914148 0
0.944347 0.944347 0
0.974545 0.974545 0
1.00474 1.00474 0
0.948698 0.476209 0
0.97638 0.490105 0
1.00406 0.504 0
0.564063 0 0.564063
0.89625 0 0.89625
1.22844 0 1.22844
0.348166 0 0.693611
0.422275 0 0.84125
0.496383 0 0.988889
0 0 0.730625
0 0 0.825536
0 0 0.920446
0.375146 0 0.747361
0.449255 0 0.895
0.523364 0 1.04264
0 0 0.765179
0 0 0.860089
0 0 0.955
0 0 1.04991
0 0.479667 0.843553
0 0.519434 0.913487
0 0 0.799732
0 0 0.894643
0 0 0.989554
0 0.454378 0.799079
0 0.494145 0.869013
0 0.533911 0.938947
0 0.573678 1.00888
0 0.854062 0.854062
0 0.909427 0.909427
0 0.468856 0.824539
0 0.508622 0.894474
0 0.548389 0.964408
0 0.588155 1.03434
0 0.874219 0.874219
0 0.929583 0.929583
0 0.984948 0.984948
0 1.04031 1.04031
0 0.906767 0.636515
0 0.83901 0.83901
0 0.894375 0.894375
0 0.94974 0.94974
0 1.0051 1.0051
0 0.877629 0.616061
0 0.923448 0.648224
0 0.969267 0.680388
0 1.01509 0.712551
0 0.90489 0
0 1.02526 1.02526
0 0.89431 0.627771
0 0.940129 0.659934
0 0.985948 0.692097
0 1.03177 0.72426
0 0.919118 0
0 0.958199 0
0 0.997279 0
0.662562 0.903494 0
0 1.00263 0.703806
0 0.894265 0
0 0.933346 0
0 0.972426 0
0 1.01151 0
0.671658 0.915897 0
0.696643 0.949968 0
0.721628 0.984038 0
0.746613 1.01811 0
0 0.986654 0
0 1.02574 0
0.680754 0.928301 0
0.705739 0.962372 0
0.730724 0.996442 0
0.913409 0.913409 0
0.943608 0.943608 0
0.973807 0.973807 0
1.00401 1.00401 0
0.714835 0.974776 0
0.739821 1.00885 0
0.924403 0.924403 0
0.954602 0.954602 0
0.984801 0.984801 0
1.015 1.015 0
0.958099 0.480928 0
0.985781 0.494824 0
1.01346 0.508719 0
0.676875 0 0.676875
1.00906 0 1.00906
0.299224 0 0.596111
0.373333 0 0.74375
0.447442 0 0.891389
0.521551 0 1.03903
0 0 0.762857
0 0 0.857768
0 0 0.952679
0.400314 0 0.7975
0.474423 0 0.945139
0.548532 0 1.09278
0 0 0.797411
0 0 0.892321
0 0 0.987232
0 0.453406 0.797368
0 0.493172 0.867303
0 0.532939 0.937237
0 0 0.831964
0 0 0.926875
0 0 1.02179
0 0.467883 0.822829
0 0.50765 0.892763
0 0.547416 0.962697
0 0.587183 1.03263
0 0.872865 0.872865
0 0.928229 0.928229
0 0.482361 0.848289
0 0.522127 0.918224
0 0.561894 0.988158
0 0.837656 0.837656
0 0.893021 0.893021
0 0.948385 0.948385
0 1.00375 1.00375
0 0.876509 0.615275
0 0.922328 0.647438
0 0.857813 0.857813
0 0.913177 0.913177
0 0.968542 0.968542
0 1.02391 1.02391
0 0.89319 0.626984
0 0.939009 0.659147
0 0.984828 0.69131
0 1.03065 0.723473
0 0.918162 0
0 0.864052 0.60653
0 0.909871 0.638694
0 0.95569 0.670857
0 1.00151 0.70302
0 0.893309 0
0 0.93239 0
0 0.971471 0
0 1.01055 0
0.671047 0.915064 0
0 1.01819 0.714729
0 0.907537 0
0 0.946618 0
0 0.985699 0
0 1.02478 0
0.680143 0.927468 0
0.705128 0.961538 0
0.730113 0.995609 0
0.91267 0.91267 0
0 0.999926 0
0.664254 0.905801 0
0.689239 0.939872 0
0.714224 0.973942 0
0.739209 1.00801 0
0.923665 0.923665 0
0.953864 0.953864 0
0.984062 0.984062 0
1.01426 1.01426 0
0.723321 0.986346 0
0.748306 1.02042 0
0.934659 0.934659 0
0.964858 0.964858 0
0.995057 0.995057 0
0.939818 0.471752 0
0.9675 0.485647 0
0.995182 0.499542 0
1.00199 0 0
0.789688 0 0.789688
1.12187 0 1.12187
0.324392 0 0.64625
0.398501 0 0.793889
0.47261 0 0.941528
0.546719 0 1.08917
0 0 0.795089
0 0 0.89
0 0 0.984911
0.425481 0 0.847639
0.49959 0 0.995278
0 0 0.734732
0 0 0.829643
0 0 0.924554
0 0 1.01946
0 0.46691 0.821118
0 0.506677 0.891053
0 0.546443 0.960987
0 0 0.864196
0 0 0.959107
0 0 1.05402
0 0.481388 0.846579
0 0.521155 0.916513
0 0.560921 0.986447
0 0.836302 0.836302
0 0.891667 0.891667
0 0.947031 0.947031
0 0.495866 0.872039
0 0.535632 0.941974
0 0.575399 1.01191
0 0.856458 0.856458
0 0.911823 0.911823
0 0.967187 0.967187
0 1.02255 1.02255
0 0.892069 0.626197
0 0.937888 0.658361
0 0.876615 0.876615
0 0.931979 0.931979
0 0.987344 0.987344
0 0.862931 0.605744
0 0.90875 0.637907
0 0.954569 0.67007
0 1.00039 0.702233
0 0.892353 0
0 0.931434 0
0 0.879612 0.617453
0 0.925431 0.649616
0 0.97125 0.681779
0 1.01707 0.713943
0 0.906581 0
0 0.945662 0
0 0.984743 0
0 1.02382 0
0.679532 0.926635 0
0 1.03375 0.725652
0 0.920809 0
0 0.95989 0
0 0.998971 0
0.663643 0.904968 0
0.688628 0.939038 0
0.713613 0.973109 0
0.738598 1.00718 0
0.922926 0.922926 0
0 1.0132 0
0.672739 0.917372 0
0.697724 0.951442 0
0.722709 0.985513 0
0.747694 1.01958 0
0.93392 0.93392 0
0.964119 0.964119 0
0.994318 0.994318 0
0.939141 0.471412 0
0.731806 0.997917 0
0.914716 0.914716 0
0.944915 0.944915 0
0.975114 0.975114 0
1.00531 1.00531 0
0.949219 0.476471 0
0.976901 0.490366 0
1.00458 0.504261 0
1.0112 0 0
0.9025 0 0.9025
1.23469 0 1.23469
0.34956 0 0.696389
0.423669 0 0.844028
0.497778 0 0.991667
0 0 0.732411
0 0 0.827321
0 0 0.922232
0 0 1.01714
0.450649 0 0.897778
0.524758 0 1.04542
0 0 0.766964
0 0 0.861875
0 0 0.956786
0 0 1.0517
0 0.480415 0.844868
0 0.520182 0.914803
0 0.559948 0.984737
0 0 0.896429
0 0 0.991339
0 0.455126 0.800395
0 0.494893 0.870329
0 0.534659 0.940263
0 0.574426 1.0102
0 0.855104 0.855104
0 0.910469 0.910469
0 0.965833 0.965833
0 0.50937 0.895789
0 0.549137 0.965724
0 0.588904 1.03566
0 0.87526 0.87526
0 0.930625 0.930625
0 0.98599 0.98599
0 1.04135 1.04135
0 0.907629 0.63712
0 0.953448 0.669283
0 0.895417 0.895417
0 0.950781 0.950781
0 1.00615 1.00615
0 0.878491 0.616666
0 0.92431 0.64883
0 0.970129 0.680993
0 1.01595 0.713156
0 0.905625 0
0 0.944706 0
0 0.895172 0.628376
0 0.940991 0.660539
0 0.98681 0.692702
0 1.03263 0.724865
0 0.919853 0
0 0.958934 0
0 0.998015 0
0.663032 0.904135 0
0.688017 0.938205 0
0 0.895 0
0 0.934081 0
0 0.973162 0
0 1.01224 0
0.672128 0.916538 0
0.697113 0.950609 0
0.722098 0.984679 0
0.747083 1.01875 0
0.933182 0.933182 0
0 1.02647 0
0.681224 0.928942 0
0.706209 0.963013 0
0.731194 0.997083 0
0.913977 0.913977 0
0.944176 0.944176 0
0.974375 0.974375 0
1.00457 1.00457 0
0.948542 0.476131 0
0.740291 1.00949 0
0.924972 0.924972 0
0.95517 0.95517 0
0.985369 0.985369 0
1.01557 1.01557 0
0.95862 0.48119 0
0.986302 0.495085 0
1.01398 0.50898 0
1.02041 0 0
