LUTs/lumazones.cube
TITLE "Generated by lutgen"
LUT_3D_SIZE 33
0 0 0
0 0 0
0 0 0
0 0 0
0.332187 0 0.332187
0.415234 0 0.415234
0.498281 0 0.498281
0.581328 0 0.581328
0.664375 0 0.664375
0.747422 0 0.747422
0.830469 0 0.830469
0.913516 0 0.913516
0.996562 0 0.996562
1.07961 0 1.07961
1.16266 0 1.16266
1.2457 0 1.2457
0.296436 0 0.590556
0.314963 0 0.627465
0.33349 0 0.664375
0.352017 0 0.701285
0.370545 0 0.738194
0.389072 0 0.775104
0.407599 0 0.812014
0.426126 0 0.848924
0.444654 0 0.885833
0.463181 0 0.922743
0.481708 0 0.959653
0.500235 0 0.996562
0.518763 0 1.03347
0.53729 0 1.07038
0.555817 0 1.10729
0 0 0.735558
0 0 0.759286
0.279375 0 0.279375
0.362422 0 0.362422
0.445469 0 0.445469
0.528516 0 0.528516
0.611562 0 0.611562
0.694609 0 0.694609
0.777656 0 0.777656
0.860703 0 0.860703
0.94375 0 0.94375
1.0268 0 1.0268
1.10984 0 1.10984
1.19289 0 1.19289
0.284654 0 0.567083
0.303181 0 0.603993
0.321708 0 0.640903
0.340235 0 0.677812
0.358763 0 0.714722
0.37729 0 0.751632
0.395817 0 0.788542
0.414344 0 0.825451
0.432871 0 0.862361
0.451399 0 0.899271
0.469926 0 0.936181
0.488453 0 0.97309
0.50698 0 1.01
0.525508 0 1.04691
0.544035 0 1.08382
0 0 0.720469
0 0 0.744196
0 0 0.767924
0 0 0.791652
0 0 0.815379
0 0 0.839107
0.55875 0 0.55875
0.641797 0 0.641797
0.724844 0 0.724844
0.807891 0 0.807891
0.890937 0 0.890937
0.973984 0 0.973984
1.05703 0 1.05703
1.14008 0 1.14008
1.22312 0 1.22312
0.291399 0 0.580521
0.309926 0 0.617431
0.328453 0 0.65434
0.34698 0 0.69125
0.365508 0 0.72816
0.384035 0 0.765069
0.402562 0 0.801979
0.421089 0 0.838889
0.439617 0 0.875799
0.458144 0 0.912708
0.476671 0 0.949618
0.495198 0 0.986528
0.513725 0 1.02344
0.532253 0 1.06035
0.55078 0 1.09726
0 0 0.729107
0 0 0.752835
0 0 0.776562
0 0 0.80029
0 0 0.824018
0 0 0.847746
0 0 0.871473
0 0 0.895201
0 0 0.918929
0.838125 0 0.838125
0.921172 0 0.921172
1.00422 0 1.00422
1.08727 0 1.08727
1.17031 0 1.17031
0.279617 0 0.557049
0.298144 0 0.593958
0.316671 0 0.630868
0.335198 0 0.667778
0.353725 0 0.704687
0.372253 0 0.741597
0.39078 0 0.778507
0.409307 0 0.815417
0.427834 0 0.852326
0.446362 0 0.889236
0.464889 0 0.926146
0.483416 0 0.963056
0.501943 0 0.999965
0.520471 0 1.03687
0.538998 0 1.07378
0.557525 0 1.11069
0 0 0.737746
0 0 0.761473
0 0 0.785201
0 0 0.808929
0 0 0.832656
0 0 0.856384
0 0 0.880112
0 0 0.903839
0 0 0.927567
0 0 0.951295
0 0 0.975022
0 0 0.99875
1.1175 0 1.1175
1.20055 0 1.20055
0.286362 0 0.570486
0.304889 0 0.607396
0.323416 0 0.644306
0.341943 0 0.681215
0.360471 0 0.718125
0.378998 0 0.755035
0.397525 0 0.791944
0.416052 0 0.828854
0.43458 0 0.865764
0.453107 0 0.902674
0.471634 0 0.939583
0.490161 0 0.976493
0.508688 0 1.0134
0.527216 0 1.05031
0.545743 0 1.08722
0 0 0.722656
0 0 0.746384
0 0 0.770112
0 0 0.793839
0 0 0.817567
0 0 0.841295
0 0 0.865022
0 0 0.88875
0 0 0.912478
0 0 0.936205
0 0 0.959933
0 0 0.983661
0 0 1.00739
0 0 1.03112
0 0 1.05484
0 0.451909 0.794737
0.311634 0 0.620833
0.330161 0 0.657743
0.348688 0 0.694653
0.367216 0 0.731563
0.385743 0 0.768472
0.40427 0 0.805382
0.422797 0 0.842292
0.441325 0 0.879201
0.459852 0 0.916111
0.478379 0 0.953021
0.496906 0 0.989931
0.515434 0 1.02684
0.533961 0 1.06375
0.552488 0 1.10066
0 0 0.731295
0 0 0.755022
0 0 0.77875
0 0 0.802478
0 0 0.826205
0 0 0.849933
0 0 0.873661
0 0 0.897388
0 0 0.921116
0 0 0.944844
0 0 0.968571
0 0 0.992299
0 0 1.01603
0 0 1.03975
0 0 1.06348
0 0.455529 0.801102
0 0.46547 0.818586
0 0.475412 0.836069
0 0.485353 0.853553
0.373961 0 0.745
0.392488 0 0.78191
0.411015 0 0.818819
0.429542 0 0.855729
0.44807 0 0.892639
0.466597 0 0.929549
0.485124 0 0.966458
0.503651 0 1.00337
0.522179 0 1.04028
0.540706 0 1.07719
0 0 0.716205
0 0 0.739933
0 0 0.763661
0 0 0.787388
0 0 0.811116
0 0 0.834844
0 0 0.858571
0 0 0.882299
0 0 0.906027
0 0 0.929754
0 0 0.953482
0 0 0.97721
0 0 1.00094
0 0 1.02467
0 0 1.04839
0 0.449206 0.789984
0 0.459148 0.807467
0 0.46909 0.824951
0 0.479031 0.842434
0 0.488973 0.859918
0 0.498914 0.877401
0 0.508856 0.894885
0 0.518798 0.912368
0.436288 0 0.869167
0.454815 0 0.906076
0.473342 0 0.942986
0.491869 0 0.979896
0.510397 0 1.01681
0.528924 0 1.05372
0.547451 0 1.09063
0 0 0.724844
0 0 0.748571
0 0 0.772299
0 0 0.796027
0 0 0.819754
0 0 0.843482
0 0 0.86721
0 0 0.890937
0 0 0.914665
0 0 0.938393
0 0 0.962121
0 0 0.985848
0 0 1.00958
0 0 1.0333
0 0 1.05703
0 0.452826 0.796349
0 0.462767 0.813832
0 0.472709 0.831316
0 0.482651 0.848799
0 0.492592 0.866283
0 0.502534 0.883766
0 0.512475 0.90125
0 0.522417 0.918734
0 0.532359 0.936217
0 0.5423 0.953701
0 0.552242 0.971184
0.498614 0 0.993333
0.517142 0 1.03024
0.535669 0 1.06715
0.554196 0 1.10406
0 0 0.733482
0 0 0.75721
0 0 0.780938
0 0 0.804665
0 0 0.828393
0 0 0.852121
0 0 0.875848
0 0 0.899576
0 0 0.923304
0 0 0.947031
0 0 0.970759
0 0 0.994487
0 0 1.01821
0 0 1.04194
0 0 1.06567
0 0.456445 0.802714
0 0.466387 0.820197
0 0.476328 0.837681
0 0.48627 0.855164
0 0.496212 0.872648
0 0.506153 0.890132
0 0.516095 0.907615
0 0.526037 0.925099
0 0.535978 0.942582
0 0.54592 0.960066
0 0.555861 0.977549
0 0.565803 0.995033
0 0.575745 1.01252
0 0.585686 1.03
0 0 0.718393
0 0 0.742121
0 0 0.765848
0 0 0.789576
0 0 0.813304
0 0 0.837031
0 0 0.860759
0 0 0.884487
0 0 0.908214
0 0 0.931942
0 0 0.95567
0 0 0.979397
0 0 1.00312
0 0 1.02685
0 0 1.05058
0 0.450123 0.791595
0 0.460064 0.809079
0 0.470006 0.826562
0 0.479948 0.844046
0 0.489889 0.86153
0 0.499831 0.879013
0 0.509773 0.896497
0 0.519714 0.91398
0 0.529656 0.931464
0 0.539598 0.948947
0 0.549539 0.966431
0 0.559481 0.983914
0 0.569422 1.0014
0 0.579364 1.01888
0 0.589306 1.03637
0 0.834297 0.834297
0 0.848138 0.848138
0 0.861979 0.861979
0 0 0.798214
0 0 0.821942
0 0 0.84567
0 0 0.869397
0 0 0.893125
0 0 0.916853
0 0 0.94058
0 0 0.964308
0 0 0.988036
0 0 1.01176
0 0 1.03549
0 0 1.05922
0 0.453742 0.797961
0 0.463684 0.815444
0 0.473626 0.832928
0 0.483567 0.850411
0 0.493509 0.867895
0 0.50345 0.885378
0 0.513392 0.902862
0 0.523334 0.920345
0 0.533275 0.937829
0 0.543217 0.955312
0 0.553159 0.972796
0 0.5631 0.99028
0 0.573042 1.00776
0 0.582983 1.02525
0 0.592925 1.04273
0 0.839336 0.839336
0 0.853177 0.853177
0 0.867018 0.867018
0 0.880859 0.880859
0 0.894701 0.894701
0 0.908542 0.908542
0 0 0.878036
0 0 0.901763
0 0 0.925491
0 0 0.949219
0 0 0.972946
0 0 0.996674
0 0 1.0204
0 0 1.04413
0 0 1.06786
0 0.457362 0.804326
0 0.467303 0.821809
0 0.477245 0.839293
0 0.487187 0.856776
0 0.497128 0.87426
0 0.50707 0.891743
0 0.517011 0.909227
0 0.526953 0.926711
0 0.536895 0.944194
0 0.546836 0.961678
0 0.556778 0.979161
0 0.56672 0.996645
0 0.576661 1.01413
0 0.586603 1.03161
0 0.596544 1.0491
0 0.844375 0.844375
0 0.858216 0.858216
0 0.872057 0.872057
0 0.885898 0.885898
0 0.89974 0.89974
0 0.913581 0.913581
0 0.927422 0.927422
0 0.941263 0.941263
0 0.955104 0.955104
0 0 0.957857
0 0 0.981585
0 0 1.00531
0 0 1.02904
0 0 1.05277
0 0.451039 0.793207
0 0.460981 0.810691
0 0.470923 0.828174
0 0.480864 0.845658
0 0.490806 0.863141
0 0.500748 0.880625
0 0.510689 0.898109
0 0.520631 0.915592
0 0.530572 0.933076
0 0.540514 0.950559
0 0.550456 0.968043
0 0.560397 0.985526
0 0.570339 1.00301
0 0.580281 1.02049
0 0.590222 1.03798
0 0.835573 0.835573
0 0.849414 0.849414
0 0.863255 0.863255
0 0.877096 0.877096
0 0.890937 0.890937
0 0.904779 0.904779
0 0.91862 0.91862
0 0.932461 0.932461
0 0.946302 0.946302
0 0.960143 0.960143
0 0.973984 0.973984
0 0.987826 0.987826
0 1.00167 1.00167
0 0 1.03768
0 0 1.06141
0 0.454659 0.799572
0 0.4646 0.817056
0 0.474542 0.834539
0 0.484484 0.852023
0 0.494425 0.869507
0 0.504367 0.88699
0 0.514309 0.904474
0 0.52425 0.921957
0 0.534192 0.939441
0 0.544133 0.956924
0 0.554075 0.974408
0 0.564017 0.991891
0 0.573958 1.00937
0 0.5839 1.02686
0 0.593842 1.04434
0 0.840612 0.840612
0 0.854453 0.854453
0 0.868294 0.868294
0 0.882135 0.882135
0 0.895977 0.895977
0 0.909818 0.909818
0 0.923659 0.923659
0 0.9375 0.9375
0 0.951341 0.951341
0 0.965182 0.965182
0 0.979023 0.979023
0 0.992865 0.992865
0 1.00671 1.00671
0 1.02055 1.02055
0 1.03439 1.03439
0 0.8675 0.608951
0 0.46822 0.823421
0 0.478161 0.840905
0 0.488103 0.858388
0 0.498045 0.875872
0 0.507986 0.893355
0 0.517928 0.910839
0 0.52787 0.928322
0 0.537811 0.945806
0 0.547753 0.963289
0 0.557694 0.980773
0 0.567636 0.998257
0 0.577578 1.01574
0 0.587519 1.03322
0 0.597461 1.05071
0 0.845651 0.845651
0 0.859492 0.859492
0 0.873333 0.873333
0 0.887174 0.887174
0 0.901016 0.901016
0 0.914857 0.914857
0 0.928698 0.928698
0 0.942539 0.942539
0 0.95638 0.95638
0 0.970221 0.970221
0 0.984062 0.984062
0 0.997904 0.997904
0 1.01174 1.01174
0 1.02559 1.02559
0 1.03943 1.03943
0 0.87167 0.611878
0 0.883125 0.619919
0 0.89458 0.62796
0 0.906034 0.636001
0 0.501664 0.882237
0 0.511606 0.89972
0 0.521547 0.917204
0 0.531489 0.934688
0 0.541431 0.952171
0 0.551372 0.969655
0 0.561314 0.987138
0 0.571255 1.00462
0 0.581197 1.02211
0 0.591139 1.03959
0 0.836849 0.836849
0 0.85069 0.85069
0 0.864531 0.864531
0 0.878372 0.878372
0 0.892214 0.892214
0 0.906055 0.906055
0 0.919896 0.919896
0 0.933737 0.933737
0 0.947578 0.947578
0 0.961419 0.961419
0 0.97526 0.97526
0 0.989102 0.989102
0 1.00294 1.00294
0 1.01678 1.01678
0 1.03062 1.03062
0 0.864386 0.606765
0 0.875841 0.614806
0 0.887295 0.622846
0 0.89875 0.630887
0 0.910205 0.638928
0 0.921659 0.646969
0 0.933114 0.65501
0 0.944569 0.66305
0 0.535108 0.941053
0 0.54505 0.958536
0 0.554992 0.97602
0 0.564933 0.993503
0 0.574875 1.01099
0 0.584817 1.02847
0 0.594758 1.04595
0 0.841888 0.841888
0 0.855729 0.855729
0 0.86957 0.86957
0 0.883411 0.883411
0 0.897253 0.897253
0 0.911094 0.911094
0 0.924935 0.924935
0 0.938776 0.938776
0 0.952617 0.952617
0 0.966458 0.966458
0 0.980299 0.980299
0 0.994141 0.994141
0 1.00798 1.00798
0 1.02182 1.02182
0 1.03566 1.03566
0 0.868556 0.609692
0 0.880011 0.617733
0 0.891466 0.625774
0 0.90292 0.633815
0 0.914375 0.641855
0 0.92583 0.649896
0 0.937284 0.657937
0 0.948739 0.665978
0 0.960194 0.674019
0 0.971649 0.682059
0 0.983103 0.6901
0 0.568553 0.999868
0 0.578494 1.01735
0 0.588436 1.03484
0 0.598378 1.05232
0 0.846927 0.846927
0 0.860768 0.860768
0 0.874609 0.874609
0 0.888451 0.888451
0 0.902292 0.902292
0 0.916133 0.916133
0 0.929974 0.929974
0 0.943815 0.943815
0 0.957656 0.957656
0 0.971497 0.971497
0 0.985339 0.985339
0 0.99918 0.99918
0 1.01302 1.01302
0 1.02686 1.02686
0 1.0407 1.0407
0 0.872726 0.61262
0 0.884181 0.62066
0 0.895636 0.628701
0 0.907091 0.636742
0 0.918545 0.644783
0 0.93 0.652824
0 0.941455 0.660864
0 0.952909 0.668905
0 0.964364 0.676946
0 0.975819 0.684987
0 0.987274 0.693027
0 0.998728 0.701068
0 1.01018 0.709109
0 1.02164 0.71715
0 0.838125 0.838125
0 0.851966 0.851966
0 0.865807 0.865807
0 0.879648 0.879648
0 0.89349 0.89349
0 0.907331 0.907331
0 0.921172 0.921172
0 0.935013 0.935013
0 0.948854 0.948854
0 0.962695 0.962695
0 0.976536 0.976536
0 0.990378 0.990378
0 1.00422 1.00422
0 1.01806 1.01806
0 1.0319 1.0319
0 0.865442 0.607506
0 0.876897 0.615547
0 0.888351 0.623588
0 0.899806 0.631629
0 0.911261 0.639669
0 0.922716 0.64771
0 0.93417 0.655751
0 0.945625 0.663792
0 0.95708 0.671832
0 0.968534 0.679873
0 0.979989 0.687914
0 0.991444 0.695955
0 1.0029 0.703996
0 1.01435 0.712036
0 1.02581 0.720077
0 0.884724 0
0 0.894494 0
0 0.904265 0
0 0.884688 0.884688
0 0.898529 0.898529
0 0.91237 0.91237
0 0.926211 0.926211
0 0.940052 0.940052
0 0.953893 0.953893
0 0.967734 0.967734
0 0.981576 0.981576
0 0.995417 0.995417
0 1.00926 1.00926
0 1.0231 1.0231
0 1.03694 1.03694
0 0.869612 0.610434
0 0.881067 0.618474
0 0.892522 0.626515
0 0.903976 0.634556
0 0.915431 0.642597
0 0.926886 0.650637
0 0.938341 0.658678
0 0.949795 0.666719
0 0.96125 0.67476
0 0.972705 0.682801
0 0.984159 0.690841
0 0.995614 0.698882
0 1.00707 0.706923
0 1.01852 0.714964
0 1.02998 0.723004
0 0.888281 0
0 0.898051 0
0 0.907822 0
0 0.917592 0
0 0.927362 0
0 0.937132 0
0 0.93125 0.93125
0 0.945091 0.945091
0 0.958932 0.958932
0 0.972773 0.972773
0 0.986615 0.986615
0 1.00046 1.00046
0 1.0143 1.0143
0 1.02814 1.02814
0 0.862328 0.60532
0 0.873782 0.613361
0 0.885237 0.621402
0 0.896692 0.629442
0 0.908147 0.637483
0 0.919601 0.645524
0 0.931056 0.653565
0 0.942511 0.661606
0 0.953966 0.669646
0 0.96542 0.677687
0 0.976875 0.685728
0 0.98833 0.693769
0 0.999784 0.701809
0 1.01124 0.70985
0 1.02269 0.717891
0 1.03415 0.725932
0 0.891838 0
0 0.901608 0
0 0.911379 0
0 0.921149 0
0 0.930919 0
0 0.940689 0
0 0.95046 0
0 0.96023 0
0 0.97 0
0 0.977813 0.977813
0 0.991654 0.991654
0 1.00549 1.00549
0 1.01934 1.01934
0 1.03318 1.03318
0 0.866498 0.608248
0 0.877953 0.616288
0 0.889407 0.624329
0 0.900862 0.63237
0 0.912317 0.640411
0 0.923772 0.648451
0 0.935226 0.656492
0 0.946681 0.664533
0 0.958136 0.672574
0 0.969591 0.680615
0 0.981045 0.688655
0 0.9925 0.696696
0 1.00395 0.704737
0 1.01541 0.712778
0 1.02686 0.720818
0 0.885625 0
0 0.895395 0
0 0.905165 0
0 0.914936 0
0 0.924706 0
0 0.934476 0
0 0.944246 0
0 0.954017 0
0 0.963787 0
0 0.973557 0
0 0.983327 0
0 0.993097 0
0 1.00287 0
0 1.02438 1.02438
0 1.03822 1.03822
0 0.870668 0.611175
0 0.882123 0.619216
0 0.893578 0.627256
0 0.905032 0.635297
0 0.916487 0.643338
0 0.927942 0.651379
0 0.939397 0.65942
0 0.950851 0.66746
0 0.962306 0.675501
0 0.973761 0.683542
0 0.985216 0.691583
0 0.99667 0.699623
0 1.00813 0.707664
0 1.01958 0.715705
0 1.03103 0.723746
0 0.889182 0
0 0.898952 0
0 0.908722 0
0 0.918493 0
0 0.928263 0
0 0.938033 0
0 0.947803 0
0 0.957574 0
0 0.967344 0
0 0.977114 0
0 0.986884 0
0 0.996654 0
0 1.00642 0
0 1.01619 0
0 1.02597 0
0.662162 0.902949 0
0 0.886293 0.622143
0 0.897748 0.630184
0 0.909203 0.638225
0 0.920657 0.646265
0 0.932112 0.654306
0 0.943567 0.662347
0 0.955022 0.670388
0 0.966476 0.678428
0 0.977931 0.686469
0 0.989386 0.69451
0 1.00084 0.702551
0 1.0123 0.710592
0 1.02375 0.718632
0 0.882969 0
0 0.892739 0
0 0.902509 0
0 0.912279 0
0 0.92205 0
0 0.93182 0
0 0.94159 0
0 0.95136 0
0 0.961131 0
0 0.970901 0
0 0.980671 0
0 0.990441 0
0 1.00021 0
0 1.00998 0
0 1.01975 0
0.65819 0.897532 0
0.664436 0.90605 0
0.670683 0.914567 0
0.676929 0.923085 0
0.683175 0.931603 0
0 0.924828 0.649193
0 0.936282 0.657233
0 0.947737 0.665274
0 0.959192 0.673315
0 0.970647 0.681356
0 0.982101 0.689397
0 0.993556 0.697437
0 1.00501 0.705478
0 1.01647 0.713519
0 1.02792 0.72156
0 0.886526 0
0 0.896296 0
0 0.906066 0
0 0.915836 0
0 0.925607 0
0 0.935377 0
0 0.945147 0
0 0.954917 0
0 0.964688 0
0 0.974458 0
0 0.984228 0
0 0.993998 0
0 1.00377 0
0 1.01354 0
0 1.02331 0
0.660464 0.900633 0
0.66671 0.909151 0
0.672957 0.917668 0
0.679203 0.926186 0
0.685449 0.934704 0
0.691696 0.943221 0
0.697942 0.951739 0
0.704188 0.960256 0
0 0.963362 0.676242
0 0.974817 0.684283
0 0.986272 0.692324
0 0.997726 0.700365
0 1.00918 0.708406
0 1.02064 0.716446
0 1.03209 0.724487
0 0.890083 0
0 0.899853 0
0 0.909623 0
0 0.919393 0
0 0.929164 0
0 0.938934 0
0 0.948704 0
0 0.958474 0
0 0.968244 0
0 0.978015 0
0 0.987785 0
0 0.997555 0
0 1.00733 0
0 1.0171 0
0 1.02687 0
0.662738 0.903734 0
0.668985 0.912252 0
0.675231 0.920769 0
0.681477 0.929287 0
0.687723 0.937804 0
0.69397 0.946322 0
0.700216 0.95484 0
0.706462 0.963357 0
0.712708 0.971875 0
0.718955 0.980393 0
0.725201 0.98891 0
0 1.0019 0.703292
0 1.01335 0.711333
0 1.02481 0.719374
0 0.883869 0
0 0.89364 0
0 0.90341 0
0 0.91318 0
0 0.92295 0
0 0.932721 0
0 0.942491 0
0 0.952261 0
0 0.962031 0
0 0.971801 0
0 0.981572 0
0 0.991342 0
0 1.00111 0
0 1.01088 0
0 1.02065 0
0.658766 0.898317 0
0.665012 0.906835 0
0.671259 0.915353 0
0.677505 0.92387 0
0.683751 0.932388 0
0.689997 0.940905 0
0.696244 0.949423 0
0.70249 0.957941 0
0.708736 0.966458 0
0.714982 0.974976 0
0.721229 0.983494 0
0.727475 0.992011 0
0.733721 1.00053 0
0.739967 1.00905 0
0.746214 1.01756 0
0 0.887426 0
0 0.897197 0
0 0.906967 0
0 0.916737 0
0 0.926507 0
0 0.936278 0
0 0.946048 0
0 0.955818 0
0 0.965588 0
