LUTs/lutgen.cube
TITLE "Generated by lutgen"
LUT_3D_SIZE 9
0.15 0.03 0.15
0.398625 0.079725 0.398625
0.05315 0.05315 0.05315
0.079725 0.079725 0.079725
0.05315 0.54213 0.5315
0.132875 0.132875 0.132875
0.15945 0.15945 0.15945
0.186025 0.186025 0.186025
0.2126 0.2126 0.2126
0.0447 0.45594 0.447
0.0579875 0.591473 0.579875
0.14255 0.14255 0.14255
0.169125 0.169125 0.169125
0.1957 0.1957 0.1957
0.222275 0.222275 0.222275
0.24885 0.24885 0.24885
0.275425 0.275425 0.275425
0.302 0.302 0.302
0.1788 0.1788 0.1788
0.205375 0.205375 0.205375
0.23195 0.23195 0.23195
0.258525 0.258525 0.258525
0.2851 0.2851 0.2851
0.311675 0.311675 0.311675
0.33825 0.33825 0.33825
0.364825 0.364825 0.364825
0.3914 0.3914 0.3914
0.2682 0.2682 0.2682
0.294775 0.294775 0.294775
0.32135 0.32135 0.32135
0.347925 0.347925 0.347925
0.3745 0.3745 0.3745
0.0561505 0.601613 0.0561505
0.059871 0.641475 0.059871
0.0635915 0.681337 0.0635915
0.067312 0.7212 0.067312
0.3576 0.3576 0.3576
0.384175 0.384175 0.384175
0.057505 0.616125 0.057505
0.0612255 0.655988 0.0612255
0.064946 0.69585 0.064946
0.0686665 0.735713 0.0686665
0.51705 0.51705 0.51705
0.543625 0.543625 0.543625
0.5702 0.5702 0.5702
0.06258 0.6705 0.06258
0.0663005 0.710362 0.0663005
0.50015 0.50015 0.50015
0.526725 0.526725 0.526725
0.5533 0.5533 0.5533
0.579875 0.579875 0.579875
0.909675 0.509418 0.497289
0.949538 0.531741 0.51908
0.9894 0.554064 0.540872
0.5364 0.5364 0.5364
0.562975 0.562975 0.562975
0.58955 0.58955 0.58955
0.924187 0.517545 0.505222
0.96405 0.539868 0.527014
1.00391 0.562191 0.548806
1.04378 0.584514 0.570597
0.722425 0.722425 0.722425
0.749 0.749 0.749
0.9387 0.525672 0.513156
0.978562 0.547995 0.534947
1.01842 0.570318 0.556739
0.705525 0.705525 0.705525
0.7321 0.7321 0.7321
0.758675 0.758675 0.758675
0.78525 0.78525 0.78525
0.811825 0.811825 0.811825
0.8384 0.8384 0.8384
0.7152 0.7152 0.7152
0.741775 0.741775 0.741775
0.76835 0.76835 0.76835
0.794925 0.794925 0.794925
0.8215 0.8215 0.8215
0.848075 0.848075 0.848075
0.87465 0.87465 0.87465
0.901225 0.901225 0.901225
0.816464 0.825742 0.051029
0.15 0.03 0.15
0.534 0.1068 0.534
0.062175 0.062175 0.062175
0.044375 0.452625 0.44375
0.0576625 0.588157 0.576625
0.1419 0.1419 0.1419
0.168475 0.168475 0.168475
0.19505 0.19505 0.19505
0.221625 0.221625 0.221625
0.0492125 0.501967 0.492125
0.125 0.125 0.125
0.151575 0.151575 0.151575
0.17815 0.17815 0.17815
0.204725 0.204725 0.204725
0.2313 0.2313 0.2313
0.257875 0.257875 0.257875
0.28445 0.28445 0.28445
0.311025 0.311025 0.311025
0.187825 0.187825 0.187825
0.2144 0.2144 0.2144
0.240975 0.240975 0.240975
0.26755 0.26755 0.26755
0.294125 0.294125 0.294125
0.3207 0.3207 0.3207
0.347275 0.347275 0.347275
0.37385 0.37385 0.37385
0.0560595 0.600637 0.0560595
0.277225 0.277225 0.277225
0.3038 0.3038 0.3038
0.330375 0.330375 0.330375
0.35695 0.35695 0.35695
0.383525 0.383525 0.383525
0.057414 0.61515 0.057414
0.0611345 0.655012 0.0611345
0.064855 0.694875 0.064855
0.0685755 0.734738 0.0685755
0.366625 0.366625 0.366625
0.3932 0.3932 0.3932
0.0587685 0.629663 0.0587685
0.062489 0.669525 0.062489
0.0662095 0.709388 0.0662095
0.06993 0.74925 0.06993
0.526075 0.526075 0.526075
0.55265 0.55265 0.55265
0.579225 0.579225 0.579225
0.0638435 0.684038 0.0638435
0.067564 0.7239 0.067564
0.509175 0.509175 0.509175
0.53575 0.53575 0.53575
0.562325 0.562325 0.562325
0.5889 0.5889 0.5889
0.923212 0.516999 0.504689
0.963075 0.539322 0.526481
1.00294 0.561645 0.548272
0.545425 0.545425 0.545425
0.572 0.572 0.572
0.598575 0.598575 0.598575
0.937725 0.525126 0.512623
0.977587 0.547449 0.534414
1.01745 0.569772 0.556206
0.704875 0.704875 0.704875
0.73145 0.73145 0.73145
0.758025 0.758025 0.758025
0.952237 0.533253 0.520557
0.9921 0.555576 0.542348
1.03196 0.577899 0.564139
0.71455 0.71455 0.71455
0.741125 0.741125 0.741125
0.7677 0.7677 0.7677
0.794275 0.794275 0.794275
0.82085 0.82085 0.82085
0.847425 0.847425 0.847425
0.724225 0.724225 0.724225
0.7508 0.7508 0.7508
0.777375 0.777375 0.777375
0.80395 0.80395 0.80395
0.830525 0.830525 0.830525
0.8571 0.8571 0.8571
0.883675 0.883675 0.883675
0.91025 0.91025 0.91025
0.824406 0.833774 0.0515254
0.27075 0.05415 0.27075
0.044625 0.044625 0.044625
0.0712 0.0712 0.0712
0.0488875 0.498652 0.488875
0.12435 0.12435 0.12435
0.150925 0.150925 0.150925
0.1775 0.1775 0.1775
0.204075 0.204075 0.204075
0.23065 0.23065 0.23065
0.053725 0.547995 0.53725
0.134025 0.134025 0.134025
0.1606 0.1606 0.1606
0.187175 0.187175 0.187175
0.21375 0.21375 0.21375
0.240325 0.240325 0.240325
0.2669 0.2669 0.2669
0.293475 0.293475 0.293475
0.32005 0.32005 0.32005
0.19685 0.19685 0.19685
0.223425 0.223425 0.223425
0.25 0.25 0.25
0.276575 0.276575 0.276575
0.30315 0.30315 0.30315
0.329725 0.329725 0.329725
0.3563 0.3563 0.3563
0.382875 0.382875 0.382875
0.057323 0.614175 0.057323
0.28625 0.28625 0.28625
0.312825 0.312825 0.312825
0.3394 0.3394 0.3394
0.365975 0.365975 0.365975
0.39255 0.39255 0.39255
0.0586775 0.628688 0.0586775
0.062398 0.66855 0.062398
0.0661185 0.708413 0.0661185
0.069839 0.748275 0.069839
0.37565 0.37565 0.37565
0.0563115 0.603338 0.0563115
0.060032 0.6432 0.060032
0.0637525 0.683063 0.0637525
0.067473 0.722925 0.067473
0.508525 0.508525 0.508525
0.5351 0.5351 0.5351
0.561675 0.561675 0.561675
0.58825 0.58825 0.58825
0.065107 0.697575 0.065107
0.0688275 0.737437 0.0688275
0.5182 0.5182 0.5182
0.544775 0.544775 0.544775
0.57135 0.57135 0.57135
0.597925 0.597925 0.597925
0.93675 0.52458 0.51209
0.976613 0.546903 0.533881
1.01648 0.569226 0.555673
0.55445 0.55445 0.55445
0.581025 0.581025 0.581025
0.9114 0.510384 0.498232
0.951262 0.532707 0.520024
0.991125 0.55503 0.541815
1.03099 0.577353 0.563607
0.7139 0.7139 0.7139
0.740475 0.740475 0.740475
0.76705 0.76705 0.76705
0.965775 0.540834 0.527957
1.00564 0.563157 0.549748
1.0455 0.58548 0.57154
0.723575 0.723575 0.723575
0.75015 0.75015 0.75015
0.776725 0.776725 0.776725
0.8033 0.8033 0.8033
0.829875 0.829875 0.829875
0.85645 0.85645 0.85645
0.73325 0.73325 0.73325
0.759825 0.759825 0.759825
0.7864 0.7864 0.7864
0.812975 0.812975 0.812975
0.83955 0.83955 0.83955
0.866125 0.866125 0.866125
0.8927 0.8927 0.8927
0.919275 0.919275 0.919275
0.94585 0.94585 0.0662095
0.406125 0.081225 0.406125
0.05365 0.05365 0.05365
0.0401125 0.409147 0.401125
0.0534 0.54468 0.534
0.133375 0.133375 0.133375
0.15995 0.15995 0.15995
0.186525 0.186525 0.186525
0.2131 0.2131 0.2131
0.239675 0.239675 0.239675
0.0582375 0.594023 0.582375
0.14305 0.14305 0.14305
0.169625 0.169625 0.169625
0.1962 0.1962 0.1962
0.222775 0.222775 0.222775
0.24935 0.24935 0.24935
0.275925 0.275925 0.275925
0.3025 0.3025 0.3025
0.329075 0.329075 0.329075
0.205875 0.205875 0.205875
0.23245 0.23245 0.23245
0.259025 0.259025 0.259025
0.2856 0.2856 0.2856
0.312175 0.312175 0.312175
0.33875 0.33875 0.33875
0.365325 0.365325 0.365325
0.3919 0.3919 0.3919
0.0585865 0.627712 0.0585865
0.295275 0.295275 0.295275
0.32185 0.32185 0.32185
0.348425 0.348425 0.348425
0.375 0.375 0.375
0.0562205 0.602363 0.0562205
0.059941 0.642225 0.059941
0.0636615 0.682087 0.0636615
0.067382 0.72195 0.067382
0.507875 0.507875 0.507875
0.384675 0.384675 0.384675
0.057575 0.616875 0.057575
0.0612955 0.656738 0.0612955
0.065016 0.6966 0.065016
0.0687365 0.736462 0.0687365
0.51755 0.51755 0.51755
0.544125 0.544125 0.544125
0.5707 0.5707 0.5707
0.597275 0.597275 0.597275
0.0663705 0.711112 0.0663705
0.50065 0.50065 0.50065
0.527225 0.527225 0.527225
0.5538 0.5538 0.5538
0.580375 0.580375 0.580375
0.910425 0.509838 0.497699
0.950287 0.532161 0.51949
0.99015 0.554484 0.541282
1.03001 0.576807 0.563074
0.563475 0.563475 0.563475
0.59005 0.59005 0.59005
0.924937 0.517965 0.505633
0.9648 0.540288 0.527424
1.00466 0.562611 0.549215
1.04453 0.584934 0.571007
0.722925 0.722925 0.722925
0.7495 0.7495 0.7495
0.776075 0.776075 0.776075
0.979313 0.548415 0.535357
1.01917 0.570738 0.557149
0.706025 0.706025 0.706025
0.7326 0.7326 0.7326
0.759175 0.759175 0.759175
0.78575 0.78575 0.78575
0.812325 0.812325 0.812325
0.8389 0.8389 0.8389
0.865475 0.865475 0.865475
0.742275 0.742275 0.742275
0.76885 0.76885 0.76885
0.795425 0.795425 0.795425
0.822 0.822 0.822
0.848575 0.848575 0.848575
0.87515 0.87515 0.87515
0.901725 0.901725 0.901725
0.816904 0.826187 0.0510565
0.954875 0.954875 0.0668413
0.5415 0.1083 0.5415
0.062675 0.062675 0.062675
0.044625 0.455175 0.44625
0.0579125 0.590707 0.579125
0.1424 0.1424 0.1424
0.168975 0.168975 0.168975
0.19555 0.19555 0.19555
0.222125 0.222125 0.222125
0.2487 0.2487 0.2487
0.1255 0.1255 0.1255
0.152075 0.152075 0.152075
0.17865 0.17865 0.17865
0.205225 0.205225 0.205225
0.2318 0.2318 0.2318
0.258375 0.258375 0.258375
0.28495 0.28495 0.28495
0.311525 0.311525 0.311525
0.3381 0.3381 0.3381
0.2149 0.2149 0.2149
0.241475 0.241475 0.241475
0.26805 0.26805 0.26805
0.294625 0.294625 0.294625
0.3212 0.3212 0.3212
0.347775 0.347775 0.347775
0.37435 0.37435 0.37435
0.0561295 0.601388 0.0561295
0.05985 0.64125 0.05985
0.3043 0.3043 0.3043
0.330875 0.330875 0.330875
0.35745 0.35745 0.35745
0.384025 0.384025 0.384025
0.057484 0.6159 0.057484
0.0612045 0.655762 0.0612045
0.064925 0.695625 0.064925
0.0686455 0.735488 0.0686455
0.5169 0.5169 0.5169
0.3937 0.3937 0.3937
0.0588385 0.630413 0.0588385
0.062559 0.670275 0.062559
0.0662795 0.710137 0.0662795
0.5 0.5 0.5
0.526575 0.526575 0.526575
0.55315 0.55315 0.55315
0.579725 0.579725 0.579725
0.90945 0.509292 0.497166
0.067634 0.72465 0.067634
0.509675 0.509675 0.509675
0.53625 0.53625 0.53625
0.562825 0.562825 0.562825
0.5894 0.5894 0.5894
0.923963 0.517419 0.5051
0.963825 0.539742 0.526891
1.00369 0.562065 0.548682
1.04355 0.584388 0.570474
0.5725 0.5725 0.5725
0.599075 0.599075 0.599075
0.938475 0.525546 0.513033
0.978338 0.547869 0.534824
1.0182 0.570192 0.556616
0.705375 0.705375 0.705375
0.73195 0.73195 0.73195
0.758525 0.758525 0.758525
0.7851 0.7851 0.7851
0.99285 0.555996 0.542758
1.03271 0.578319 0.56455
0.71505 0.71505 0.71505
0.741625 0.741625 0.741625
0.7682 0.7682 0.7682
0.794775 0.794775 0.794775
0.82135 0.82135 0.82135
0.847925 0.847925 0.847925
0.8745 0.8745 0.8745
0.7513 0.7513 0.7513
0.777875 0.777875 0.777875
0.80445 0.80445 0.80445
0.831025 0.831025 0.831025
0.8576 0.8576 0.8576
0.884175 0.884175 0.884175
0.91075 0.91075 0.91075
0.824846 0.834219 0.0515529
0.9639 0.48195 0.067473
0.045125 0.045125 0.045125
0.0717 0.0717 0.0717
0.0491375 0.501202 0.491375
0.12485 0.12485 0.12485
0.151425 0.151425 0.151425
0.178 0.178 0.178
0.204575 0.204575 0.204575
0.23115 0.23115 0.23115
0.257725 0.257725 0.257725
0.134525 0.134525 0.134525
0.1611 0.1611 0.1611
0.187675 0.187675 0.187675
0.21425 0.21425 0.21425
0.240825 0.240825 0.240825
0.2674 0.2674 0.2674
0.293975 0.293975 0.293975
0.32055 0.32055 0.32055
0.347125 0.347125 0.347125
0.223925 0.223925 0.223925
0.2505 0.2505 0.2505
0.277075 0.277075 0.277075
0.30365 0.30365 0.30365
0.330225 0.330225 0.330225
0.3568 0.3568 0.3568
0.383375 0.383375 0.383375
0.057393 0.614925 0.057393
0.0611135 0.654787 0.0611135
0.313325 0.313325 0.313325
0.3399 0.3399 0.3399
0.366475 0.366475 0.366475
0.39305 0.39305 0.39305
0.0587475 0.629438 0.0587475
0.062468 0.6693 0.062468
0.0661885 0.709163 0.0661885
0.069909 0.749025 0.069909
0.525925 0.525925 0.525925
0.0563815 0.604088 0.0563815
0.060102 0.64395 0.060102
0.0638225 0.683812 0.0638225
0.067543 0.723675 0.067543
0.509025 0.509025 0.509025
0.5356 0.5356 0.5356
0.562175 0.562175 0.562175
0.58875 0.58875 0.58875
0.922987 0.516873 0.504566
0.0688975 0.738187 0.0688975
0.5187 0.5187 0.5187
0.545275 0.545275 0.545275
0.57185 0.57185 0.57185
0.598425 0.598425 0.598425
0.9375 0.525 0.5125
0.977362 0.547323 0.534291
1.01723 0.569646 0.556083
0.704725 0.704725 0.704725
0.581525 0.581525 0.581525
0.91215 0.510804 0.498642
0.952013 0.533127 0.520434
0.991875 0.55545 0.542225
1.03174 0.577773 0.564017
0.7144 0.7144 0.7144
0.740975 0.740975 0.740975
0.76755 0.76755 0.76755
0.794125 0.794125 0.794125
1.00639 0.563577 0.550159
1.04625 0.5859 0.57195
0.724075 0.724075 0.724075
0.75065 0.75065 0.75065
0.777225 0.777225 0.777225
0.8038 0.8038 0.8038
0.830375 0.830375 0.830375
0.85695 0.85695 0.85695
0.883525 0.883525 0.883525
0.760325 0.760325 0.760325
0.7869 0.7869 0.7869
0.813475 0.813475 0.813475
0.84005 0.84005 0.84005
0.866625 0.866625 0.866625
0.8932 0.8932 0.8932
0.919775 0.919775 0.919775
0.94635 0.94635 0.0662445
0.972925 0.486463 0.0681048
0.05415 0.05415 0.05415
0.0403625 0.411697 0.403625
0.05365 0.54723 0.5365
0.133875 0.133875 0.133875
0.16045 0.16045 0.16045
0.187025 0.187025 0.187025
0.2136 0.2136 0.2136
0.240175 0.240175 0.240175
0.26675 0.26675 0.26675
0.14355 0.14355 0.14355
0.170125 0.170125 0.170125
0.1967 0.1967 0.1967
0.223275 0.223275 0.223275
0.24985 0.24985 0.24985
0.276425 0.276425 0.276425
0.303 0.303 0.303
0.329575 0.329575 0.329575
0.35615 0.35615 0.35615
0.23295 0.23295 0.23295
0.259525 0.259525 0.259525
0.2861 0.2861 0.2861
0.312675 0.312675 0.312675
0.33925 0.33925 0.33925
0.365825 0.365825 0.365825
0.3924 0.3924 0.3924
0.0586565 0.628462 0.0586565
0.062377 0.668325 0.062377
0.32235 0.32235 0.32235
0.348925 0.348925 0.348925
0.3755 0.3755 0.3755
0.0562905 0.603112 0.0562905
0.060011 0.642975 0.060011
0.0637315 0.682837 0.0637315
0.067452 0.7227 0.067452
0.508375 0.508375 0.508375
0.53495 0.53495 0.53495
0.057645 0.617625 0.057645
0.0613655 0.657488 0.0613655
0.065086 0.69735 0.065086
0.0688065 0.737212 0.0688065
0.51805 0.51805 0.51805
0.544625 0.544625 0.544625
0.5712 0.5712 0.5712
0.597775 0.597775 0.597775
0.936525 0.524454 0.511967
0.50115 0.50115 0.50115
0.527725 0.527725 0.527725
0.5543 0.5543 0.5543
0.580875 0.580875 0.580875
0.911175 0.510258 0.498109
0.951037 0.532581 0.519901
0.9909 0.554904 0.541692
1.03076 0.577227 0.563483
0.71375 0.71375 0.71375
0.59055 0.59055 0.59055
0.925688 0.518385 0.506043
0.96555 0.540708 0.527834
1.00541 0.563031 0.549625
1.04527 0.585354 0.571417
0.723425 0.723425 0.723425
0.75 0.75 0.75
0.776575 0.776575 0.776575
0.80315 0.80315 0.80315
1.01992 0.571158 0.557559
0.706525 0.706525 0.706525
0.7331 0.7331 0.7331
0.759675 0.759675 0.759675
0.78625 0.78625 0.78625
0.812825 0.812825 0.812825
0.8394 0.8394 0.8394
0.865975 0.865975 0.865975
0.89255 0.89255 0.89255
0.76935 0.76935 0.76935
0.795925 0.795925 0.795925
0.8225 0.8225 0.8225
0.849075 0.849075 0.849075
0.87565 0.87565 0.87565
0.902225 0.902225 0.902225
0.817344 0.826632 0.051084
0.955375 0.955375 0.0668762
0.98195 0.0638267 0.0490975
0.063175 0.063175 0.063175
0.044875 0.457725 0.44875
0.0581625 0.593257 0.581625
0.1429 0.1429 0.1429
0.169475 0.169475 0.169475
0.19605 0.19605 0.19605
0.222625 0.222625 0.222625
0.2492 0.2492 0.2492
0.275775 0.275775 0.275775
0.152575 0.152575 0.152575
0.17915 0.17915 0.17915
0.205725 0.205725 0.205725
0.2323 0.2323 0.2323
0.258875 0.258875 0.258875
0.28545 0.28545 0.28545
0.312025 0.312025 0.312025
0.3386 0.3386 0.3386
0.365175 0.365175 0.365175
0.241975 0.241975 0.241975
0.26855 0.26855 0.26855
0.295125 0.295125 0.295125
0.3217 0.3217 0.3217
0.348275 0.348275 0.348275
0.37485 0.37485 0.37485
0.0561995 0.602137 0.0561995
0.05992 0.642 0.05992
0.0636405 0.681862 0.0636405
0.331375 0.331375 0.331375
0.35795 0.35795 0.35795
0.384525 0.384525 0.384525
0.057554 0.61665 0.057554
0.0612745 0.656512 0.0612745
0.064995 0.696375 0.064995
0.0687155 0.736238 0.0687155
0.5174 0.5174 0.5174
0.543975 0.543975 0.543975
0.0589085 0.631163 0.0589085
0.062629 0.671025 0.062629
0.0663495 0.710887 0.0663495
0.5005 0.5005 0.5005
0.527075 0.527075 0.527075
0.55365 0.55365 0.55365
0.580225 0.580225 0.580225
0.9102 0.509712 0.497576
0.950063 0.532035 0.519368
0.510175 0.510175 0.510175
0.53675 0.53675 0.53675
0.563325 0.563325 0.563325
0.5899 0.5899 0.5899
0.924713 0.517839 0.50551
0.964575 0.540162 0.527301
1.00444 0.562485 0.549092
1.0443 0.584808 0.570884
0.722775 0.722775 0.722775
0.599575 0.599575 0.599575
0.939225 0.525966 0.513443
0.979088 0.548289 0.535235
1.01895 0.570612 0.557026
0.705875 0.705875 0.705875
0.73245 0.73245 0.73245
0.759025 0.759025 0.759025
0.7856 0.7856 0.7856
0.812175 0.812175 0.812175
1.03346 0.578739 0.56496
0.71555 0.71555 0.71555
0.742125 0.742125 0.742125
0.7687 0.7687 0.7687
0.795275 0.795275 0.795275
0.82185 0.82185 0.82185
0.848425 0.848425 0.848425
0.875 0.875 0.875
0.901575 0.901575 0.901575
0.778375 0.778375 0.778375
0.80495 0.80495 0.80495
0.831525 0.831525 0.831525
0.8581 0.8581 0.8581
0.884675 0.884675 0.884675
0.91125 0.91125 0.91125
0.825286 0.834664 0.0515804
0.9644 0.4822 0.067508
0.990975 0.0644134 0.0495488
0.0722 0.0722 0.0722
0.0493875 0.503752 0.493875
0.12535 0.12535 0.12535
0.151925 0.151925 0.151925
0.1785 0.1785 0.1785
0.205075 0.205075 0.205075
0.23165 0.23165 0.23165
0.258225 0.258225 0.258225
0.2848 0.2848 0.2848
0.1616 0.1616 0.1616
0.188175 0.188175 0.188175
0.21475 0.21475 0.21475
0.241325 0.241325 0.241325
0.2679 0.2679 0.2679
0.294475 0.294475 0.294475
0.32105 0.32105 0.32105
0.347625 0.347625 0.347625
0.3742 0.3742 0.3742
0.251 0.251 0.251
0.277575 0.277575 0.277575
0.30415 0.30415 0.30415
0.330725 0.330725 0.330725
0.3573 0.3573 0.3573
0.383875 0.383875 0.383875
0.057463 0.615675 0.057463
0.0611835 0.655537 0.0611835
0.064904 0.6954 0.064904
0.3404 0.3404 0.3404
0.366975 0.366975 0.366975
0.39355 0.39355 0.39355
0.0588175 0.630188 0.0588175
0.062538 0.67005 0.062538
0.0662585 0.709913 0.0662585
0.069979 0.749775 0.069979
0.526425 0.526425 0.526425
0.553 0.553 0.553
0.060172 0.6447 0.060172
0.0638925 0.684563 0.0638925
0.067613 0.724425 0.067613
0.509525 0.509525 0.509525
0.5361 0.5361 0.5361
0.562675 0.562675 0.562675
0.58925 0.58925 0.58925
0.923738 0.517293 0.504977
0.9636 0.539616 0.526768
0.5192 0.5192 0.5192
0.545775 0.545775 0.545775
0.57235 0.57235 0.57235
0.598925 0.598925 0.598925
0.93825 0.52542 0.51291
0.978112 0.547743 0.534701
1.01797 0.570066 0.556493
0.705225 0.705225 0.705225
0.7318 0.7318 0.7318
0.9129 0.511224 0.499052
0.952763 0.533547 0.520844
0.992625 0.55587 0.542635
1.03249 0.578193 0.564426
0.7149 0.7149 0.7149
0.741475 0.741475 0.741475
0.76805 0.76805 0.76805
0.794625 0.794625 0.794625
0.8212 0.8212 0.8212
1.047 0.58632 0.57236
0.724575 0.724575 0.724575
0.75115 0.75115 0.75115
0.777725 0.777725 0.777725
0.8043 0.8043 0.8043
0.830875 0.830875 0.830875
0.85745 0.85745 0.85745
0.884025 0.884025 0.884025
0.9106 0.9106 0.9106
0.7874 0.7874 0.7874
0.813975 0.813975 0.813975
0.84055 0.84055 0.84055
0.867125 0.867125 0.867125
0.8937 0.8937 0.8937
0.809842 0.819045 0.0506151
0.94685 0.94685 0.0662795
0.973425 0.486712 0.0681397
1 0.065 0.05
