LUTs/lutgen.cube
TITLE "Generated by lutgen"
LUT_3D_SIZE 5
0.15 0.03 0.15
0.05315 0.05315 0.05315
0.05315 0.54213 0.5315
0.15945 0.15945 0.15945
0.2126 0.2126 0.2126
0.1788 0.1788 0.1788
0.23195 0.23195 0.23195
0.2851 0.2851 0.2851
0.33825 0.33825 0.33825
0.3914 0.3914 0.3914
0.3576 0.3576 0.3576
0.057505 0.616125 0.057505
0.064946 0.69585 0.064946
0.51705 0.51705 0.51705
0.5702 0.5702 0.5702
0.5364 0.5364 0.5364
0.58955 0.58955 0.58955
0.96405 0.539868 0.527014
1.04378 0.584514 0.570597
0.749 0.749 0.749
0.7152 0.7152 0.7152
0.76835 0.76835 0.76835
0.8215 0.8215 0.8215
0.87465 0.87465 0.87465
0.816464 0.825742 0.051029
0.27075 0.05415 0.27075
0.0712 0.0712 0.0712
0.12435 0.12435 0.12435
0.1775 0.1775 0.1775
0.23065 0.23065 0.23065
0.19685 0.19685 0.19685
0.25 0.25 0.25
0.30315 0.30315 0.30315
0.3563 0.3563 0.3563
0.057323 0.614175 0.057323
0.37565 0.37565 0.37565
0.060032 0.6432 0.060032
0.067473 0.722925 0.067473
0.5351 0.5351 0.5351
0.58825 0.58825 0.58825
0.55445 0.55445 0.55445
0.9114 0.510384 0.498232
0.991125 0.55503 0.541815
0.7139 0.7139 0.7139
0.76705 0.76705 0.76705
0.73325 0.73325 0.73325
0.7864 0.7864 0.7864
0.83955 0.83955 0.83955
0.8927 0.8927 0.8927
0.94585 0.94585 0.0662095
0.5415 0.1083 0.5415
0.044625 0.455175 0.44625
0.1424 0.1424 0.1424
0.19555 0.19555 0.19555
0.2487 0.2487 0.2487
0.2149 0.2149 0.2149
0.26805 0.26805 0.26805
0.3212 0.3212 0.3212
0.37435 0.37435 0.37435
0.05985 0.64125 0.05985
0.3937 0.3937 0.3937
0.062559 0.670275 0.062559
0.5 0.5 0.5
0.55315 0.55315 0.55315
0.90945 0.509292 0.497166
0.5725 0.5725 0.5725
0.938475 0.525546 0.513033
1.0182 0.570192 0.556616
0.73195 0.73195 0.73195
0.7851 0.7851 0.7851
0.7513 0.7513 0.7513
0.80445 0.80445 0.80445
0.8576 0.8576 0.8576
0.91075 0.91075 0.91075
0.9639 0.48195 0.067473
0.05415 0.05415 0.05415
0.05365 0.54723 0.5365
0.16045 0.16045 0.16045
0.2136 0.2136 0.2136
0.26675 0.26675 0.26675
0.23295 0.23295 0.23295
0.2861 0.2861 0.2861
0.33925 0.33925 0.33925
0.3924 0.3924 0.3924
0.062377 0.668325 0.062377
0.057645 0.617625 0.057645
0.065086 0.69735 0.065086
0.51805 0.51805 0.51805
0.5712 0.5712 0.5712
0.936525 0.524454 0.511967
0.59055 0.59055 0.59055
0.96555 0.540708 0.527834
1.04527 0.585354 0.571417
0.75 0.75 0.75
0.80315 0.80315 0.80315
0.76935 0.76935 0.76935
0.8225 0.8225 0.8225
0.87565 0.87565 0.87565
0.817344 0.826632 0.051084
0.98195 0.0638267 0.0490975
0.0722 0.0722 0.0722
0.12535 0.12535 0.12535
0.1785 0.1785 0.1785
0.23165 0.23165 0.23165
0.2848 0.2848 0.2848
0.251 0.251 0.251
0.30415 0.30415 0.30415
0.3573 0.3573 0.3573
0.057463 0.615675 0.057463
0.064904 0.6954 0.064904
0.060172 0.6447 0.060172
0.067613 0.724425 0.067613
0.5361 0.5361 0.5361
0.58925 0.58925 0.58925
0.9636 0.539616 0.526768
0.9129 0.511224 0.499052
0.992625 0.55587 0.542635
0.7149 0.7149 0.7149
0.76805 0.76805 0.76805
0.8212 0.8212 0.8212
0.7874 0.7874 0.7874
0.84055 0.84055 0.84055
0.8937 0.8937 0.8937
0.94685 0.94685 0.0662795
1 0.065 0.05
