LUTs/lutgen.cube
TITLE "Generated by lutgen"
LUT_3D_SIZE 33
0.15 0.03 0.15
0.15 0.03 0.15
0.199312 0.0398625 0.199312
0.298969 0.0597937 0.298969
0.398625 0.079725 0.398625
0.498281 0.0996562 0.498281
0.597937 0.119587 0.597937
0.0465062 0.0465062 0.0465062
0.05315 0.05315 0.05315
0.0597937 0.0597937 0.0597937
0.0664375 0.0664375 0.0664375
0.0730812 0.0730812 0.0730812
0.079725 0.079725 0.079725
0.0431844 0.440481 0.431844
0.0465062 0.474364 0.465062
0.0498281 0.508247 0.498281
0.05315 0.54213 0.5315
0.0564719 0.576013 0.564719
0.0597937 0.609896 0.597937
0.126231 0.126231 0.126231
0.132875 0.132875 0.132875
0.139519 0.139519 0.139519
0.146162 0.146162 0.146162
0.152806 0.152806 0.152806
0.15945 0.15945 0.15945
0.166094 0.166094 0.166094
0.172737 0.172737 0.172737
0.179381 0.179381 0.179381
0.186025 0.186025 0.186025
0.192669 0.192669 0.192669
0.199312 0.199312 0.199312
0.205956 0.205956 0.205956
0.2126 0.2126 0.2126
0.33525 0.06705 0.33525
0.434906 0.0869813 0.434906
0.534562 0.106912 0.534562
0.0422812 0.0422812 0.0422812
0.048925 0.048925 0.048925
0.0555687 0.0555687 0.0555687
0.0622125 0.0622125 0.0622125
0.0688562 0.0688562 0.0688562
0.0755 0.0755 0.0755
0.0410719 0.418933 0.410719
0.0443937 0.452816 0.443937
0.0477156 0.486699 0.477156
0.0510375 0.520582 0.510375
0.0543594 0.554466 0.543594
0.0576812 0.588349 0.576813
0.122006 0.122006 0.122006
0.12865 0.12865 0.12865
0.135294 0.135294 0.135294
0.141937 0.141937 0.141937
0.148581 0.148581 0.148581
0.155225 0.155225 0.155225
0.161869 0.161869 0.161869
0.168512 0.168512 0.168512
0.175156 0.175156 0.175156
0.1818 0.1818 0.1818
0.188444 0.188444 0.188444
0.195087 0.195087 0.195087
0.201731 0.201731 0.201731
0.208375 0.208375 0.208375
0.215019 0.215019 0.215019
0.221662 0.221662 0.221662
0.228306 0.228306 0.228306
0.23495 0.23495 0.23495
0.0447 0.0447 0.0447
0.0513438 0.0513438 0.0513438
0.0579875 0.0579875 0.0579875
0.0646313 0.0646313 0.0646313
0.071275 0.071275 0.071275
0.0779188 0.0779188 0.0779188
0.0422812 0.431269 0.422812
0.0456031 0.465152 0.456031
0.048925 0.499035 0.48925
0.0522469 0.532918 0.522469
0.0555687 0.566801 0.555687
0.0588906 0.600684 0.588906
0.124425 0.124425 0.124425
0.131069 0.131069 0.131069
0.137712 0.137712 0.137712
0.144356 0.144356 0.144356
0.151 0.151 0.151
0.157644 0.157644 0.157644
0.164287 0.164287 0.164287
0.170931 0.170931 0.170931
0.177575 0.177575 0.177575
0.184219 0.184219 0.184219
0.190862 0.190862 0.190862
0.197506 0.197506 0.197506
0.20415 0.20415 0.20415
0.210794 0.210794 0.210794
0.217437 0.217437 0.217437
0.224081 0.224081 0.224081
0.230725 0.230725 0.230725
0.237369 0.237369 0.237369
0.244012 0.244012 0.244012
0.250656 0.250656 0.250656
0.2573 0.2573 0.2573
0.06705 0.06705 0.06705
0.0736938 0.0736938 0.0736938
0.0401688 0.409721 0.401688
0.0434906 0.443604 0.434906
0.0468125 0.477488 0.468125
0.0501344 0.511371 0.501344
0.0534563 0.545254 0.534563
0.0567781 0.579137 0.567781
0.1202 0.1202 0.1202
0.126844 0.126844 0.126844
0.133487 0.133487 0.133487
0.140131 0.140131 0.140131
0.146775 0.146775 0.146775
0.153419 0.153419 0.153419
0.160062 0.160062 0.160062
0.166706 0.166706 0.166706
0.17335 0.17335 0.17335
0.179994 0.179994 0.179994
0.186637 0.186637 0.186637
0.193281 0.193281 0.193281
0.199925 0.199925 0.199925
0.206569 0.206569 0.206569
0.213212 0.213212 0.213212
0.219856 0.219856 0.219856
0.2265 0.2265 0.2265
0.233144 0.233144 0.233144
0.239787 0.239787 0.239787
0.246431 0.246431 0.246431
0.253075 0.253075 0.253075
0.259719 0.259719 0.259719
0.266362 0.266362 0.266362
0.273006 0.273006 0.273006
0.27965 0.27965 0.27965
0.0447 0.45594 0.447
0.0480219 0.489823 0.480219
0.0513438 0.523706 0.513438
0.0546656 0.557589 0.546656
0.0579875 0.591473 0.579875
0.122619 0.122619 0.122619
0.129263 0.129263 0.129263
0.135906 0.135906 0.135906
0.14255 0.14255 0.14255
0.149194 0.149194 0.149194
0.155838 0.155838 0.155838
0.162481 0.162481 0.162481
0.169125 0.169125 0.169125
0.175769 0.175769 0.175769
0.182413 0.182413 0.182413
0.189056 0.189056 0.189056
0.1957 0.1957 0.1957
0.202344 0.202344 0.202344
0.208988 0.208988 0.208988
0.215631 0.215631 0.215631
0.222275 0.222275 0.222275
0.228919 0.228919 0.228919
0.235563 0.235563 0.235563
0.242206 0.242206 0.242206
0.24885 0.24885 0.24885
0.255494 0.255494 0.255494
0.262138 0.262138 0.262138
0.268781 0.268781 0.268781
0.275425 0.275425 0.275425
0.282069 0.282069 0.282069
0.288713 0.288713 0.288713
0.295356 0.295356 0.295356
0.302 0.302 0.302
0.055875 0.569925 0.55875
0.0591969 0.603808 0.591969
0.125037 0.125037 0.125037
0.131681 0.131681 0.131681
0.138325 0.138325 0.138325
0.144969 0.144969 0.144969
0.151612 0.151612 0.151612
0.158256 0.158256 0.158256
0.1649 0.1649 0.1649
0.171544 0.171544 0.171544
0.178187 0.178187 0.178187
0.184831 0.184831 0.184831
0.191475 0.191475 0.191475
0.198119 0.198119 0.198119
0.204762 0.204762 0.204762
0.211406 0.211406 0.211406
0.21805 0.21805 0.21805
0.224694 0.224694 0.224694
0.231337 0.231337 0.231337
0.237981 0.237981 0.237981
0.244625 0.244625 0.244625
0.251269 0.251269 0.251269
0.257912 0.257912 0.257912
0.264556 0.264556 0.264556
0.2712 0.2712 0.2712
0.277844 0.277844 0.277844
0.284487 0.284487 0.284487
0.291131 0.291131 0.291131
0.297775 0.297775 0.297775
0.304419 0.304419 0.304419
0.311062 0.311062 0.311062
0.317706 0.317706 0.317706
0.32435 0.32435 0.32435
0.1341 0.1341 0.1341
0.140744 0.140744 0.140744
0.147388 0.147388 0.147388
0.154031 0.154031 0.154031
0.160675 0.160675 0.160675
0.167319 0.167319 0.167319
0.173963 0.173963 0.173963
0.180606 0.180606 0.180606
0.18725 0.18725 0.18725
0.193894 0.193894 0.193894
0.200538 0.200538 0.200538
0.207181 0.207181 0.207181
0.213825 0.213825 0.213825
0.220469 0.220469 0.220469
0.227113 0.227113 0.227113
0.233756 0.233756 0.233756
0.2404 0.2404 0.2404
0.247044 0.247044 0.247044
0.253688 0.253688 0.253688
0.260331 0.260331 0.260331
0.266975 0.266975 0.266975
0.273619 0.273619 0.273619
0.280263 0.280263 0.280263
0.286906 0.286906 0.286906
0.29355 0.29355 0.29355
0.300194 0.300194 0.300194
0.306837 0.306837 0.306837
0.313481 0.313481 0.313481
0.320125 0.320125 0.320125
0.326769 0.326769 0.326769
0.333412 0.333412 0.333412
0.340056 0.340056 0.340056
0.3467 0.3467 0.3467
0.15645 0.15645 0.15645
0.163094 0.163094 0.163094
0.169738 0.169738 0.169738
0.176381 0.176381 0.176381
0.183025 0.183025 0.183025
0.189669 0.189669 0.189669
0.196313 0.196313 0.196313
0.202956 0.202956 0.202956
0.2096 0.2096 0.2096
0.216244 0.216244 0.216244
0.222888 0.222888 0.222888
0.229531 0.229531 0.229531
0.236175 0.236175 0.236175
0.242819 0.242819 0.242819
0.249463 0.249463 0.249463
0.256106 0.256106 0.256106
0.26275 0.26275 0.26275
0.269394 0.269394 0.269394
0.276038 0.276038 0.276038
0.282681 0.282681 0.282681
0.289325 0.289325 0.289325
0.295969 0.295969 0.295969
0.302612 0.302612 0.302612
0.309256 0.309256 0.309256
0.3159 0.3159 0.3159
0.322544 0.322544 0.322544
0.329188 0.329188 0.329188
0.335831 0.335831 0.335831
0.342475 0.342475 0.342475
0.349119 0.349119 0.349119
0.355762 0.355762 0.355762
0.362406 0.362406 0.362406
0.36905 0.36905 0.36905
0.1788 0.1788 0.1788
0.185444 0.185444 0.185444
0.192088 0.192088 0.192088
0.198731 0.198731 0.198731
0.205375 0.205375 0.205375
0.212019 0.212019 0.212019
0.218663 0.218663 0.218663
0.225306 0.225306 0.225306
0.23195 0.23195 0.23195
0.238594 0.238594 0.238594
0.245237 0.245237 0.245237
0.251881 0.251881 0.251881
0.258525 0.258525 0.258525
0.265169 0.265169 0.265169
0.271812 0.271812 0.271812
0.278456 0.278456 0.278456
0.2851 0.2851 0.2851
0.291744 0.291744 0.291744
0.298387 0.298387 0.298387
0.305031 0.305031 0.305031
0.311675 0.311675 0.311675
0.318319 0.318319 0.318319
0.324962 0.324962 0.324962
0.331606 0.331606 0.331606
0.33825 0.33825 0.33825
0.344894 0.344894 0.344894
0.351537 0.351537 0.351537
0.358181 0.358181 0.358181
0.364825 0.364825 0.364825
0.371469 0.371469 0.371469
0.378112 0.378112 0.378112
0.384756 0.384756 0.384756
0.3914 0.3914 0.3914
0.20115 0.20115 0.20115
0.207794 0.207794 0.207794
0.214437 0.214437 0.214437
0.221081 0.221081 0.221081
0.227725 0.227725 0.227725
0.234369 0.234369 0.234369
0.241012 0.241012 0.241012
0.247656 0.247656 0.247656
0.2543 0.2543 0.2543
0.260944 0.260944 0.260944
0.267587 0.267587 0.267587
0.274231 0.274231 0.274231
0.280875 0.280875 0.280875
0.287519 0.287519 0.287519
0.294163 0.294163 0.294163
0.300806 0.300806 0.300806
0.30745 0.30745 0.30745
0.314094 0.314094 0.314094
0.320737 0.320737 0.320737
0.327381 0.327381 0.327381
0.334025 0.334025 0.334025
0.340669 0.340669 0.340669
0.347313 0.347313 0.347313
0.353956 0.353956 0.353956
0.3606 0.3606 0.3606
0.367244 0.367244 0.367244
0.373887 0.373887 0.373887
0.380531 0.380531 0.380531
0.387175 0.387175 0.387175
0.393819 0.393819 0.393819
0.0560648 0.600694 0.0560648
0.0569949 0.610659 0.0569949
0.057925 0.620625 0.057925
0.2235 0.2235 0.2235
0.230144 0.230144 0.230144
0.236787 0.236787 0.236787
0.243431 0.243431 0.243431
0.250075 0.250075 0.250075
0.256719 0.256719 0.256719
0.263362 0.263362 0.263362
0.270006 0.270006 0.270006
0.27665 0.27665 0.27665
0.283294 0.283294 0.283294
0.289937 0.289937 0.289937
0.296581 0.296581 0.296581
0.303225 0.303225 0.303225
0.309869 0.309869 0.309869
0.316512 0.316512 0.316512
0.323156 0.323156 0.323156
0.3298 0.3298 0.3298
0.336444 0.336444 0.336444
0.343087 0.343087 0.343087
0.349731 0.349731 0.349731
0.356375 0.356375 0.356375
0.363019 0.363019 0.363019
0.369662 0.369662 0.369662
0.376306 0.376306 0.376306
0.38295 0.38295 0.38295
0.389594 0.389594 0.389594
0.396237 0.396237 0.396237
0.0564034 0.604322 0.0564034
0.0573335 0.614287 0.0573335
0.0582636 0.624253 0.0582636
0.0591937 0.634219 0.0591937
0.0601239 0.644184 0.0601239
0.061054 0.65415 0.061054
0.24585 0.24585 0.24585
0.252494 0.252494 0.252494
0.259138 0.259138 0.259138
0.265781 0.265781 0.265781
0.272425 0.272425 0.272425
0.279069 0.279069 0.279069
0.285712 0.285712 0.285712
0.292356 0.292356 0.292356
0.299 0.299 0.299
0.305644 0.305644 0.305644
0.312288 0.312288 0.312288
0.318931 0.318931 0.318931
0.325575 0.325575 0.325575
0.332219 0.332219 0.332219
0.338862 0.338862 0.338862
0.345506 0.345506 0.345506
0.35215 0.35215 0.35215
0.358794 0.358794 0.358794
0.365438 0.365438 0.365438
0.372081 0.372081 0.372081
0.378725 0.378725 0.378725
0.385369 0.385369 0.385369
0.392012 0.392012 0.392012
0.398656 0.398656 0.398656
0.056742 0.60795 0.056742
0.0576721 0.617916 0.0576721
0.0586023 0.627881 0.0586023
0.0595324 0.637847 0.0595324
0.0604625 0.647812 0.0604625
0.0613926 0.657778 0.0613926
0.0623227 0.667744 0.0623227
0.0632529 0.677709 0.0632529
0.064183 0.687675 0.064183
0.2682 0.2682 0.2682
0.274844 0.274844 0.274844
0.281488 0.281488 0.281488
0.288131 0.288131 0.288131
0.294775 0.294775 0.294775
0.301419 0.301419 0.301419
0.308062 0.308062 0.308062
0.314706 0.314706 0.314706
0.32135 0.32135 0.32135
0.327994 0.327994 0.327994
0.334638 0.334638 0.334638
0.341281 0.341281 0.341281
0.347925 0.347925 0.347925
0.354569 0.354569 0.354569
0.361212 0.361212 0.361212
0.367856 0.367856 0.367856
0.3745 0.3745 0.3745
0.381144 0.381144 0.381144
0.387788 0.387788 0.387788
0.394431 0.394431 0.394431
0.0561505 0.601613 0.0561505
0.0570806 0.611578 0.0570806
0.0580107 0.621544 0.0580107
0.0589409 0.631509 0.0589409
0.059871 0.641475 0.059871
0.0608011 0.651441 0.0608011
0.0617313 0.661406 0.0617313
0.0626614 0.671372 0.0626614
0.0635915 0.681337 0.0635915
0.0645216 0.691303 0.0645216
0.0654517 0.701269 0.0654517
0.0663819 0.711234 0.0663819
0.067312 0.7212 0.067312
0.29055 0.29055 0.29055
0.297194 0.297194 0.297194
0.303837 0.303837 0.303837
0.310481 0.310481 0.310481
0.317125 0.317125 0.317125
0.323769 0.323769 0.323769
0.330413 0.330413 0.330413
0.337056 0.337056 0.337056
0.3437 0.3437 0.3437
0.350344 0.350344 0.350344
0.356987 0.356987 0.356987
0.363631 0.363631 0.363631
0.370275 0.370275 0.370275
0.376919 0.376919 0.376919
0.383563 0.383563 0.383563
0.390206 0.390206 0.390206
0.39685 0.39685 0.39685
0.0564891 0.605241 0.0564891
0.0574192 0.615206 0.0574192
0.0583494 0.625172 0.0583494
0.0592795 0.635137 0.0592795
0.0602096 0.645103 0.0602096
0.0611398 0.655069 0.0611398
0.0620699 0.665034 0.0620699
0.063 0.675 0.063
0.0639301 0.684966 0.0639301
0.0648602 0.694931 0.0648602
0.0657904 0.704897 0.0657904
0.0667205 0.714862 0.0667205
0.0676506 0.724828 0.0676506
0.0685808 0.734794 0.0685808
0.0695109 0.744759 0.0695109
0.50315 0.50315 0.50315
0.3129 0.3129 0.3129
0.319544 0.319544 0.319544
0.326187 0.326187 0.326187
0.332831 0.332831 0.332831
0.339475 0.339475 0.339475
0.346119 0.346119 0.346119
0.352763 0.352763 0.352763
0.359406 0.359406 0.359406
0.36605 0.36605 0.36605
0.372694 0.372694 0.372694
0.379337 0.379337 0.379337
0.385981 0.385981 0.385981
0.392625 0.392625 0.392625
0.399269 0.399269 0.399269
0.0568278 0.608869 0.0568278
0.0577579 0.618834 0.0577579
0.058688 0.6288 0.058688
0.0596181 0.638766 0.0596181
0.0605482 0.648731 0.0605482
0.0614784 0.658697 0.0614784
0.0624085 0.668662 0.0624085
0.0633386 0.678628 0.0633386
0.0642688 0.688594 0.0642688
0.0651989 0.698559 0.0651989
0.066129 0.708525 0.066129
0.0670591 0.718491 0.0670591
0.0679892 0.728456 0.0679892
0.0689194 0.738422 0.0689194
0.0698495 0.748388 0.0698495
0.505569 0.505569 0.505569
0.512213 0.512213 0.512213
0.518856 0.518856 0.518856
0.5255 0.5255 0.5255
0.33525 0.33525 0.33525
0.341894 0.341894 0.341894
0.348538 0.348538 0.348538
0.355181 0.355181 0.355181
0.361825 0.361825 0.361825
0.368469 0.368469 0.368469
0.375112 0.375112 0.375112
0.381756 0.381756 0.381756
0.3884 0.3884 0.3884
0.395044 0.395044 0.395044
0.0562363 0.602531 0.0562363
0.0571664 0.612497 0.0571664
0.0580965 0.622463 0.0580965
0.0590266 0.632428 0.0590266
0.0599567 0.642394 0.0599567
0.0608869 0.652359 0.0608869
0.061817 0.662325 0.061817
0.0627471 0.672291 0.0627471
0.0636773 0.682256 0.0636773
0.0646074 0.692222 0.0646074
0.0655375 0.702187 0.0655375
0.0664676 0.712153 0.0664676
0.0673977 0.722119 0.0673977
0.0683279 0.732084 0.0683279
0.069258 0.74205 0.069258
0.501344 0.501344 0.501344
0.507987 0.507987 0.507987
0.514631 0.514631 0.514631
0.521275 0.521275 0.521275
0.527919 0.527919 0.527919
0.534562 0.534562 0.534562
0.541206 0.541206 0.541206
0.54785 0.54785 0.54785
0.3576 0.3576 0.3576
0.364244 0.364244 0.364244
0.370888 0.370888 0.370888
0.377531 0.377531 0.377531
0.384175 0.384175 0.384175
0.390819 0.390819 0.390819
0.397462 0.397462 0.397462
0.0565749 0.606159 0.0565749
0.057505 0.616125 0.057505
0.0584351 0.626091 0.0584351
0.0593653 0.636056 0.0593653
0.0602954 0.646022 0.0602954
0.0612255 0.655988 0.0612255
0.0621556 0.665953 0.0621556
0.0630857 0.675919 0.0630857
0.0640159 0.685884 0.0640159
0.064946 0.69585 0.064946
0.0658761 0.705816 0.0658761
0.0668062 0.715781 0.0668062
0.0677364 0.725747 0.0677364
0.0686665 0.735713 0.0686665
0.0695966 0.745678 0.0695966
0.503762 0.503762 0.503762
0.510406 0.510406 0.510406
0.51705 0.51705 0.51705
0.523694 0.523694 0.523694
0.530338 0.530338 0.530338
0.536981 0.536981 0.536981
0.543625 0.543625 0.543625
0.550269 0.550269 0.550269
0.556912 0.556912 0.556912
0.563556 0.563556 0.563556
0.5702 0.5702 0.5702
0.37995 0.37995 0.37995
0.386594 0.386594 0.386594
0.393238 0.393238 0.393238
0.399881 0.399881 0.399881
0.0569135 0.609788 0.0569135
0.0578436 0.619753 0.0578436
0.0587737 0.629719 0.0587737
0.0597039 0.639684 0.0597039
0.060634 0.64965 0.060634
0.0615641 0.659616 0.0615641
0.0624943 0.669581 0.0624943
0.0634244 0.679547 0.0634244
0.0643545 0.689512 0.0643545
0.0652846 0.699478 0.0652846
0.0662147 0.709444 0.0662147
0.0671449 0.719409 0.0671449
0.068075 0.729375 0.068075
0.0690051 0.739341 0.0690051
0.0699353 0.749306 0.0699353
0.506181 0.506181 0.506181
0.512825 0.512825 0.512825
0.519469 0.519469 0.519469
0.526112 0.526112 0.526112
0.532756 0.532756 0.532756
0.5394 0.5394 0.5394
0.546044 0.546044 0.546044
0.552688 0.552688 0.552688
0.559331 0.559331 0.559331
0.565975 0.565975 0.565975
0.572619 0.572619 0.572619
0.579262 0.579262 0.579262
0.585906 0.585906 0.585906
0.59255 0.59255 0.59255
0.056322 0.60345 0.056322
0.0572521 0.613416 0.0572521
0.0581822 0.623381 0.0581822
0.0591124 0.633347 0.0591124
0.0600425 0.643313 0.0600425
0.0609726 0.653278 0.0609726
0.0619028 0.663244 0.0619028
0.0628329 0.673209 0.0628329
0.063763 0.683175 0.063763
0.0646931 0.693141 0.0646931
0.0656232 0.703106 0.0656232
0.0665534 0.713072 0.0665534
0.0674835 0.723037 0.0674835
0.0684136 0.733003 0.0684136
0.0693438 0.742969 0.0693438
0.501956 0.501956 0.501956
0.5086 0.5086 0.5086
0.515244 0.515244 0.515244
0.521887 0.521887 0.521887
0.528531 0.528531 0.528531
0.535175 0.535175 0.535175
0.541819 0.541819 0.541819
0.548463 0.548463 0.548463
0.555106 0.555106 0.555106
0.56175 0.56175 0.56175
0.568394 0.568394 0.568394
0.575037 0.575037 0.575037
0.581681 0.581681 0.581681
0.588325 0.588325 0.588325
0.594969 0.594969 0.594969
0.902419 0.505354 0.493322
0.912384 0.510935 0.49877
0.92235 0.516516 0.504218
0.059451 0.636975 0.059451
0.0603811 0.646941 0.0603811
0.0613112 0.656906 0.0613112
0.0622414 0.666872 0.0622414
0.0631715 0.676838 0.0631715
0.0641016 0.686803 0.0641016
0.0650318 0.696769 0.0650318
0.0659619 0.706734 0.0659619
0.066892 0.7167 0.066892
0.0678221 0.726666 0.0678221
0.0687523 0.736631 0.0687523
0.0696824 0.746597 0.0696824
0.504375 0.504375 0.504375
0.511019 0.511019 0.511019
0.517663 0.517663 0.517663
0.524306 0.524306 0.524306
0.53095 0.53095 0.53095
0.537594 0.537594 0.537594
0.544237 0.544237 0.544237
0.550881 0.550881 0.550881
0.557525 0.557525 0.557525
0.564169 0.564169 0.564169
0.570813 0.570813 0.570813
0.577456 0.577456 0.577456
0.5841 0.5841 0.5841
0.590744 0.590744 0.590744
0.597387 0.597387 0.597387
0.906047 0.507386 0.495306
0.916012 0.512967 0.500753
0.925978 0.518548 0.506201
0.935944 0.524128 0.511649
0.945909 0.529709 0.517097
0.955875 0.53529 0.522545
0.06258 0.6705 0.06258
0.0635101 0.680466 0.0635101
0.0644403 0.690431 0.0644403
0.0653704 0.700397 0.0653704
0.0663005 0.710362 0.0663005
0.0672306 0.720328 0.0672306
0.0681607 0.730294 0.0681607
0.0690909 0.740259 0.0690909
0.50015 0.50015 0.50015
0.506794 0.506794 0.506794
0.513438 0.513438 0.513438
0.520081 0.520081 0.520081
0.526725 0.526725 0.526725
0.533369 0.533369 0.533369
0.540012 0.540012 0.540012
0.546656 0.546656 0.546656
0.5533 0.5533 0.5533
0.559944 0.559944 0.559944
0.566588 0.566588 0.566588
0.573231 0.573231 0.573231
0.579875 0.579875 0.579875
0.586519 0.586519 0.586519
0.593162 0.593162 0.593162
0.599806 0.599806 0.599806
0.909675 0.509418 0.497289
0.919641 0.514999 0.502737
0.929606 0.52058 0.508185
0.939572 0.52616 0.513633
0.949538 0.531741 0.51908
0.959503 0.537322 0.524528
0.969469 0.542902 0.529976
0.979434 0.548483 0.535424
0.9894 0.554064 0.540872
0.065709 0.704025 0.065709
0.0666391 0.713991 0.0666391
0.0675693 0.723956 0.0675693
0.0684994 0.733922 0.0684994
0.0694295 0.743888 0.0694295
0.502569 0.502569 0.502569
0.509212 0.509212 0.509212
0.515856 0.515856 0.515856
0.5225 0.5225 0.5225
0.529144 0.529144 0.529144
0.535788 0.535788 0.535788
0.542431 0.542431 0.542431
0.549075 0.549075 0.549075
0.555719 0.555719 0.555719
0.562362 0.562362 0.562362
0.569006 0.569006 0.569006
0.57565 0.57565 0.57565
0.582294 0.582294 0.582294
0.588938 0.588938 0.588938
0.595581 0.595581 0.595581
0.903337 0.505869 0.493825
0.913303 0.51145 0.499272
0.923269 0.51703 0.50472
0.933234 0.522611 0.510168
0.9432 0.528192 0.515616
0.953166 0.533773 0.521064
0.963131 0.539353 0.526512
0.973097 0.544934 0.53196
0.983063 0.550515 0.537408
0.993028 0.556096 0.542855
1.00299 0.561677 0.548303
1.01296 0.567257 0.553751
1.02292 0.572838 0.559199
0.068838 0.73755 0.068838
0.0697681 0.747516 0.0697681
0.504987 0.504987 0.504987
0.511631 0.511631 0.511631
0.518275 0.518275 0.518275
0.524919 0.524919 0.524919
0.531563 0.531563 0.531563
0.538206 0.538206 0.538206
0.54485 0.54485 0.54485
0.551494 0.551494 0.551494
0.558137 0.558137 0.558137
0.564781 0.564781 0.564781
0.571425 0.571425 0.571425
0.578069 0.578069 0.578069
0.584713 0.584713 0.584713
0.591356 0.591356 0.591356
0.598 0.598 0.598
0.906966 0.507901 0.495808
0.916931 0.513481 0.501256
0.926897 0.519062 0.506704
0.936863 0.524643 0.512152
0.946828 0.530224 0.517599
0.956794 0.535805 0.523047
0.966759 0.541385 0.528495
0.976725 0.546966 0.533943
0.986691 0.552547 0.539391
0.996656 0.558127 0.544839
1.00662 0.563708 0.550287
1.01659 0.569289 0.555734
1.02655 0.57487 0.561182
1.03652 0.58045 0.56663
1.04648 0.586031 0.572078
0.7043 0.7043 0.7043
0.51405 0.51405 0.51405
0.520694 0.520694 0.520694
0.527337 0.527337 0.527337
0.533981 0.533981 0.533981
0.540625 0.540625 0.540625
0.547269 0.547269 0.547269
0.553913 0.553913 0.553913
0.560556 0.560556 0.560556
0.5672 0.5672 0.5672
0.573844 0.573844 0.573844
0.580487 0.580487 0.580487
0.587131 0.587131 0.587131
0.593775 0.593775 0.593775
0.900628 0.504352 0.492343
0.910594 0.509933 0.497791
0.920559 0.515513 0.503239
0.930525 0.521094 0.508687
0.940491 0.526675 0.514135
0.950456 0.532255 0.519583
0.960422 0.537836 0.525031
0.970387 0.543417 0.530478
0.980353 0.548998 0.535926
0.990319 0.554578 0.541374
1.00028 0.560159 0.546822
1.01025 0.56574 0.55227
1.02022 0.571321 0.557718
1.03018 0.576901 0.563166
1.04015 0.582482 0.568614
0.700075 0.700075 0.700075
0.706719 0.706719 0.706719
0.713363 0.713363 0.713363
0.720006 0.720006 0.720006
0.72665 0.72665 0.72665
0.5364 0.5364 0.5364
0.543044 0.543044 0.543044
0.549688 0.549688 0.549688
0.556331 0.556331 0.556331
0.562975 0.562975 0.562975
0.569619 0.569619 0.569619
0.576263 0.576263 0.576263
0.582906 0.582906 0.582906
0.58955 0.58955 0.58955
0.596194 0.596194 0.596194
0.904256 0.506383 0.494327
0.914222 0.511964 0.499775
0.924187 0.517545 0.505222
0.934153 0.523126 0.51067
0.944119 0.528706 0.516118
0.954084 0.534287 0.521566
0.96405 0.539868 0.527014
0.974016 0.545449 0.532462
0.983981 0.55103 0.53791
0.993947 0.55661 0.543358
1.00391 0.562191 0.548806
1.01388 0.567772 0.554253
1.02384 0.573353 0.559701
1.03381 0.578933 0.565149
1.04378 0.584514 0.570597
0.702494 0.702494 0.702494
0.709137 0.709137 0.709137
0.715781 0.715781 0.715781
0.722425 0.722425 0.722425
0.729069 0.729069 0.729069
0.735713 0.735713 0.735713
0.742356 0.742356 0.742356
0.749 0.749 0.749
0.55875 0.55875 0.55875
0.565394 0.565394 0.565394
0.572038 0.572038 0.572038
0.578681 0.578681 0.578681
0.585325 0.585325 0.585325
0.591969 0.591969 0.591969
0.598613 0.598613 0.598613
0.907884 0.508415 0.49631
0.91785 0.513996 0.501758
0.927816 0.519577 0.507206
0.937781 0.525158 0.512654
0.947747 0.530738 0.518102
0.957713 0.536319 0.52355
0.967678 0.5419 0.528997
0.977644 0.547481 0.534445
0.987609 0.553061 0.539893
0.997575 0.558642 0.545341
1.00754 0.564223 0.550789
1.01751 0.569803 0.556237
1.02747 0.575384 0.561685
1.03744 0.580965 0.567132
1.0474 0.586546 0.57258
0.704913 0.704913 0.704913
0.711556 0.711556 0.711556
0.7182 0.7182 0.7182
0.724844 0.724844 0.724844
0.731488 0.731488 0.731488
0.738131 0.738131 0.738131
0.744775 0.744775 0.744775
0.751419 0.751419 0.751419
0.758063 0.758063 0.758063
0.764706 0.764706 0.764706
0.77135 0.77135 0.77135
0.5811 0.5811 0.5811
0.587744 0.587744 0.587744
0.594387 0.594387 0.594387
0.901547 0.504866 0.492846
0.911512 0.510447 0.498293
0.921478 0.516028 0.503741
0.931444 0.521608 0.509189
0.941409 0.527189 0.514637
0.951375 0.53277 0.520085
0.961341 0.538351 0.525533
0.971306 0.543931 0.530981
0.981272 0.549512 0.536429
0.991238 0.555093 0.541876
1.0012 0.560674 0.547324
1.01117 0.566254 0.552772
1.02113 0.571835 0.55822
1.0311 0.577416 0.563668
1.04107 0.582997 0.569116
0.700687 0.700687 0.700687
0.707331 0.707331 0.707331
0.713975 0.713975 0.713975
0.720619 0.720619 0.720619
0.727262 0.727262 0.727262
0.733906 0.733906 0.733906
0.74055 0.74055 0.74055
0.747194 0.747194 0.747194
0.753837 0.753837 0.753837
0.760481 0.760481 0.760481
0.767125 0.767125 0.767125
0.773769 0.773769 0.773769
0.780412 0.780412 0.780412
0.787056 0.787056 0.787056
0.7937 0.7937 0.7937
0.905175 0.506898 0.494829
0.915141 0.512479 0.500277
0.925106 0.518059 0.505725
0.935072 0.52364 0.511173
0.945038 0.529221 0.516621
