LUTs/saturationcheck.cube
TITLE "Generated by lutgen"
LUT_3D_SIZE 5
0.01 0.01 0.01
0.25 0.25 0.25
0.5 0.5 0.5
0.75 0.75 0.75
1 0.065 0.05
0.25 0.25 0.25
0.25 0.25 0.25
0.5 0.5 0.5
0.75 0.75 0.75
1 0.065 0.05
0.5 0.5 0.5
0.5 0.5 0.5
0.5 0.5 0.5
0.75 0.75 0.75
1 0.065 0.05
0.75 0.75 0.75
0.75 0.75 0.75
0.75 0.75 0.75
0.75 0.75 0.75
1 0.065 0.05
1 0.065 0.05
1 0.065 0.05
1 0.065 0.05
1 0.065 0.05
1 0.065 0.05
0.25 0.25 0.25
0.25 0.25 0.25
0.5 0.5 0.5
0.75 0.75 0.75
1 0.065 0.05
0.25 0.25 0.25
0.25 0.25 0.25
0.5 0.5 0.5
0.75 0.75 0.75
1 0.065 0.05
0.5 0.5 0.5
0.5 0.5 0.5
0.5 0.5 0.5
0.75 0.75 0.75
1 0.065 0.05
0.75 0.75 0.75
0.75 0.75 0.75
0.75 0.75 0.75
0.75 0.75 0.75
1 0.065 0.05
1 0.065 0.05
1 0.065 0.05
1 0.065 0.05
1 0.065 0.05
1 0.065 0.05
0.5 0.5 0.5
0.5 0.5 0.5
0.5 0.5 0.5
0.75 0.75 0.75
1 0.065 0.05
0.5 0.5 0.5
0.5 0.5 0.5
0.5 0.5 0.5
0.75 0.75 0.75
1 0.065 0.05
0.5 0.5 0.5
0.5 0.5 0.5
0.5 0.5 0.5
0.75 0.75 0.75
1 0.065 0.05
0.75 0.75 0.75
0.75 0.75 0.75
0.75 0.75 0.75
0.75 0.75 0.75
1 0.065 0.05
1 0.065 0.05
1 0.065 0.05
1 0.065 0.05
1 0.065 0.05
1 0.065 0.05
0.75 0.75 0.75
0.75 0.75 0.75
0.75 0.75 0.75
0.75 0.75 0.75
1 0.065 0.05
0.75 0.75 0.75
0.75 0.75 0.75
0.75 0.75 0.75
0.75 0.75 0.75
1 0.065 0.05
0.75 0.75 0.75
0.75 0.75 0.75
0.75 0.75 0.75
0.75 0.75 0.75
1 0.065 0.05
0.75 0.75 0.75
0.75 0.75 0.75
0.75 0.75 0.75
0.75 0.75 0.75
1 0.065 0.05
1 0.065 0.05
1 0.065 0.05
1 0.065 0.05
1 0.065 0.05
1 0.065 0.05
1 0.065 0.05
1 0.065 0.05
1 0.065 0.05
1 0.065 0.05
1 0.065 0.05
1 0.065 0.05
1 0.065 0.05
1 0.065 0.05
1 0.065 0.05
1 0.065 0.05
1 0.065 0.05
1 0.065 0.05
1 0.065 0.05
1 0.065 0.05
1 0.065 0.05
1 0.065 0.05
1 0.065 0.05
1 0.065 0.05
1 0.065 0.05
1 0.065 0.05
1 0.065 0.05
1 0.065 0.05
1 0.065 0.05
1 0.065 0.05
1 0.065 0.05
