LUTs/saturationcheck.cube
TITLE "Generated by lutgen"
LUT_3D_SIZE 33
0.01 0.01 0.01
0.03125 0.03125 0.03125
0.0625 0.0625 0.0625
0.09375 0.09375 0.09375
0.125 0.125 0.125
0.15625 0.15625 0.15625
0.1875 0.1875 0.1875
0.21875 0.21875 0.21875
0.25 0.25 0.25
0.28125 0.28125 0.28125
0.3125 0.3125 0.3125
0.34375 0.34375 0.34375
0.375 0.375 0.375
0.40625 0.40625 0.40625
0.4375 0.4375 0.4375
0.46875 0.46875 0.46875
0.5 0.5 0.5
0.53125 0.53125 0.53125
0.5625 0.5625 0.5625
0.59375 0.59375 0.59375
0.625 0.625 0.625
0.65625 0.65625 0.65625
0.6875 0.6875 0.6875
0.71875 0.71875 0.71875
0.75 0.75 0.75
0.78125 0.78125 0.78125
0.8125 0.8125 0.8125
0.84375 0.84375 0.84375
0.875 0.875 0.875
0.90625 0.90625 0.90625
0.825 0.834375 0.0515625
0.96875 0.484375 0.0678125
1 0.065 0.05
0.03125 0.03125 0.03125
0.03125 0.03125 0.03125
0.0625 0.0625 0.0625
0.09375 0.09375 0.09375
0.125 0.125 0.125
0.15625 0.15625 0.15625
0.1875 0.1875 0.1875
0.21875 0.21875 0.21875
0.25 0.25 0.25
0.28125 0.28125 0.28125
0.3125 0.3125 0.3125
0.34375 0.34375 0.34375
0.375 0.375 0.375
0.40625 0.40625 0.40625
0.4375 0.4375 0.4375
0.46875 0.46875 0.46875
0.5 0.5 0.5
0.53125 0.53125 0.53125
0.5625 0.5625 0.5625
0.59375 0.59375 0.59375
0.625 0.625 0.625
0.65625 0.65625 0.65625
0.6875 0.6875 0.6875
0.71875 0.71875 0.71875
0.75 0.75 0.75
0.78125 0.78125 0.78125
0.8125 0.8125 0.8125
0.84375 0.84375 0.84375
0.875 0.875 0.875
0.90625 0.90625 0.90625
0.825 0.834375 0.0515625
0.96875 0.484375 0.0678125
1 0.065 0.05
0.0625 0.0625 0.0625
0.0625 0.0625 0.0625
0.0625 0.0625 0.0625
0.09375 0.09375 0.09375
0.125 0.125 0.125
0.15625 0.15625 0.15625
0.1875 0.1875 0.1875
0.21875 0.21875 0.21875
0.25 0.25 0.25
0.28125 0.28125 0.28125
0.3125 0.3125 0.3125
0.34375 0.34375 0.34375
0.375 0.375 0.375
0.40625 0.40625 0.40625
0.4375 0.4375 0.4375
0.46875 0.46875 0.46875
0.5 0.5 0.5
0.53125 0.53125 0.53125
0.5625 0.5625 0.5625
0.59375 0.59375 0.59375
0.625 0.625 0.625
0.65625 0.65625 0.65625
0.6875 0.6875 0.6875
0.71875 0.71875 0.71875
0.75 0.75 0.75
0.78125 0.78125 0.78125
0.8125 0.8125 0.8125
0.84375 0.84375 0.84375
0.875 0.875 0.875
0.90625 0.90625 0.90625
0.825 0.834375 0.0515625
0.96875 0.484375 0.0678125
1 0.065 0.05
0.09375 0.09375 0.09375
0.09375 0.09375 0.09375
0.09375 0.09375 0.09375
0.09375 0.09375 0.09375
0.125 0.125 0.125
0.15625 0.15625 0.15625
0.1875 0.1875 0.1875
0.21875 0.21875 0.21875
0.25 0.25 0.25
0.28125 0.28125 0.28125
0.3125 0.3125 0.3125
0.34375 0.34375 0.34375
0.375 0.375 0.375
0.40625 0.40625 0.40625
0.4375 0.4375 0.4375
0.46875 0.46875 0.46875
0.5 0.5 0.5
0.53125 0.53125 0.53125
0.5625 0.5625 0.5625
0.59375 0.59375 0.59375
0.625 0.625 0.625
0.65625 0.65625 0.65625
0.6875 0.6875 0.6875
0.71875 0.71875 0.71875
0.75 0.75 0.75
0.78125 0.78125 0.78125
0.8125 0.8125 0.8125
0.84375 0.84375 0.84375
0.875 0.875 0.875
0.90625 0.90625 0.90625
0.825 0.834375 0.0515625
0.96875 0.484375 0.0678125
1 0.065 0.05
0.125 0.125 0.125
0.125 0.125 0.125
0.125 0.125 0.125
0.125 0.125 0.125
0.125 0.125 0.125
0.15625 0.15625 0.15625
0.1875 0.1875 0.1875
0.21875 0.21875 0.21875
0.25 0.25 0.25
0.28125 0.28125 0.28125
0.3125 0.3125 0.3125
0.34375 0.34375 0.34375
0.375 0.375 0.375
0.40625 0.40625 0.40625
0.4375 0.4375 0.4375
0.46875 0.46875 0.46875
0.5 0.5 0.5
0.53125 0.53125 0.53125
0.5625 0.5625 0.5625
0.59375 0.59375 0.59375
0.625 0.625 0.625
0.65625 0.65625 0.65625
0.6875 0.6875 0.6875
0.71875 0.71875 0.71875
0.75 0.75 0.75
0.78125 0.78125 0.78125
0.8125 0.8125 0.8125
0.84375 0.84375 0.84375
0.875 0.875 0.875
0.90625 0.90625 0.90625
0.825 0.834375 0.0515625
0.96875 0.484375 0.0678125
1 0.065 0.05
0.15625 0.15625 0.15625
0.15625 0.15625 0.15625
0.15625 0.15625 0.15625
0.15625 0.15625 0.15625
0.15625 0.15625 0.15625
0.15625 0.15625 0.15625
0.1875 0.1875 0.1875
0.21875 0.21875 0.21875
0.25 0.25 0.25
0.28125 0.28125 0.28125
0.3125 0.3125 0.3125
0.34375 0.34375 0.34375
0.375 0.375 0.375
0.40625 0.40625 0.40625
0.4375 0.4375 0.4375
0.46875 0.46875 0.46875
0.5 0.5 0.5
0.53125 0.53125 0.53125
0.5625 0.5625 0.5625
0.59375 0.59375 0.59375
0.625 0.625 0.625
0.65625 0.65625 0.65625
0.6875 0.6875 0.6875
0.71875 0.71875 0.71875
0.75 0.75 0.75
0.78125 0.78125 0.78125
0.8125 0.8125 0.8125
0.84375 0.84375 0.84375
0.875 0.875 0.875
0.90625 0.90625 0.90625
0.825 0.834375 0.0515625
0.96875 0.484375 0.0678125
1 0.065 0.05
0.1875 0.1875 0.1875
0.1875 0.1875 0.1875
0.1875 0.1875 0.1875
0.1875 0.1875 0.1875
0.1875 0.1875 0.1875
0.1875 0.1875 0.1875
0.1875 0.1875 0.1875
0.21875 0.21875 0.21875
0.25 0.25 0.25
0.28125 0.28125 0.28125
0.3125 0.3125 0.3125
0.34375 0.34375 0.34375
0.375 0.375 0.375
0.40625 0.40625 0.40625
0.4375 0.4375 0.4375
0.46875 0.46875 0.46875
0.5 0.5 0.5
0.53125 0.53125 0.53125
0.5625 0.5625 0.5625
0.59375 0.59375 0.59375
0.625 0.625 0.625
0.65625 0.65625 0.65625
0.6875 0.6875 0.6875
0.71875 0.71875 0.71875
0.75 0.75 0.75
0.78125 0.78125 0.78125
0.8125 0.8125 0.8125
0.84375 0.84375 0.84375
0.875 0.875 0.875
0.90625 0.90625 0.90625
0.825 0.834375 0.0515625
0.96875 0.484375 0.0678125
1 0.065 0.05
0.21875 0.21875 0.21875
0.21875 0.21875 0.21875
0.21875 0.21875 0.21875
0.21875 0.21875 0.21875
0.21875 0.21875 0.21875
0.21875 0.21875 0.21875
0.21875 0.21875 0.21875
0.21875 0.21875 0.21875
0.25 0.25 0.25
0.28125 0.28125 0.28125
0.3125 0.3125 0.3125
0.34375 0.34375 0.34375
0.375 0.375 0.375
0.40625 0.40625 0.40625
0.4375 0.4375 0.4375
0.46875 0.46875 0.46875
0.5 0.5 0.5
0.53125 0.53125 0.53125
0.5625 0.5625 0.5625
0.59375 0.59375 0.59375
0.625 0.625 0.625
0.65625 0.65625 0.65625
0.6875 0.6875 0.6875
0.71875 0.71875 0.71875
0.75 0.75 0.75
0.78125 0.78125 0.78125
0.8125 0.8125 0.8125
0.84375 0.84375 0.84375
0.875 0.875 0.875
0.90625 0.90625 0.90625
0.825 0.834375 0.0515625
0.96875 0.484375 0.0678125
1 0.065 0.05
0.25 0.25 0.25
0.25 0.25 0.25
0.25 0.25 0.25
0.25 0.25 0.25
0.25 0.25 0.25
0.25 0.25 0.25
0.25 0.25 0.25
0.25 0.25 0.25
0.25 0.25 0.25
0.28125 0.28125 0.28125
0.3125 0.3125 0.3125
0.34375 0.34375 0.34375
0.375 0.375 0.375
0.40625 0.40625 0.40625
0.4375 0.4375 0.4375
0.46875 0.46875 0.46875
0.5 0.5 0.5
0.53125 0.53125 0.53125
0.5625 0.5625 0.5625
0.59375 0.59375 0.59375
0.625 0.625 0.625
0.65625 0.65625 0.65625
0.6875 0.6875 0.6875
0.71875 0.71875 0.71875
0.75 0.75 0.75
0.78125 0.78125 0.78125
0.8125 0.8125 0.8125
0.84375 0.84375 0.84375
0.875 0.875 0.875
0.90625 0.90625 0.90625
0.825 0.834375 0.0515625
0.96875 0.484375 0.0678125
1 0.065 0.05
0.28125 0.28125 0.28125
0.28125 0.28125 0.28125
0.28125 0.28125 0.28125
0.28125 0.28125 0.28125
0.28125 0.28125 0.28125
0.28125 0.28125 0.28125
0.28125 0.28125 0.28125
0.28125 0.28125 0.28125
0.28125 0.28125 0.28125
0.28125 0.28125 0.28125
0.3125 0.3125 0.3125
0.34375 0.34375 0.34375
0.375 0.375 0.375
0.40625 0.40625 0.40625
0.4375 0.4375 0.4375
0.46875 0.46875 0.46875
0.5 0.5 0.5
0.53125 0.53125 0.53125
0.5625 0.5625 0.5625
0.59375 0.59375 0.59375
0.625 0.625 0.625
0.65625 0.65625 0.65625
0.6875 0.6875 0.6875
0.71875 0.71875 0.71875
0.75 0.75 0.75
0.78125 0.78125 0.78125
0.8125 0.8125 0.8125
0.84375 0.84375 0.84375
0.875 0.875 0.875
0.90625 0.90625 0.90625
0.825 0.834375 0.0515625
0.96875 0.484375 0.0678125
1 0.065 0.05
0.3125 0.3125 0.3125
0.3125 0.3125 0.3125
0.3125 0.3125 0.3125
0.3125 0.3125 0.3125
0.3125 0.3125 0.3125
0.3125 0.3125 0.3125
0.3125 0.3125 0.3125
0.3125 0.3125 0.3125
0.3125 0.3125 0.3125
0.3125 0.3125 0.3125
0.3125 0.3125 0.3125
0.34375 0.34375 0.34375
0.375 0.375 0.375
0.40625 0.40625 0.40625
0.4375 0.4375 0.4375
0.46875 0.46875 0.46875
0.5 0.5 0.5
0.53125 0.53125 0.53125
0.5625 0.5625 0.5625
0.59375 0.59375 0.59375
0.625 0.625 0.625
0.65625 0.65625 0.65625
0.6875 0.6875 0.6875
0.71875 0.71875 0.71875
0.75 0.75 0.75
0.78125 0.78125 0.78125
0.8125 0.8125 0.8125
0.84375 0.84375 0.84375
0.875 0.875 0.875
0.90625 0.90625 0.90625
0.825 0.834375 0.0515625
0.96875 0.484375 0.0678125
1 0.065 0.05
0.34375 0.34375 0.34375
0.34375 0.34375 0.34375
0.34375 0.34375 0.34375
0.34375 0.34375 0.34375
0.34375 0.34375 0.34375
0.34375 0.34375 0.34375
0.34375 0.34375 0.34375
0.34375 0.34375 0.34375
0.34375 0.34375 0.34375
0.34375 0.34375 0.34375
0.34375 0.34375 0.34375
0.34375 0.34375 0.34375
0.375 0.375 0.375
0.40625 0.40625 0.40625
0.4375 0.4375 0.4375
0.46875 0.46875 0.46875
0.5 0.5 0.5
0.53125 0.53125 0.53125
0.5625 0.5625 0.5625
0.59375 0.59375 0.59375
0.625 0.625 0.625
0.65625 0.65625 0.65625
0.6875 0.6875 0.6875
0.71875 0.71875 0.71875
0.75 0.75 0.75
0.78125 0.78125 0.78125
0.8125 0.8125 0.8125
0.84375 0.84375 0.84375
0.875 0.875 0.875
0.90625 0.90625 0.90625
0.825 0.834375 0.0515625
0.96875 0.484375 0.0678125
1 0.065 0.05
0.375 0.375 0.375
0.375 0.375 0.375
0.375 0.375 0.375
0.375 0.375 0.375
0.375 0.375 0.375
0.375 0.375 0.375
0.375 0.375 0.375
0.375 0.375 0.375
0.375 0.375 0.375
0.375 0.375 0.375
0.375 0.375 0.375
0.375 0.375 0.375
0.375 0.375 0.375
0.40625 0.40625 0.40625
0.4375 0.4375 0.4375
0.46875 0.46875 0.46875
0.5 0.5 0.5
0.53125 0.53125 0.53125
0.5625 0.5625 0.5625
0.59375 0.59375 0.59375
0.625 0.625 0.625
0.65625 0.65625 0.65625
0.6875 0.6875 0.6875
0.71875 0.71875 0.71875
0.75 0.75 0.75
0.78125 0.78125 0.78125
0.8125 0.8125 0.8125
0.84375 0.84375 0.84375
0.875 0.875 0.875
0.90625 0.90625 0.90625
0.825 0.834375 0.0515625
0.96875 0.484375 0.0678125
1 0.065 0.05
0.40625 0.40625 0.40625
0.40625 0.40625 0.40625
0.40625 0.40625 0.40625
0.40625 0.40625 0.40625
0.40625 0.40625 0.40625
0.40625 0.40625 0.40625
0.40625 0.40625 0.40625
0.40625 0.40625 0.40625
0.40625 0.40625 0.40625
0.40625 0.40625 0.40625
0.40625 0.40625 0.40625
0.40625 0.40625 0.40625
0.40625 0.40625 0.40625
0.40625 0.40625 0.40625
0.4375 0.4375 0.4375
0.46875 0.46875 0.46875
0.5 0.5 0.5
0.53125 0.53125 0.53125
0.5625 0.5625 0.5625
0.59375 0.59375 0.59375
0.625 0.625 0.625
0.65625 0.65625 0.65625
0.6875 0.6875 0.6875
0.71875 0.71875 0.71875
0.75 0.75 0.75
0.78125 0.78125 0.78125
0.8125 0.8125 0.8125
0.84375 0.84375 0.84375
0.875 0.875 0.875
0.90625 0.90625 0.90625
0.825 0.834375 0.0515625
0.96875 0.484375 0.0678125
1 0.065 0.05
0.4375 0.4375 0.4375
0.4375 0.4375 0.4375
0.4375 0.4375 0.4375
0.4375 0.4375 0.4375
0.4375 0.4375 0.4375
0.4375 0.4375 0.4375
0.4375 0.4375 0.4375
0.4375 0.4375 0.4375
0.4375 0.4375 0.4375
0.4375 0.4375 0.4375
0.4375 0.4375 0.4375
0.4375 0.4375 0.4375
0.4375 0.4375 0.4375
0.4375 0.4375 0.4375
0.4375 0.4375 0.4375
0.46875 0.46875 0.46875
0.5 0.5 0.5
0.53125 0.53125 0.53125
0.5625 0.5625 0.5625
0.59375 0.59375 0.59375
0.625 0.625 0.625
0.65625 0.65625 0.65625
0.6875 0.6875 0.6875
0.71875 0.71875 0.71875
0.75 0.75 0.75
0.78125 0.78125 0.78125
0.8125 0.8125 0.8125
0.84375 0.84375 0.84375
0.875 0.875 0.875
0.90625 0.90625 0.90625
0.825 0.834375 0.0515625
0.96875 0.484375 0.0678125
1 0.065 0.05
0.46875 0.46875 0.46875
0.46875 0.46875 0.46875
0.46875 0.46875 0.46875
0.46875 0.46875 0.46875
0.46875 0.46875 0.46875
0.46875 0.46875 0.46875
0.46875 0.46875 0.46875
0.46875 0.46875 0.46875
0.46875 0.46875 0.46875
0.46875 0.46875 0.46875
0.46875 0.46875 0.46875
0.46875 0.46875 0.46875
0.46875 0.46875 0.46875
0.46875 0.46875 0.46875
0.46875 0.46875 0.46875
0.46875 0.46875 0.46875
0.5 0.5 0.5
0.53125 0.53125 0.53125
0.5625 0.5625 0.5625
0.59375 0.59375 0.59375
0.625 0.625 0.625
0.65625 0.65625 0.65625
0.6875 0.6875 0.6875
0.71875 0.71875 0.71875
0.75 0.75 0.75
0.78125 0.78125 0.78125
0.8125 0.8125 0.8125
0.84375 0.84375 0.84375
0.875 0.875 0.875
0.90625 0.90625 0.90625
0.825 0.834375 0.0515625
0.96875 0.484375 0.0678125
1 0.065 0.05
0.5 0.5 0.5
0.5 0.5 0.5
0.5 0.5 0.5
0.5 0.5 0.5
0.5 0.5 0.5
0.5 0.5 0.5
0.5 0.5 0.5
0.5 0.5 0.5
0.5 0.5 0.5
0.5 0.5 0.5
0.5 0.5 0.5
0.5 0.5 0.5
0.5 0.5 0.5
0.5 0.5 0.5
0.5 0.5 0.5
0.5 0.5 0.5
0.5 0.5 0.5
0.53125 0.53125 0.53125
0.5625 0.5625 0.5625
0.59375 0.59375 0.59375
0.625 0.625 0.625
0.65625 0.65625 0.65625
0.6875 0.6875 0.6875
0.71875 0.71875 0.71875
0.75 0.75 0.75
0.78125 0.78125 0.78125
0.8125 0.8125 0.8125
0.84375 0.84375 0.84375
0.875 0.875 0.875
0.90625 0.90625 0.90625
0.825 0.834375 0.0515625
0.96875 0.484375 0.0678125
1 0.065 0.05
0.53125 0.53125 0.53125
0.53125 0.53125 0.53125
0.53125 0.53125 0.53125
0.53125 0.53125 0.53125
0.53125 0.53125 0.53125
0.53125 0.53125 0.53125
0.53125 0.53125 0.53125
0.53125 0.53125 0.53125
0.53125 0.53125 0.53125
0.53125 0.53125 0.53125
0.53125 0.53125 0.53125
0.53125 0.53125 0.53125
0.53125 0.53125 0.53125
0.53125 0.53125 0.53125
0.53125 0.53125 0.53125
0.53125 0.53125 0.53125
0.53125 0.53125 0.53125
0.53125 0.53125 0.53125
0.5625 0.5625 0.5625
0.59375 0.59375 0.59375
0.625 0.625 0.625
0.65625 0.65625 0.65625
0.6875 0.6875 0.6875
0.71875 0.71875 0.71875
0.75 0.75 0.75
0.78125 0.78125 0.78125
0.8125 0.8125 0.8125
0.84375 0.84375 0.84375
0.875 0.875 0.875
0.90625 0.90625 0.90625
0.825 0.834375 0.0515625
0.96875 0.484375 0.0678125
1 0.065 0.05
0.5625 0.5625 0.5625
0.5625 0.5625 0.5625
0.5625 0.5625 0.5625
0.5625 0.5625 0.5625
0.5625 0.5625 0.5625
0.5625 0.5625 0.5625
0.5625 0.5625 0.5625
0.5625 0.5625 0.5625
0.5625 0.5625 0.5625
0.5625 0.5625 0.5625
0.5625 0.5625 0.5625
0.5625 0.5625 0.5625
0.5625 0.5625 0.5625
0.5625 0.5625 0.5625
0.5625 0.5625 0.5625
0.5625 0.5625 0.5625
0.5625 0.5625 0.5625
0.5625 0.5625 0.5625
0.5625 0.5625 0.5625
0.59375 0.59375 0.59375
0.625 0.625 0.625
0.65625 0.65625 0.65625
0.6875 0.6875 0.6875
0.71875 0.71875 0.71875
0.75 0.75 0.75
0.78125 0.78125 0.78125
0.8125 0.8125 0.8125
0.84375 0.84375 0.84375
0.875 0.875 0.875
0.90625 0.90625 0.90625
0.825 0.834375 0.0515625
0.96875 0.484375 0.0678125
1 0.065 0.05
0.59375 0.59375 0.59375
0.59375 0.59375 0.59375
0.59375 0.59375 0.59375
0.59375 0.59375 0.59375
0.59375 0.59375 0.59375
0.59375 0.59375 0.59375
0.59375 0.59375 0.59375
0.59375 0.59375 0.59375
0.59375 0.59375 0.59375
0.59375 0.59375 0.59375
0.59375 0.59375 0.59375
0.59375 0.59375 0.59375
0.59375 0.59375 0.59375
0.59375 0.59375 0.59375
0.59375 0.59375 0.59375
0.59375 0.59375 0.59375
0.59375 0.59375 0.59375
0.59375 0.59375 0.59375
0.59375 0.59375 0.59375
0.59375 0.59375 0.59375
0.625 0.625 0.625
0.65625 0.65625 0.65625
0.6875 0.6875 0.6875
0.71875 0.71875 0.71875
0.75 0.75 0.75
0.78125 0.78125 0.78125
0.8125 0.8125 0.8125
0.84375 0.84375 0.84375
0.875 0.875 0.875
0.90625 0.90625 0.90625
0.825 0.834375 0.0515625
0.96875 0.484375 0.0678125
1 0.065 0.05
0.625 0.625 0.625
0.625 0.625 0.625
0.625 0.625 0.625
0.625 0.625 0.625
0.625 0.625 0.625
0.625 0.625 0.625
0.625 0.625 0.625
0.625 0.625 0.625
0.625 0.625 0.625
0.625 0.625 0.625
0.625 0.625 0.625
0.625 0.625 0.625
0.625 0.625 0.625
0.625 0.625 0.625
0.625 0.625 0.625
0.625 0.625 0.625
0.625 0.625 0.625
0.625 0.625 0.625
0.625 0.625 0.625
0.625 0.625 0.625
0.625 0.625 0.625
0.65625 0.65625 0.65625
0.6875 0.6875 0.6875
0.71875 0.71875 0.71875
0.75 0.75 0.75
0.78125 0.78125 0.78125
0.8125 0.8125 0.8125
0.84375 0.84375 0.84375
0.875 0.875 0.875
0.90625 0.90625 0.90625
0.825 0.834375 0.0515625
0.96875 0.484375 0.0678125
1 0.065 0.05
0.65625 0.65625 0.65625
0.65625 0.65625 0.65625
0.65625 0.65625 0.65625
0.65625 0.65625 0.65625
0.65625 0.65625 0.65625
0.65625 0.65625 0.65625
0.65625 0.65625 0.65625
0.65625 0.65625 0.65625
0.65625 0.65625 0.65625
0.65625 0.65625 0.65625
0.65625 0.65625 0.65625
0.65625 0.65625 0.65625
0.65625 0.65625 0.65625
0.65625 0.65625 0.65625
0.65625 0.65625 0.65625
0.65625 0.65625 0.65625
0.65625 0.65625 0.65625
0.65625 0.65625 0.65625
0.65625 0.65625 0.65625
0.65625 0.65625 0.65625
0.65625 0.65625 0.65625
0.65625 0.65625 0.65625
0.6875 0.6875 0.6875
0.71875 0.71875 0.71875
0.75 0.75 0.75
0.78125 0.78125 0.78125
0.8125 0.8125 0.8125
0.84375 0.84375 0.84375
0.875 0.875 0.875
0.90625 0.90625 0.90625
0.825 0.834375 0.0515625
0.96875 0.484375 0.0678125
1 0.065 0.05
0.6875 0.6875 0.6875
0.6875 0.6875 0.6875
0.6875 0.6875 0.6875
0.6875 0.6875 0.6875
0.6875 0.6875 0.6875
0.6875 0.6875 0.6875
0.6875 0.6875 0.6875
0.6875 0.6875 0.6875
0.6875 0.6875 0.6875
0.6875 0.6875 0.6875
0.6875 0.6875 0.6875
0.6875 0.6875 0.6875
0.6875 0.6875 0.6875
0.6875 0.6875 0.6875
0.6875 0.6875 0.6875
0.6875 0.6875 0.6875
0.6875 0.6875 0.6875
0.6875 0.6875 0.6875
0.6875 0.6875 0.6875
0.6875 0.6875 0.6875
0.6875 0.6875 0.6875
0.6875 0.6875 0.6875
0.6875 0.6875 0.6875
0.71875 0.71875 0.71875
0.75 0.75 0.75
0.78125 0.78125 0.78125
0.8125 0.8125 0.8125
0.84375 0.84375 0.84375
0.875 0.875 0.875
0.90625 0.90625 0.90625
0.825 0.834375 0.0515625
0.96875 0.484375 0.0678125
1 0.065 0.05
0.71875 0.71875 0.71875
0.71875 0.71875 0.71875
0.71875 0.71875 0.71875
0.71875 0.71875 0.71875
0.71875 0.71875 0.71875
0.71875 0.71875 0.71875
0.71875 0.71875 0.71875
0.71875 0.71875 0.71875
0.71875 0.71875 0.71875
0.71875 0.71875 0.71875
0.71875 0.71875 0.71875
0.71875 0.71875 0.71875
0.71875 0.71875 0.71875
0.71875 0.71875 0.71875
0.71875 0.71875 0.71875
0.71875 0.71875 0.71875
0.71875 0.71875 0.71875
0.71875 0.71875 0.71875
0.71875 0.71875 0.71875
0.71875 0.71875 0.71875
0.71875 0.71875 0.71875
0.71875 0.71875 0.71875
0.71875 0.71875 0.71875
0.71875 0.71875 0.71875
0.75 0.75 0.75
0.78125 0.78125 0.78125
0.8125 0.8125 0.8125
0.84375 0.84375 0.84375
0.875 0.875 0.875
0.90625 0.90625 0.90625
0.825 0.834375 0.0515625
0.96875 0.484375 0.0678125
1 0.065 0.05
0.75 0.75 0.75
0.75 0.75 0.75
0.75 0.75 0.75
0.75 0.75 0.75
0.75 0.75 0.75
0.75 0.75 0.75
0.75 0.75 0.75
0.75 0.75 0.75
0.75 0.75 0.75
0.75 0.75 0.75
0.75 0.75 0.75
0.75 0.75 0.75
0.75 0.75 0.75
0.75 0.75 0.75
0.75 0.75 0.75
0.75 0.75 0.75
0.75 0.75 0.75
0.75 0.75 0.75
0.75 0.75 0.75
0.75 0.75 0.75
0.75 0.75 0.75
0.75 0.75 0.75
0.75 0.75 0.75
0.75 0.75 0.75
0.75 0.75 0.75
0.78125 0.78125 0.78125
0.8125 0.8125 0.8125
0.84375 0.84375 0.84375
0.875 0.875 0.875
0.90625 0.90625 0.90625
0.825 0.834375 0.0515625
0.96875 0.484375 0.0678125
1 0.065 0.05
0.78125 0.78125 0.78125
0.78125 0.78125 0.78125
0.78125 0.78125 0.78125
0.78125 0.78125 0.78125
0.78125 0.78125 0.78125
0.78125 0.78125 0.78125
0.78125 0.78125 0.78125
0.78125 0.78125 0.78125
0.78125 0.78125 0.78125
0.78125 0.78125 0.78125
0.78125 0.78125 0.78125
0.78125 0.78125 0.78125
0.78125 0.78125 0.78125
0.78125 0.78125 0.78125
0.78125 0.78125 0.78125
0.78125 0.78125 0.78125
0.78125 0.78125 0.78125
0.78125 0.78125 0.78125
0.78125 0.78125 0.78125
0.78125 0.78125 0.78125
0.78125 0.78125 0.78125
0.78125 0.78125 0.78125
0.78125 0.78125 0.78125
0.78125 0.78125 0.78125
0.78125 0.78125 0.78125
0.78125 0.78125 0.78125
0.8125 0.8125 0.8125
0.84375 0.84375 0.84375
0.875 0.875 0.875
0.90625 0.90625 0.90625
0.825 0.834375 0.0515625
0.96875 0.484375 0.0678125
1 0.065 0.05
0.8125 0.8125 0.8125
0.8125 0.8125 0.8125
0.8125 0.8125 0.8125
0.8125 0.8125 0.8125
0.8125 0.8125 0.8125
0.8125 0.8125 0.8125
0.8125 0.8125 0.8125
0.8125 0.8125 0.8125
0.8125 0.8125 0.8125
0.8125 0.8125 0.8125
0.8125 0.8125 0.8125
0.8125 0.8125 0.8125
0.8125 0.8125 0.8125
0.8125 0.8125 0.8125
0.8125 0.8125 0.8125
0.8125 0.8125 0.8125
0.8125 0.8125 0.8125
0.8125 0.8125 0.8125
0.8125 0.8125 0.8125
0.8125 0.8125 0.8125
0.8125 0.8125 0.8125
0.8125 0.8125 0.8125
0.8125 0.8125 0.8125
0.8125 0.8125 0.8125
0.8125 0.8125 0.8125
0.8125 0.8125 0.8125
0.8125 0.8125 0.8125
0.84375 0.84375 0.84375
0.875 0.875 0.875
0.90625 0.90625 0.90625
0.825 0.834375 0.0515625
0.96875 0.484375 0.0678125
1 0.065 0.05
0.84375 0.84375 0.84375
0.84375 0.84375 0.84375
0.84375 0.84375 0.84375
0.84375 0.84375 0.84375
0.84375 0.84375 0.84375
0.84375 0.84375 0.84375
0.84375 0.84375 0.84375
0.84375 0.84375 0.84375
0.84375 0.84375 0.84375
