LUTs/saturationcheck.cube
TITLE "Generated by lutgen"
LUT_3D_SIZE 9
0.01 0.01 0.01
0.125 0.125 0.125
0.25 0.25 0.25
0.375 0.375 0.375
0.5 0.5 0.5
0.625 0.625 0.625
0.75 0.75 0.75
0.875 0.875 0.875
1 0.065 0.05
0.125 0.125 0.125
0.125 0.125 0.125
0.25 0.25 0.25
0.375 0.375 0.375
0.5 0.5 0.5
0.625 0.625 0.625
0.75 0.75 0.75
0.875 0.875 0.875
1 0.065 0.05
0.25 0.25 0.25
0.25 0.25 0.25
0.25 0.25 0.25
0.375 0.375 0.375
0.5 0.5 0.5
0.625 0.625 0.625
0.75 0.75 0.75
0.875 0.875 0.875
1 0.065 0.05
0.375 0.375 0.375
0.375 0.375 0.375
0.375 0.375 0.375
0.375 0.375 0.375
0.5 0.5 0.5
0.625 0.625 0.625
0.75 0.75 0.75
0.875 0.875 0.875
1 0.065 0.05
0.5 0.5 0.5
0.5 0.5 0.5
0.5 0.5 0.5
0.5 0.5 0.5
0.5 0.5 0.5
0.625 0.625 0.625
0.75 0.75 0.75
0.875 0.875 0.875
1 0.065 0.05
0.625 0.625 0.625
0.625 0.625 0.625
0.625 0.625 0.625
0.625 0.625 0.625
0.625 0.625 0.625
0.625 0.625 0.625
0.75 0.75 0.75
0.875 0.875 0.875
1 0.065 0.05
0.75 0.75 0.75
0.75 0.75 0.75
0.75 0.75 0.75
0.75 0.75 0.75
0.75 0.75 0.75
0.75 0.75 0.75
0.75 0.75 0.75
0.875 0.875 0.875
1 0.065 0.05
0.875 0.875 0.875
0.875 0.875 0.875
0.875 0.875 0.875
0.875 0.875 0.875
0.875 0.875 0.875
0.875 0.875 0.875
0.875 0.875 0.875
0.875 0.875 0.875
1 0.065 0.05
1 0.065 0.05
1 0.065 0.05
1 0.065 0.05
1 0.065 0.05
1 0.065 0.05
1 0.065 0.05
1 0.065 0.05
1 0.065 0.05
1 0.065 0.05
0.125 0.125 0.125
0.125 0.125 0.125
0.25 0.25 0.25
0.375 0.375 0.375
0.5 0.5 0.5
0.625 0.625 0.625
0.75 0.75 0.75
0.875 0.875 0.875
1 0.065 0.05
0.125 0.125 0.125
0.125 0.125 0.125
0.25 0.25 0.25
0.375 0.375 0.375
0.5 0.5 0.5
0.625 0.625 0.625
0.75 0.75 0.75
0.875 0.875 0.875
1 0.065 0.05
0.25 0.25 0.25
0.25 0.25 0.25
0.25 0.25 0.25
0.375 0.375 0.375
0.5 0.5 0.5
0.625 0.625 0.625
0.75 0.75 0.75
0.875 0.875 0.875
1 0.065 0.05
0.375 0.375 0.375
0.375 0.375 0.375
0.375 0.375 0.375
0.375 0.375 0.375
0.5 0.5 0.5
0.625 0.625 0.625
0.75 0.75 0.75
0.875 0.875 0.875
1 0.065 0.05
0.5 0.5 0.5
0.5 0.5 0.5
0.5 0.5 0.5
0.5 0.5 0.5
0.5 0.5 0.5
0.625 0.625 0.625
0.75 0.75 0.75
0.875 0.875 0.875
1 0.065 0.05
0.625 0.625 0.625
0.625 0.625 0.625
0.625 0.625 0.625
0.625 0.625 0.625
0.625 0.625 0.625
0.625 0.625 0.625
0.75 0.75 0.75
0.875 0.875 0.875
1 0.065 0.05
0.75 0.75 0.75
0.75 0.75 0.75
0.75 0.75 0.75
0.75 0.75 0.75
0.75 0.75 0.75
0.75 0.75 0.75
0.75 0.75 0.75
0.875 0.875 0.875
1 0.065 0.05
0.875 0.875 0.875
0.875 0.875 0.875
0.875 0.875 0.875
0.875 0.875 0.875
0.875 0.875 0.875
0.875 0.875 0.875
0.875 0.875 0.875
0.875 0.875 0.875
1 0.065 0.05
1 0.065 0.05
1 0.065 0.05
1 0.065 0.05
1 0.065 0.05
1 0.065 0.05
1 0.065 0.05
1 0.065 0.05
1 0.065 0.05
1 0.065 0.05
0.25 0.25 0.25
0.25 0.25 0.25
0.25 0.25 0.25
0.375 0.375 0.375
0.5 0.5 0.5
0.625 0.625 0.625
0.75 0.75 0.75
0.875 0.875 0.875
1 0.065 0.05
0.25 0.25 0.25
0.25 0.25 0.25
0.25 0.25 0.25
0.375 0.375 0.375
0.5 0.5 0.5
0.625 0.625 0.625
0.75 0.75 0.75
0.875 0.875 0.875
1 0.065 0.05
0.25 0.25 0.25
0.25 0.25 0.25
0.25 0.25 0.25
0.375 0.375 0.375
0.5 0.5 0.5
0.625 0.625 0.625
0.75 0.75 0.75
0.875 0.875 0.875
1 0.065 0.05
0.375 0.375 0.375
0.375 0.375 0.375
0.375 0.375 0.375
0.375 0.375 0.375
0.5 0.5 0.5
0.625 0.625 0.625
0.75 0.75 0.75
0.875 0.875 0.875
1 0.065 0.05
0.5 0.5 0.5
0.5 0.5 0.5
0.5 0.5 0.5
0.5 0.5 0.5
0.5 0.5 0.5
0.625 0.625 0.625
0.75 0.75 0.75
0.875 0.875 0.875
1 0.065 0.05
0.625 0.625 0.625
0.625 0.625 0.625
0.625 0.625 0.625
0.625 0.625 0.625
0.625 0.625 0.625
0.625 0.625 0.625
0.75 0.75 0.75
0.875 0.875 0.875
1 0.065 0.05
0.75 0.75 0.75
0.75 0.75 0.75
0.75 0.75 0.75
0.75 0.75 0.75
0.75 0.75 0.75
0.75 0.75 0.75
0.75 0.75 0.75
0.875 0.875 0.875
1 0.065 0.05
0.875 0.875 0.875
0.875 0.875 0.875
0.875 0.875 0.875
0.875 0.875 0.875
0.875 0.875 0.875
0.875 0.875 0.875
0.875 0.875 0.875
0.875 0.875 0.875
1 0.065 0.05
1 0.065 0.05
1 0.065 0.05
1 0.065 0.05
1 0.065 0.05
1 0.065 0.05
1 0.065 0.05
1 0.065 0.05
1 0.065 0.05
1 0.065 0.05
0.375 0.375 0.375
0.375 0.375 0.375
0.375 0.375 0.375
0.375 0.375 0.375
0.5 0.5 0.5
0.625 0.625 0.625
0.75 0.75 0.75
0.875 0.875 0.875
1 0.065 0.05
0.375 0.375 0.375
0.375 0.375 0.375
0.375 0.375 0.375
0.375 0.375 0.375
0.5 0.5 0.5
0.625 0.625 0.625
0.75 0.75 0.75
0.875 0.875 0.875
1 0.065 0.05
0.375 0.375 0.375
0.375 0.375 0.375
0.375 0.375 0.375
0.375 0.375 0.375
0.5 0.5 0.5
0.625 0.625 0.625
0.75 0.75 0.75
0.875 0.875 0.875
1 0.065 0.05
0.375 0.375 0.375
0.375 0.375 0.375
0.375 0.375 0.375
0.375 0.375 0.375
0.5 0.5 0.5
0.625 0.625 0.625
0.75 0.75 0.75
0.875 0.875 0.875
1 0.065 0.05
0.5 0.5 0.5
0.5 0.5 0.5
0.5 0.5 0.5
0.5 0.5 0.5
0.5 0.5 0.5
0.625 0.625 0.625
0.75 0.75 0.75
0.875 0.875 0.875
1 0.065 0.05
0.625 0.625 0.625
0.625 0.625 0.625
0.625 0.625 0.625
0.625 0.625 0.625
0.625 0.625 0.625
0.625 0.625 0.625
0.75 0.75 0.75
0.875 0.875 0.875
1 0.065 0.05
0.75 0.75 0.75
0.75 0.75 0.75
0.75 0.75 0.75
0.75 0.75 0.75
0.75 0.75 0.75
0.75 0.75 0.75
0.75 0.75 0.75
0.875 0.875 0.875
1 0.065 0.05
0.875 0.875 0.875
0.875 0.875 0.875
0.875 0.875 0.875
0.875 0.875 0.875
0.875 0.875 0.875
0.875 0.875 0.875
0.875 0.875 0.875
0.875 0.875 0.875
1 0.065 0.05
1 0.065 0.05
1 0.065 0.05
1 0.065 0.05
1 0.065 0.05
1 0.065 0.05
1 0.065 0.05
1 0.065 0.05
1 0.065 0.05
1 0.065 0.05
0.5 0.5 0.5
0.5 0.5 0.5
0.5 0.5 0.5
0.5 0.5 0.5
0.5 0.5 0.5
0.625 0.625 0.625
0.75 0.75 0.75
0.875 0.875 0.875
1 0.065 0.05
0.5 0.5 0.5
0.5 0.5 0.5
0.5 0.5 0.5
0.5 0.5 0.5
0.5 0.5 0.5
0.625 0.625 0.625
0.75 0.75 0.75
0.875 0.875 0.875
1 0.065 0.05
0.5 0.5 0.5
0.5 0.5 0.5
0.5 0.5 0.5
0.5 0.5 0.5
0.5 0.5 0.5
0.625 0.625 0.625
0.75 0.75 0.75
0.875 0.875 0.875
1 0.065 0.05
0.5 0.5 0.5
0.5 0.5 0.5
0.5 0.5 0.5
0.5 0.5 0.5
0.5 0.5 0.5
0.625 0.625 0.625
0.75 0.75 0.75
0.875 0.875 0.875
1 0.065 0.05
0.5 0.5 0.5
0.5 0.5 0.5
0.5 0.5 0.5
0.5 0.5 0.5
0.5 0.5 0.5
0.625 0.625 0.625
0.75 0.75 0.75
0.875 0.875 0.875
1 0.065 0.05
0.625 0.625 0.625
0.625 0.625 0.625
0.625 0.625 0.625
0.625 0.625 0.625
0.625 0.625 0.625
0.625 0.625 0.625
0.75 0.75 0.75
0.875 0.875 0.875
1 0.065 0.05
0.75 0.75 0.75
0.75 0.75 0.75
0.75 0.75 0.75
0.75 0.75 0.75
0.75 0.75 0.75
0.75 0.75 0.75
0.75 0.75 0.75
0.875 0.875 0.875
1 0.065 0.05
0.875 0.875 0.875
0.875 0.875 0.875
0.875 0.875 0.875
0.875 0.875 0.875
0.875 0.875 0.875
0.875 0.875 0.875
0.875 0.875 0.875
0.875 0.875 0.875
1 0.065 0.05
1 0.065 0.05
1 0.065 0.05
1 0.065 0.05
1 0.065 0.05
1 0.065 0.05
1 0.065 0.05
1 0.065 0.05
1 0.065 0.05
1 0.065 0.05
0.625 0.625 0.625
0.625 0.625 0.625
0.625 0.625 0.625
0.625 0.625 0.625
0.625 0.625 0.625
0.625 0.625 0.625
0.75 0.75 0.75
0.875 0.875 0.875
1 0.065 0.05
0.625 0.625 0.625
0.625 0.625 0.625
0.625 0.625 0.625
0.625 0.625 0.625
0.625 0.625 0.625
0.625 0.625 0.625
0.75 0.75 0.75
0.875 0.875 0.875
1 0.065 0.05
0.625 0.625 0.625
0.625 0.625 0.625
0.625 0.625 0.625
0.625 0.625 0.625
0.625 0.625 0.625
0.625 0.625 0.625
0.75 0.75 0.75
0.875 0.875 0.875
1 0.065 0.05
0.625 0.625 0.625
0.625 0.625 0.625
0.625 0.625 0.625
0.625 0.625 0.625
0.625 0.625 0.625
0.625 0.625 0.625
0.75 0.75 0.75
0.875 0.875 0.875
1 0.065 0.05
0.625 0.625 0.625
0.625 0.625 0.625
0.625 0.625 0.625
0.625 0.625 0.625
0.625 0.625 0.625
0.625 0.625 0.625
0.75 0.75 0.75
0.875 0.875 0.875
1 0.065 0.05
0.625 0.625 0.625
0.625 0.625 0.625
0.625 0.625 0.625
0.625 0.625 0.625
0.625 0.625 0.625
0.625 0.625 0.625
0.75 0.75 0.75
0.875 0.875 0.875
1 0.065 0.05
0.75 0.75 0.75
0.75 0.75 0.75
0.75 0.75 0.75
0.75 0.75 0.75
0.75 0.75 0.75
0.75 0.75 0.75
0.75 0.75 0.75
0.875 0.875 0.875
1 0.065 0.05
0.875 0.875 0.875
0.875 0.875 0.875
0.875 0.875 0.875
0.875 0.875 0.875
0.875 0.875 0.875
0.875 0.875 0.875
0.875 0.875 0.875
0.875 0.875 0.875
1 0.065 0.05
1 0.065 0.05
1 0.065 0.05
1 0.065 0.05
1 0.065 0.05
1 0.065 0.05
1 0.065 0.05
1 0.065 0.05
1 0.065 0.05
1 0.065 0.05
0.75 0.75 0.75
0.75 0.75 0.75
0.75 0.75 0.75
0.75 0.75 0.75
0.75 0.75 0.75
0.75 0.75 0.75
0.75 0.75 0.75
0.875 0.875 0.875
1 0.065 0.05
0.75 0.75 0.75
0.75 0.75 0.75
0.75 0.75 0.75
0.75 0.75 0.75
0.75 0.75 0.75
0.75 0.75 0.75
0.75 0.75 0.75
0.875 0.875 0.875
1 0.065 0.05
0.75 0.75 0.75
0.75 0.75 0.75
0.75 0.75 0.75
0.75 0.75 0.75
0.75 0.75 0.75
0.75 0.75 0.75
0.75 0.75 0.75
0.875 0.875 0.875
1 0.065 0.05
0.75 0.75 0.75
0.75 0.75 0.75
0.75 0.75 0.75
0.75 0.75 0.75
0.75 0.75 0.75
0.75 0.75 0.75
0.75 0.75 0.75
0.875 0.875 0.875
1 0.065 0.05
0.75 0.75 0.75
0.75 0.75 0.75
0.75 0.75 0.75
0.75 0.75 0.75
0.75 0.75 0.75
0.75 0.75 0.75
0.75 0.75 0.75
0.875 0.875 0.875
1 0.065 0.05
0.75 0.75 0.75
0.75 0.75 0.75
0.75 0.75 0.75
0.75 0.75 0.75
0.75 0.75 0.75
0.75 0.75 0.75
0.75 0.75 0.75
0.875 0.875 0.875
1 0.065 0.05
0.75 0.75 0.75
0.75 0.75 0.75
0.75 0.75 0.75
0.75 0.75 0.75
0.75 0.75 0.75
0.75 0.75 0.75
0.75 0.75 0.75
0.875 0.875 0.875
1 0.065 0.05
0.875 0.875 0.875
0.875 0.875 0.875
0.875 0.875 0.875
0.875 0.875 0.875
0.875 0.875 0.875
0.875 0.875 0.875
0.875 0.875 0.875
0.875 0.875 0.875
1 0.065 0.05
1 0.065 0.05
1 0.065 0.05
1 0.065 0.05
1 0.065 0.05
1 0.065 0.05
1 0.065 0.05
1 0.065 0.05
1 0.065 0.05
1 0.065 0.05
0.875 0.875 0.875
0.875 0.875 0.875
0.875 0.875 0.875
0.875 0.875 0.875
0.875 0.875 0.875
0.875 0.875 0.875
0.875 0.875 0.875
0.875 0.875 0.875
1 0.065 0.05
0.875 0.875 0.875
0.875 0.875 0.875
0.875 0.875 0.875
0.875 0.875 0.875
0.875 0.875 0.875
0.875 0.875 0.875
0.875 0.875 0.875
0.875 0.875 0.875
1 0.065 0.05
0.875 0.875 0.875
0.875 0.875 0.875
0.875 0.875 0.875
0.875 0.875 0.875
0.875 0.875 0.875
0.875 0.875 0.875
0.875 0.875 0.875
0.875 0.875 0.875
1 0.065 0.05
0.875 0.875 0.875
0.875 0.875 0.875
0.875 0.875 0.875
0.875 0.875 0.875
0.875 0.875 0.875
0.875 0.875 0.875
0.875 0.875 0.875
0.875 0.875 0.875
1 0.065 0.05
0.875 0.875 0.875
0.875 0.875 0.875
0.875 0.875 0.875
0.875 0.875 0.875
0.875 0.875 0.875
0.875 0.875 0.875
0.875 0.875 0.875
0.875 0.875 0.875
1 0.065 0.05
0.875 0.875 0.875
0.875 0.875 0.875
0.875 0.875 0.875
0.875 0.875 0.875
0.875 0.875 0.875
0.875 0.875 0.875
0.875 0.875 0.875
0.875 0.875 0.875
1 0.065 0.05
0.875 0.875 0.875
0.875 0.875 0.875
0.875 0.875 0.875
0.875 0.875 0.875
0.875 0.875 0.875
0.875 0.875 0.875
0.875 0.875 0.875
0.875 0.875 0.875
1 0.065 0.05
0.875 0.875 0.875
0.875 0.875 0.875
0.875 0.875 0.875
0.875 0.875 0.875
0.875 0.875 0.875
0.875 0.875 0.875
0.875 0.875 0.875
0.875 0.875 0.875
1 0.065 0.05
1 0.065 0.05
1 0.065 0.05
1 0.065 0.05
1 0.065 0.05
1 0.065 0.05
1 0.065 0.05
1 0.065 0.05
1 0.065 0.05
1 0.065 0.05
1 0.065 0.05
1 0.065 0.05
1 0.065 0.05
1 0.065 0.05
1 0.065 0.05
1 0.065 0.05
1 0.065 0.05
1 0.065 0.05
1 0.065 0.05
1 0.065 0.05
1 0.065 0.05
1 0.065 0.05
1 0.065 0.05
1 0.065 0.05
1 0.065 0.05
1 0.065 0.05
1 0.065 0.05
1 0.065 0.05
1 0.065 0.05
1 0.065 0.05
1 0.065 0.05
1 0.065 0.05
1 0.065 0.05
1 0.065 0.05
1 0.065 0.05
1 0.065 0.05
1 0.065 0.05
1 0.065 0.05
1 0.065 0.05
1 0.065 0.05
1 0.065 0.05
1 0.065 0.05
1 0.065 0.05
1 0.065 0.05
1 0.065 0.05
1 0.065 0.05
1 0.065 0.05
1 0.065 0.05
1 0.065 0.05
1 0.065 0.05
1 0.065 0.05
1 0.065 0.05
1 0.065 0.05
1 0.065 0.05
1 0.065 0.05
1 0.065 0.05
1 0.065 0.05
1 0.065 0.05
1 0.065 0.05
1 0.065 0.05
1 0.065 0.05
1 0.065 0.05
1 0.065 0.05
1 0.065 0.05
1 0.065 0.05
1 0.065 0.05
1 0.065 0.05
1 0.065 0.05
1 0.065 0.05
1 0.065 0.05
1 0.065 0.05
1 0.065 0.05
1 0.065 0.05
1 0.065 0.05
1 0.065 0.05
1 0.065 0.05
1 0.065 0.05
1 0.065 0.05
1 0.065 0.05
1 0.065 0.05
1 0.065 0.05
1 0.065 0.05
1 0.065 0.05
1 0.065 0.05
1 0.065 0.05
1 0.065 0.05
1 0.065 0.05
1 0.065 0.05
1 0.065 0.05
1 0.065 0.05
1 0.065 0.05
