LUTs/skincheck.cube
TITLE "Generated by lutgen"
LUT_3D_SIZE 65
0 0 0
0 0 0
0 0 0
0 0 0
0 0 0
0 0 0
0 0 0
0 0 0
0 0 0
0 0 0
0 0 0
0 0 0
0 0 0
0 0 0
0 0 0
0 0 0
0 0 0
0 0 0
0 0 0
0 0 0
0 0 0
0 0 0
0 0 0
0 0 0
0 0 0
0 0 0
0 0 0
0 0 0
0 0 0
0 0 0
0 0 0
0 0 0
0 0 0
0 0 0
0 0 0
0 0 0
0 0 0
0 0 0
0 0 0
0 0 0
0 0 0
0 0 0
0 0 0
0 0 0
0 0 0
0 0 0
0 0 0
0 0 0
0 0 0
0 0 0
0 0 0
0 0 0
0 0 0
0 0 0
0 0 0
0 0 0
0 0 0
0 0 0
0 0 0
0 0 0
0 0 0
0 0 0
0 0 0
0 0 0
0 0 0
0 0 0
0 0 0
0 0.115385 0.153846
0.923077 0.538462 0
0.692308 0 0.519231
0.207692 0 0.461538
0 0.025641 0.307692
0 0.0918367 0.197802
0 0.0865385 0.115385
0 0.0498575 0.0512821
0 0 0
0 0 0
0 0 0
0 0 0
0 0 0
0 0 0
0 0 0
0 0 0
0 0 0
0 0 0
0 0 0
0 0 0
0 0 0
0 0 0
0 0 0
0 0 0
0 0 0
0 0 0
0 0 0
0 0 0
0 0 0
0 0 0
0 0 0
0 0 0
0 0 0
0 0 0
0 0 0
0 0 0
0 0 0
0 0 0
0 0 0
0 0 0
0 0 0
0 0 0
0 0 0
0 0 0
0 0 0
0 0 0
0 0 0
0 0 0
0 0 0
0 0 0
0 0 0
0 0 0
0 0 0
0 0 0
0 0 0
0 0 0
0 0 0
0 0 0
0 0 0
0 0 0
0 0 0
0 0 0
0 0 0
0 0 0
0 0 0
0 0 0
0 0 0
0 0.115385 0.153846
0.215385 0.615385 0
0.923077 0.538462 0
0.857143 0 0.153061
0.692308 0 0.519231
0.454416 0 0.564103
0.207692 0 0.461538
0.0600763 0 0.377622
0 0.025641 0.307692
0 0.0716887 0.248521
0 0.0918367 0.197802
0 0.0948718 0.153846
0 0.0865385 0.115385
0 0.0706681 0.081448
0 0.0498575 0.0512821
0 0.0242915 0.0226934
0 0 0
0 0 0
0 0 0
0 0 0
0 0 0
0 0 0
0 0 0
0 0 0
0 0 0
0 0 0
0 0 0
0 0 0
0 0 0
0 0 0
0 0 0
0 0 0
0 0 0
0 0 0
0 0 0
0 0 0
0 0 0
0 0 0
0 0 0
0 0 0
0 0 0
0 0 0
0 0 0
0 0 0
0 0 0
0 0 0
0 0 0
0 0 0
0 0 0
0 0 0
0 0 0
0 0 0
0 0 0
0 0 0
0 0 0
0 0 0
0 0 0
0 0 0
0 0 0
0 0 0
0 0 0
0 0 0
0 0 0
0 0 0
0 0 0
0 0 0
0 0 0
0 0.115385 0.153846
0 0.483516 0.0518053
0.548077 0.730769 0
0.923077 0.538462 0
0.923077 0.0461538 0
0.797203 0 0.30801
0.692308 0 0.519231
0.56873 0 0.60355
0.357928 0 0.527473
0.207692 0 0.461538
0.100962 0 0.403846
0.0259516 0 0.352941
0 0.025641 0.307692
0 0.0597699 0.267206
0 0.0807692 0.230769
0 0.0918367 0.197802
0 0.0953592 0.167832
0 0.0931365 0.140468
0 0.0865385 0.115385
0 0.0766154 0.0923077
0 0.0641784 0.0710059
0 0.0498575 0.0512821
0 0.032967 0.0317896
0 0.0159151 0.0144059
0 0 0
0 0 0
0 0 0
0 0 0
0 0 0
0 0 0
0 0 0
0 0 0
0 0 0
0 0 0
0 0 0
0 0 0
0 0 0
0 0 0
0 0 0
0 0 0
0 0 0
0 0 0
0 0 0
0 0 0
0 0 0
0 0 0
0 0 0
0 0 0
0 0 0
0 0 0
0 0 0
0 0 0
0 0 0
0 0 0
0 0 0
0 0 0
0 0 0
0 0 0
0 0 0
0 0 0
0 0 0
0 0 0
0 0 0
0 0 0
0 0 0
0 0 0
0 0 0
0 0.115385 0.153846
0 0.410256 0.148148
0.215385 0.615385 0
0.729816 0.783217 0
0.923077 0.538462 0
0.95858 0.165908 0
0.857143 0 0.153061
0.769231 0 0.371795
0.692308 0 0.519231
0.624434 0 0.615252
0.454416 0 0.564103
0.31547 0 0.510121
0.207692 0 0.461538
0.12428 0 0.417582
0.0600763 0 0.377622
0.011124 0 0.341137
0 0.025641 0.307692
0 0.0526154 0.276923
0 0.0716887 0.248521
0 0.0843621 0.222222
0 0.0918367 0.197802
0 0.0950791 0.175066
0 0.0948718 0.153846
0 0.0918514 0.133995
0 0.0865385 0.115385
0 0.07936 0.0979021
0 0.0706681 0.081448
0 0.0607535 0.0659341
0 0.0498575 0.0512821
0 0.037422 0.0366635
0 0.0242915 0.0226934
0 0.0118343 0.0105447
0 0 0
0 0 0
0 0 0
0 0 0
0 0 0
0 0 0
0 0 0
0 0 0
0 0 0
0 0 0
0 0 0
0 0 0
0 0 0
0 0 0
0 0 0
0 0 0
0 0 0
0 0 0
0 0 0
0 0 0
0 0 0
0 0 0
0 0 0
0 0 0
0 0 0
0 0 0
0 0 0
0 0 0
0 0 0
0 0 0
0 0 0
0 0 0
0 0 0
0 0 0
0 0 0
0 0.115385 0.153846
0 0.363636 0.190083
0.0448718 0.538462 0
0.409194 0.686391 0
0.813187 0.784144 0
0.923077 0.538462 0
0.980769 0.245192 0
0.895928 0 0.0395262
0.820513 0 0.250712
0.753036 0 0.406243
0.692308 0 0.519231
0.637363 0 0.599424
0.520661 0 0.587413
0.394576 0 0.541806
0.291667 0 0.5
0.207692 0 0.461538
0.139281 0 0.426036
0.083729 0 0.393162
0.038854 0 0.362637
0.00288119 0 0.334218
0 0.025641 0.307692
0 0.0479068 0.282878
0 0.0649038 0.259615
0 0.0774529 0.237762
0 0.086239 0.217195
0 0.0918367 0.197802
0 0.0947293 0.179487
0 0.0953251 0.162162
0 0.0939697 0.145749
0 0.0909574 0.130178
0 0.0865385 0.115385
0 0.0809271 0.101313
0 0.0743066 0.0879121
0 0.0668345 0.0751342
0 0.0586459 0.0629371
0 0.0498575 0.0512821
0 0.0401338 0.0396975
0 0.0294599 0.0280496
0 0.0192308 0.0176282
0 0.00941915 0.00831384
0 0 0
0 0 0
0 0 0
0 0 0
0 0 0
0 0 0
0 0 0
0 0 0
0 0 0
0 0 0
0 0 0
0 0 0
0 0 0
0 0 0
0 0 0
0 0 0
0 0 0
0 0 0
0 0 0
0 0 0
0 0 0
0 0 0
0 0 0
0 0 0
0 0 0
0 0 0
0 0 0
0 0.115385 0.153846
0 0.331361 0.210287
0 0.483516 0.0518053
0.215385 0.615385 0
0.548077 0.730769 0
0.832579 0.746873 0
0.923077 0.538462 0
0.995951 0.301406 0
0.923077 0.0461538 0
0.857143 0 0.153061
0.797203 0 0.30801
0.742475 0 0.42773
0.692308 0 0.519231
0.646154 0 0.588
0.56873 0 0.60355
0.454416 0 0.564103
0.357928 0 0.527473
0.276457 0 0.493369
0.207692 0 0.461538
0.149724 0 0.431762
0.100962 0 0.403846
0.0600763 0 0.377622
0.0259516 0 0.352941
0 0.00235479 0.32967
0 0.025641 0.307692
0 0.0445862 0.286902
0 0.0597699 0.267206
0 0.0716887 0.248521
0 0.0807692 0.230769
0 0.0873793 0.213884
0 0.0918367 0.197802
0 0.0944169 0.182469
0 0.0953592 0.167832
0 0.0948718 0.153846
0 0.0931365 0.140468
0 0.0903124 0.12766
0 0.0865385 0.115385
0 0.081937 0.103611
0 0.0766154 0.0923077
0 0.0706681 0.081448
0 0.0641784 0.0710059
0 0.0572199 0.0609579
0 0.0498575 0.0512821
0 0.041958 0.0417673
0 0.032967 0.0317896
0 0.0242915 0.0226934
0 0.0159151 0.0144059
0 0.00782269 0.00686142
0 0 0
0 0 0
0 0 0
0 0 0
0 0 0
0 0 0
0 0 0
0 0 0
0 0 0
0 0 0
0 0 0
0 0 0
0 0 0
0 0 0
0 0 0
0 0 0
0 0 0
0 0 0
0 0 0
0 0.115385 0.153846
0 0.307692 0.220513
0 0.442308 0.110577
0.0907639 0.561086 0
0.351852 0.666667 0
0.65097 0.761134 0
0.846154 0.719231 0
0.923077 0.538462 0
0.993007 0.338525 0
0.943144 0.112767 0
0.884615 0 0.0737179
0.830769 0 0.224308
0.781065 0 0.345471
0.735043 0 0.442387
0.692308 0 0.519231
0.65252 0 0.579393
0.605128 0 0.615385
0.501041 0 0.580645
0.411058 0 0.548077
0.333227 0 0.517483
0.265904 0 0.488688
0.207692 0 0.461538
0.157407 0 0.435897
0.114036 0 0.411642
0.07671 0 0.388664
0.0446821 0 0.366864
0.0173077 0 0.346154
0 0.00597172 0.326454
0 0.025641 0.307692
0 0.0421226 0.289803
0 0.0557851 0.272727
0 0.0669516 0.25641
0 0.0759052 0.240803
0 0.0828951 0.225859
0 0.088141 0.211538
0 0.0918367 0.197802
0 0.0941538 0.184615
0 0.0952444 0.171946
0 0.0952435 0.159763
0 0.0942712 0.148041
0 0.0924343 0.136752
0 0.0898284 0.125874
0 0.0865385 0.115385
0 0.0826408 0.105263
0 0.0782036 0.0954907
0 0.073288 0.0860495
0 0.0679487 0.0769231
0 0.0622351 0.0680958
0 0.0561915 0.0595533
0 0.0498575 0.0512821
0 0.0432692 0.0432692
0 0 0
0 0 0
0 0 0
0 0 0
0 0 0
0 0 0
0 0 0
0 0 0
0 0 0
0 0 0
0 0 0
0 0 0
0 0 0
0 0 0
0 0 0
0 0 0
0 0.115385 0.153846
0 0.289593 0.225712
0 0.410256 0.148148
0.00681867 0.518219 0
0.215385 0.615385 0
0.460492 0.703297 0
0.729816 0.783217 0
0.856187 0.697979 0
0.923077 0.538462 0
0.984615 0.364308 0
0.95858 0.165908 0
0.905983 0 0.00838873
0.857143 0 0.153061
0.811671 0 0.272889
0.769231 0 0.371795
0.729529 0 0.453014
0.692308 0 0.519231
0.657343 0 0.572685
0.624434 0 0.615252
0.538305 0 0.593407
0.454416 0 0.564103
0.380542 0 0.536383
0.31547 0 0.510121
0.258155 0 0.485207
0.207692 0 0.461538
0.163296 0 0.439024
0.12428 0 0.417582
0.0900487 0 0.397138
0.0600763 0 0.377622
0.0339031 0 0.358974
0.011124 0 0.341137
0 0.00861859 0.324059
0 0.025641 0.307692
0 0.0402236 0.291994
0 0.0526154 0.276923
0 0.0630379 0.262443
0 0.0716887 0.248521
0 0.0787441 0.235123
0 0.0843621 0.222222
0 0.088684 0.20979
0 0.0918367 0.197802
0 0.0939342 0.186235
0 0.0950791 0.175066
0 0.0953638 0.164276
0 0.0948718 0.153846
0 0.0936783 0.143758
0 0.0918514 0.133995
0 0.0894529 0.124542
0 0.0865385 0.115385
0 0 0
0 0 0
0 0 0
0 0 0
0 0 0
0 0 0
0 0 0
0 0 0
0 0 0
0 0 0
0 0 0
0 0 0
0 0 0
0 0 0
0 0 0
0 0 0
0 0 0
0 0.00505723 0.0180995
0 0.115385 0.153846
0 0.275304 0.228212
0 0.384615 0.173077
0 0.483516 0.0518053
0.117292 0.573427 0
0.320634 0.655518 0
0.548077 0.730769 0
0.792 0.8 0
0.863905 0.681156 0
0.923077 0.538462 0
0.978022 0.384223 0
0.970822 0.209229 0
0.923077 0.0461538 0
0.878412 0 0.0920916
0.836538 0 0.209135
0.797203 0 0.30801
0.760181 0 0.39127
0.725275 0 0.461068
0.692308 0 0.519231
0.661123 0 0.567315
0.631579 0 0.606648
0.56873 0 0.60355
0.490385 0 0.576923
0.420423 0 0.551595
0.357928 0 0.527473
0.302097 0 0.504472
0.252225 0 0.482517
0.207692 0 0.461538
0.167951 0 0.441472
0.132517 0 0.422259
0.100962 0 0.403846
0.0729023 0 0.386185
0.048 0 0.369231
0.0259516 0 0.352941
0.00648612 0 0.337278
0 0.0106389 0.322206
0 0.025641 0.307692
0 0.0387158 0.293706
0 0.0500392 0.28022
0 0.0597699 0.267206
0 0.0680509 0.254642
0 0.0750116 0.242503
0 0.0807692 0.230769
0 0.0854299 0.21942
0 0.0890899 0.208437
0 0.0918367 0.197802
0 0.09375 0.1875
0 0 0
0 0 0
0 0 0
0 0 0
0 0 0
0 0 0
0 0 0
0 0 0
0 0 0
0 0 0
0 0 0
0 0 0
0 0 0
0 0 0
0 0 0
0 0 0
0 0 0
0 0 0
0 0 0
0 0.0106542 0.0323887
0 0.115385 0.153846
0 0.263736 0.229199
0 0.363636 0.190083
0 0.454849 0.0939363
0.0448718 0.538462 0
0.215385 0.615385 0
0.409194 0.686391 0
0.619816 0.752137 0
0.813187 0.784144 0
0.870027 0.66752 0
0.923077 0.538462 0
0.972705 0.400064 0
0.980769 0.245192 0
0.937063 0.0922865 0
0.895928 0 0.0395262
0.857143 0 0.153061
0.820513 0 0.250712
0.785863 0 0.334523
0.753036 0 0.406243
0.721893 0 0.46738
0.692308 0 0.519231
0.664165 0 0.56292
0.637363 0 0.599424
0.594022 0 0.611807
0.520661 0 0.587413
0.454416 0 0.564103
0.394576 0 0.541806
0.340513 0 0.520458
0.291667 0 0.5
0.247541 0 0.480377
0.207692 0 0.461538
0.171724 0 0.443439
0.139281 0 0.426036
0.110045 0 0.409289
0.083729 0 0.393162
0.0600763 0 0.377622
0.038854 0 0.362637
0.0198523 0 0.348178
0.00288119 0 0.334218
0 0.0122312 0.32073
0 0.025641 0.307692
0 0.0374899 0.295082
0 0.0479068 0.282878
0 0.0570091 0.271062
0 0.0649038 0.259615
0 0 0
0 0 0
0 0 0
0 0 0
0 0 0
0 0 0
0 0 0
0 0 0
0 0 0
0 0 0
0 0 0
0 0 0
0 0 0
0 0 0
0 0 0
0 0 0
0 0 0
0 0 0
0 0 0
0 0 0
0 0 0
0 0.0162219 0.043956
0 0.115385 0.153846
0 0.254181 0.229315
0 0.346154 0.201923
0 0.430769 0.124923
0 0.508876 0.00978607
0.134536 0.581197 0
0.30102 0.648352 0
0.484131 0.710875 0
0.679487 0.769231 0
0.823821 0.764028 0
0.875 0.65625 0
0.923077 0.538462 0
0.968326 0.412962 0
0.989011 0.27551 0
0.948718 0.131766 0
0.910603 0.00615272 0
0.874494 0 0.103558
0.840237 0 0.199287
0.807692 0 0.282692
0.776735 0 0.355214
0.747253 0 0.418106
0.719141 0 0.472459
0.692308 0 0.519231
0.666667 0 0.559259
0.64214 0 0.593282
0.615367 0 0.618658
0.546474 0 0.596154
0.483693 0 0.574568
0.426462 0 0.553846
0.374279 0 0.533937
0.326695 0 0.514793
0.283306 0 0.496372
0.243748 0 0.478632
0.207692 0 0.461538
0.174843 0 0.445055
0.144932 0 0.42915
0.117717 0 0.413793
0.0929773 0 0.398957
0.0705128 0 0.384615
0.0501416 0 0.370744
0.0316978 0 0.35732
0.0150299 0 0.344322
0 0 0.331731
0 0 0
0 0 0
0 0 0
0 0 0
0 0 0
0 0 0
0 0 0
0 0 0
0 0 0
0 0 0
0 0 0
0 0 0
0 0 0
0 0 0
0 0 0
0 0 0
0 0 0
0 0 0
0 0 0
0 0 0
0 0 0
0 0 0
0 0 0
0 0.021521 0.0535117
0 0.115385 0.153846
0 0.246154 0.228923
0 0.331361 0.210287
0 0.410256 0.148148
0 0.483516 0.0518053
0.0713436 0.551724 0
0.215385 0.615385 0
0.37557 0.674938 0
0.548077 0.730769 0
0.729816 0.783217 0
0.832579 0.746873 0
0.879121 0.646782 0
0.923077 0.538462 0
0.964657 0.423667 0
0.995951 0.301406 0
0.95858 0.165908 0
0.923077 0.0461538 0
0.889306 0 0.0596486
0.857143 0 0.153061
0.826476 0 0.23545
0.797203 0 0.30801
0.769231 0 0.371795
0.742475 0 0.42773
0.716858 0 0.476634
0.692308 0 0.519231
0.66876 0 0.556162
0.646154 0 0.588
0.624434 0 0.615252
0.56873 0 0.60355
0.509146 0 0.583454
0.454416 0 0.564103
0.404132 0 0.545455
0.357928 0 0.527473
0.31547 0 0.510121
0.276457 0 0.493369
0.240614 0 0.477184
0.207692 0 0.461538
0.177465 0 0.446406
0.149724 0 0.431762
0.12428 0 0.417582
0.100962 0 0.403846
0 0 0
0 0 0
0 0 0
0 0 0
0 0 0
0 0 0
0 0 0
0 0 0
0 0 0
0 0 0
0 0 0
0 0 0
0 0 0
0 0 0
0 0 0
0 0 0
0 0 0
0 0 0
0 0 0
0 0 0
0 0 0
0 0 0
0 0 0
0 0 0
0 0 0
0 0.0264615 0.0615385
0 0.115385 0.153846
0 0.239316 0.228237
0 0.318681 0.216248
0 0.392573 0.165828
0 0.461538 0.0846154
0.0212119 0.526055 0
0.146635 0.586538 0
0.287561 0.643357 0
0.440644 0.696833 0
0.60314 0.747253 0
0.772792 0.794872 0
0.839917 0.73209 0
0.882591 0.638717 0
0.923077 0.538462 0
0.961538 0.432692 0
0.998124 0.322564 0
0.967033 0.195709 0
0.93381 0.081437 0
0.902098 0 0.0205022
0.871795 0 0.111396
0.842809 0 0.19238
0.815057 0 0.26446
0.788462 0 0.328526
0.762951 0 0.385368
0.738462 0 0.435692
0.714932 0 0.480126
0.692308 0 0.519231
0.670537 0 0.553509
0.649573 0 0.583412
